;FLAVOR:Marlin
;TIME:23069
;Filament used: 21.5393m
;Layer height: 0.2
;MINX:31.1
;MINY:63.6
;MINZ:0.2
;MAXX:178.9
;MAXY:146.4
;MAXZ:96.8
;Generated with Cura_SteamEngine 4.8.0
M140 S60
M105
M190 S60
M104 S200
M105
M109 S200
M82 ;absolute extrusion mode
G21 ;metric values
G90 ;absolute positioning
M82 ;set extruder to absolute mode
M107 ;start with the fan off
G28 X0 Y0 ;move X/Y to min endstops
G28 Z0 ;move Z to min endstops
G1 Z15.0 F100 ;move the platform down 15mm
G92 E0 ;zero the extruded length
G1 F200 E3 ;extrude 3mm of feed stock
G92 E0 ;zero the extruded length again
G1 F100
G0 Y20 F100
M117 Printing...
G5
G92 E0
G92 E0
G1 F2400 E-6
;LAYER_COUNT:485
;LAYER:0
M106 S255
M204 S3000
M205 X10 Y10
G1 F600 Z0.275
G0 F3000 X36.187 Y64.537 Z0.275
M204 S1800
M205 X8 Y8
;TYPE:SKIRT
G1 F600 Z0.2
G1 F2400 E0
G1 X36.818 Y64.201 E0.03329
G1 X37.483 Y63.938 E0.06659
G1 X38.173 Y63.75 E0.09989
G1 X38.88 Y63.641 E0.1332
G1 X39.437 Y63.609 E0.15918
G1 X39.984 Y63.6 E0.18465
G1 X169.793 Y63.6 E6.2291
G1 X170.586 Y63.611 E6.26603
G1 X171.3 Y63.661 E6.29936
G1 X172.003 Y63.79 E6.33264
G1 X172.688 Y63.997 E6.36596
G1 X173.345 Y64.28 E6.39927
G1 X173.967 Y64.633 E6.43257
G1 X174.545 Y65.054 E6.46587
G1 X175 Y65.459 E6.49423
G1 X175.335 Y65.784 E6.51597
G1 X176.612 Y67.061 E6.60006
G1 X177.07 Y67.533 E6.63068
G1 X177.539 Y68.074 E6.66402
G1 X177.944 Y68.663 E6.69731
G1 X178.281 Y69.294 E6.73062
G1 X178.546 Y69.958 E6.76391
G1 X178.735 Y70.648 E6.79722
G1 X178.838 Y71.288 E6.82741
G1 X178.856 Y71.451 E6.83504
G1 X178.895 Y72.075 E6.86415
G1 X178.9 Y72.484 E6.8832
G1 X178.899 Y137.384 E9.90522
G1 X178.889 Y138.086 E9.93791
G1 X178.839 Y138.8 E9.97124
G1 X178.71 Y139.503 E10.00452
G1 X178.503 Y140.188 E10.03784
G1 X178.22 Y140.845 E10.07115
G1 X177.867 Y141.467 E10.10445
G1 X177.446 Y142.045 E10.13775
G1 X177.041 Y142.5 E10.16611
G1 X176.693 Y142.857 E10.18933
G1 X175.444 Y144.106 E10.27157
G1 X174.95 Y144.585 E10.30361
G1 X174.41 Y145.053 E10.33689
G1 X173.82 Y145.458 E10.37021
G1 X173.189 Y145.795 E10.40352
G1 X172.525 Y146.06 E10.43681
G1 X171.835 Y146.248 E10.47011
G1 X171.128 Y146.359 E10.50344
G1 X170.563 Y146.391 E10.52979
G1 X170.016 Y146.4 E10.55526
G1 X40.116 Y146.399 E16.60395
G1 X39.414 Y146.389 E16.63664
G1 X38.7 Y146.339 E16.66997
G1 X37.997 Y146.21 E16.70325
G1 X37.312 Y146.003 E16.73657
G1 X36.655 Y145.72 E16.76988
G1 X36.033 Y145.367 E16.80318
G1 X35.455 Y144.946 E16.83648
G1 X35 Y144.541 E16.86484
G1 X34.634 Y144.185 E16.88862
G1 X33.381 Y142.931 E16.97116
G1 X32.91 Y142.444 E17.00271
G1 X32.442 Y141.903 E17.03602
G1 X32.037 Y141.313 E17.06934
G1 X31.701 Y140.682 E17.10263
G1 X31.438 Y140.017 E17.13593
G1 X31.25 Y139.327 E17.16923
G1 X31.141 Y138.62 E17.20254
G1 X31.109 Y138.063 E17.22852
G1 X31.1 Y137.516 E17.25399
G1 X31.101 Y72.616 E20.27601
G1 X31.111 Y71.914 E20.3087
G1 X31.161 Y71.2 E20.34203
G1 X31.29 Y70.497 E20.37531
G1 X31.497 Y69.812 E20.40863
G1 X31.78 Y69.155 E20.44194
G1 X32.133 Y68.533 E20.47524
G1 X32.554 Y67.955 E20.50854
G1 X32.959 Y67.5 E20.5369
G1 X33.305 Y67.144 E20.56002
G1 X34.569 Y65.881 E20.64322
G1 X35.056 Y65.41 E20.67477
G1 X35.597 Y64.942 E20.70808
G1 X36.187 Y64.537 E20.7414
M204 S3000
M205 X10 Y10
G0 F3000 X36.53 Y64.985
M204 S1800
M205 X8 Y8
G1 F2400 X37.137 Y64.672 E20.7732
G1 X37.777 Y64.432 E20.80503
G1 X38.44 Y64.268 E20.83683
G1 X39.308 Y64.173 E20.87749
G1 X39.991 Y64.16 E20.9093
G1 X169.793 Y64.16 E26.95343
G1 X170.578 Y64.171 E26.98998
G1 X171.26 Y64.22 E27.02182
G1 X171.931 Y64.349 E27.05364
G1 X172.582 Y64.556 E27.08545
G1 X173.205 Y64.837 E27.11727
G1 X173.79 Y65.189 E27.14906
G1 X174.467 Y65.728 E27.18936
G1 X174.889 Y66.131 E27.21653
G1 X176.21 Y67.451 E27.30349
G1 X176.668 Y67.923 E27.33411
G1 X177.114 Y68.44 E27.3659
G1 X177.497 Y69.006 E27.39773
G1 X177.811 Y69.613 E27.42955
G1 X178.053 Y70.252 E27.46136
G1 X178.217 Y70.915 E27.49317
G1 X178.3 Y71.512 E27.52123
G1 X178.335 Y72.082 E27.54783
G1 X178.34 Y72.491 E27.56687
G1 X178.339 Y137.376 E30.58819
G1 X178.329 Y138.078 E30.62088
G1 X178.28 Y138.76 E30.65272
G1 X178.151 Y139.431 E30.68454
G1 X177.944 Y140.082 E30.71634
G1 X177.663 Y140.705 E30.74817
G1 X177.311 Y141.29 E30.77996
G1 X176.772 Y141.967 E30.82025
G1 X176.342 Y142.416 E30.8492
G1 X175.119 Y143.641 E30.92981
G1 X174.56 Y144.183 E30.96606
G1 X174.043 Y144.629 E30.99785
G1 X173.477 Y145.011 E31.02965
G1 X172.87 Y145.325 E31.06147
G1 X172.231 Y145.566 E31.09327
G1 X171.567 Y145.731 E31.12513
G1 X170.692 Y145.827 E31.16612
G1 X170.009 Y145.84 E31.19793
G1 X40.124 Y145.839 E37.24592
G1 X39.422 Y145.829 E37.27861
G1 X38.74 Y145.78 E37.31045
G1 X38.069 Y145.651 E37.34227
G1 X37.418 Y145.444 E37.37407
G1 X36.795 Y145.163 E37.4059
G1 X36.21 Y144.811 E37.43769
G1 X35.533 Y144.272 E37.47798
G1 X35.072 Y143.83 E37.50772
G1 X33.783 Y142.542 E37.59257
G1 X33.312 Y142.055 E37.62412
G1 X32.867 Y141.537 E37.65592
G1 X32.485 Y140.97 E37.68775
G1 X32.172 Y140.363 E37.71955
G1 X31.932 Y139.723 E37.75138
G1 X31.768 Y139.06 E37.78318
G1 X31.673 Y138.192 E37.82384
G1 X31.66 Y137.509 E37.85565
G1 X31.661 Y72.624 E40.87697
G1 X31.671 Y71.922 E40.90966
G1 X31.72 Y71.24 E40.9415
G1 X31.849 Y70.569 E40.97332
G1 X32.056 Y69.918 E41.00513
G1 X32.337 Y69.295 E41.03695
G1 X32.689 Y68.71 E41.06874
G1 X33.228 Y68.033 E41.10904
G1 X33.658 Y67.584 E41.13798
G1 X34.958 Y66.283 E41.22362
G1 X35.445 Y65.812 E41.25517
G1 X35.963 Y65.367 E41.28697
G1 X36.53 Y64.985 E41.31881
M204 S3000
M205 X10 Y10
G0 F3000 X36.87 Y65.434
M204 S1800
M205 X8 Y8
G1 F2400 X37.452 Y65.145 E41.34906
G1 X38.065 Y64.93 E41.37931
G1 X38.7 Y64.792 E41.40957
G1 X39.327 Y64.733 E41.43889
G1 X39.997 Y64.72 E41.4701
G1 X169.793 Y64.72 E47.51394
G1 X170.57 Y64.731 E47.55013
G1 X171.218 Y64.78 E47.58039
G1 X171.855 Y64.908 E47.61064
G1 X172.471 Y65.114 E47.64089
G1 X173.057 Y65.393 E47.67111
G1 X173.605 Y65.743 E47.70139
G1 X174.086 Y66.139 E47.7304
G1 X174.498 Y66.532 E47.75691
G1 X175.808 Y67.841 E47.84314
G1 X176.266 Y68.313 E47.87377
G1 X176.689 Y68.806 E47.90402
G1 X177.048 Y69.348 E47.93429
G1 X177.338 Y69.929 E47.96452
G1 X177.554 Y70.541 E47.99474
G1 X177.725 Y71.41 E48.03598
G1 X177.743 Y71.573 E48.04362
G1 X177.775 Y72.088 E48.06765
G1 X177.78 Y72.497 E48.08669
G1 X177.779 Y137.368 E51.10736
G1 X177.769 Y138.07 E51.14005
G1 X177.72 Y138.718 E51.17031
G1 X177.592 Y139.355 E51.20056
G1 X177.386 Y139.971 E51.23081
G1 X177.107 Y140.557 E51.26103
G1 X176.757 Y141.105 E51.29131
G1 X176.361 Y141.586 E51.32032
G1 X175.942 Y142.024 E51.34854
G1 X174.723 Y143.245 E51.42888
G1 X174.171 Y143.781 E51.46471
G1 X173.677 Y144.203 E51.49496
G1 X173.136 Y144.562 E51.5252
G1 X172.554 Y144.852 E51.55547
G1 X171.942 Y145.068 E51.58569
G1 X171.307 Y145.207 E51.61596
G1 X170.673 Y145.267 E51.64562
G1 X170.003 Y145.28 E51.67682
G1 X40.132 Y145.279 E57.72416
G1 X39.43 Y145.269 E57.75685
G1 X38.782 Y145.22 E57.78711
G1 X38.145 Y145.092 E57.81736
G1 X37.529 Y144.886 E57.84761
G1 X36.943 Y144.607 E57.87783
G1 X36.395 Y144.257 E57.90811
G1 X35.914 Y143.861 E57.93712
G1 X35.463 Y143.43 E57.96617
G1 X34.186 Y142.153 E58.05026
G1 X33.715 Y141.666 E58.08181
G1 X33.293 Y141.172 E58.11206
G1 X32.934 Y140.63 E58.14233
G1 X32.645 Y140.048 E58.17259
G1 X32.43 Y139.435 E58.20284
G1 X32.292 Y138.8 E58.2331
G1 X32.233 Y138.173 E58.26242
G1 X32.22 Y137.503 E58.29363
G1 X32.221 Y72.632 E61.31429
G1 X32.231 Y71.93 E61.34698
G1 X32.28 Y71.282 E61.37724
G1 X32.408 Y70.645 E61.4075
G1 X32.614 Y70.029 E61.43774
G1 X32.893 Y69.443 E61.46796
G1 X33.243 Y68.895 E61.49824
G1 X33.639 Y68.414 E61.52725
G1 X34.058 Y67.976 E61.55548
G1 X35.347 Y66.686 E61.64039
G1 X35.834 Y66.215 E61.67194
G1 X36.328 Y65.793 E61.70219
G1 X36.87 Y65.434 E61.73246
M204 S3000
M205 X10 Y10
G1 F2400 E55.73246
;MESH:hotglue_gun_stand_ext.stl
G0 F3000 X38.778 Y69.782
G0 X39.855 Y70.858
G0 X92.5 Y77.486
G0 X93.349 Y77.321
G0 X95.217 Y76.299
M204 S1800
M205 X8 Y8
;TYPE:WALL-INNER
G1 F2400 E61.73246
G1 F1500 X95.439 Y75.636 E61.76502
G1 X95.506 Y74.974 E61.796
G1 X95.433 Y74.331 E61.82614
G1 X95.212 Y73.695 E61.85749
G1 X94.852 Y73.123 E61.88896
G1 X94.377 Y72.648 E61.92024
G1 X93.805 Y72.288 E61.95171
G1 X93.169 Y72.067 E61.98306
G1 X92.5 Y71.99 E62.01442
G1 X91.831 Y72.067 E62.04578
G1 X91.195 Y72.288 E62.07713
G1 X90.623 Y72.648 E62.1086
G1 X90.148 Y73.123 E62.13988
G1 X89.788 Y73.695 E62.17135
G1 X89.567 Y74.331 E62.2027
G1 X89.49 Y75 E62.23406
G1 X89.567 Y75.669 E62.26542
G1 X89.788 Y76.305 E62.29677
G1 X90.148 Y76.877 E62.32824
G1 X90.623 Y77.352 E62.35952
G1 X91.195 Y77.712 E62.39099
G1 X91.831 Y77.933 E62.42234
G1 X92.5 Y78.01 E62.4537
G1 X93.169 Y77.933 E62.48505
G1 X93.805 Y77.712 E62.51641
G1 X94.377 Y77.352 E62.54788
G1 X94.851 Y76.878 E62.57909
G1 X95.217 Y76.299 E62.61099
M204 S3000
M205 X10 Y10
G0 F3000 X112.5 Y77.486
G0 X113.349 Y77.321
G0 X115.217 Y76.299
M204 S1800
M205 X8 Y8
G1 F1500 X115.439 Y75.636 E62.64354
G1 X115.506 Y74.974 E62.67453
G1 X115.433 Y74.331 E62.70466
G1 X115.212 Y73.695 E62.73601
G1 X114.852 Y73.123 E62.76748
G1 X114.377 Y72.648 E62.79876
G1 X113.805 Y72.288 E62.83023
G1 X113.169 Y72.067 E62.86158
G1 X112.5 Y71.99 E62.89294
G1 X111.831 Y72.067 E62.9243
G1 X111.195 Y72.288 E62.95565
G1 X110.623 Y72.648 E62.98712
G1 X110.148 Y73.123 E63.0184
G1 X109.788 Y73.695 E63.04987
G1 X109.567 Y74.331 E63.08122
G1 X109.49 Y75 E63.11258
G1 X109.567 Y75.669 E63.14394
G1 X109.788 Y76.305 E63.17529
G1 X110.148 Y76.877 E63.20676
G1 X110.623 Y77.352 E63.23804
G1 X111.195 Y77.712 E63.26951
G1 X111.831 Y77.933 E63.30086
G1 X112.5 Y78.01 E63.33222
G1 X113.169 Y77.933 E63.36358
G1 X113.805 Y77.712 E63.39493
G1 X114.377 Y77.352 E63.4264
G1 X114.851 Y76.878 E63.45761
G1 X115.217 Y76.299 E63.48951
M204 S3000
M205 X10 Y10
G0 F3000 X167.5 Y77.486
G0 X168.349 Y77.321
G0 X170.217 Y76.299
M204 S1800
M205 X8 Y8
G1 F1500 X170.439 Y75.636 E63.52206
G1 X170.506 Y74.974 E63.55305
G1 X170.433 Y74.331 E63.58318
G1 X170.212 Y73.695 E63.61453
G1 X169.852 Y73.123 E63.646
G1 X169.377 Y72.648 E63.67728
G1 X168.805 Y72.288 E63.70875
G1 X168.169 Y72.067 E63.7401
G1 X167.5 Y71.99 E63.77146
G1 X166.831 Y72.067 E63.80282
G1 X166.195 Y72.288 E63.83417
G1 X165.623 Y72.648 E63.86564
G1 X165.148 Y73.123 E63.89692
G1 X164.788 Y73.695 E63.92839
G1 X164.567 Y74.331 E63.95974
G1 X164.49 Y75 E63.9911
G1 X164.567 Y75.669 E64.02246
G1 X164.788 Y76.305 E64.05381
G1 X165.148 Y76.877 E64.08528
G1 X165.623 Y77.352 E64.11656
G1 X166.195 Y77.712 E64.14803
G1 X166.831 Y77.933 E64.17938
G1 X167.5 Y78.01 E64.21074
G1 X168.169 Y77.933 E64.2421
G1 X168.805 Y77.712 E64.27345
G1 X169.377 Y77.352 E64.30492
G1 X169.851 Y76.878 E64.33613
G1 X170.217 Y76.299 E64.36803
M204 S3000
M205 X10 Y10
G0 F3000 X171.1 Y72.58
M204 S1800
M205 X8 Y8
G1 F1500 X171.1 Y137.42 E67.38725
G1 X169.92 Y138.6 E67.46496
G1 X40.08 Y138.6 E73.51085
G1 X38.9 Y137.42 E73.58856
G1 X38.9 Y72.58 E76.60778
G1 X40.08 Y71.4 E76.68548
G1 X169.92 Y71.4 E82.73138
G1 X171.1 Y72.58 E82.80908
M204 S3000
M205 X10 Y10
G0 F3000 X170.217 Y136.299
M204 S1800
M205 X8 Y8
G1 F1500 X170.439 Y135.636 E82.84164
G1 X170.506 Y134.974 E82.87262
G1 X170.433 Y134.331 E82.90275
G1 X170.212 Y133.695 E82.93411
G1 X169.852 Y133.123 E82.96558
G1 X169.377 Y132.648 E82.99686
G1 X168.805 Y132.288 E83.02833
G1 X168.169 Y132.067 E83.05968
G1 X167.5 Y131.99 E83.09104
G1 X166.831 Y132.067 E83.12239
G1 X166.195 Y132.288 E83.15375
G1 X165.623 Y132.648 E83.18522
G1 X165.148 Y133.123 E83.2165
G1 X164.788 Y133.695 E83.24797
G1 X164.567 Y134.331 E83.27932
G1 X164.49 Y135 E83.31068
G1 X164.567 Y135.669 E83.34203
G1 X164.788 Y136.305 E83.37338
G1 X165.148 Y136.877 E83.40485
G1 X165.623 Y137.352 E83.43613
G1 X166.195 Y137.712 E83.46761
G1 X166.831 Y137.933 E83.49896
G1 X167.5 Y138.01 E83.53031
G1 X168.169 Y137.933 E83.56167
G1 X168.805 Y137.712 E83.59302
G1 X169.377 Y137.352 E83.62449
G1 X169.851 Y136.878 E83.65571
G1 X170.217 Y136.299 E83.6876
M204 S3000
M205 X10 Y10
G0 F3000 X168.578 Y137.24
G0 X167.74 Y137.458
G0 X115.217 Y136.299
M204 S1800
M205 X8 Y8
G1 F1500 X115.439 Y135.636 E83.72016
G1 X115.506 Y134.974 E83.75114
G1 X115.433 Y134.331 E83.78128
G1 X115.212 Y133.695 E83.81263
G1 X114.852 Y133.123 E83.8441
G1 X114.377 Y132.648 E83.87538
G1 X113.805 Y132.288 E83.90685
G1 X113.169 Y132.067 E83.9382
G1 X112.5 Y131.99 E83.96956
G1 X111.831 Y132.067 E84.00091
G1 X111.195 Y132.288 E84.03227
G1 X110.623 Y132.648 E84.06374
G1 X110.148 Y133.123 E84.09502
G1 X109.788 Y133.695 E84.12649
G1 X109.567 Y134.331 E84.15784
G1 X109.49 Y135 E84.1892
G1 X109.567 Y135.669 E84.22055
G1 X109.788 Y136.305 E84.25191
G1 X110.148 Y136.877 E84.28338
G1 X110.623 Y137.352 E84.31466
G1 X111.195 Y137.712 E84.34613
G1 X111.831 Y137.933 E84.37748
G1 X112.5 Y138.01 E84.40884
G1 X113.169 Y137.933 E84.44019
G1 X113.805 Y137.712 E84.47154
G1 X114.377 Y137.352 E84.50302
G1 X114.851 Y136.878 E84.53423
G1 X115.217 Y136.299 E84.56612
M204 S3000
M205 X10 Y10
G0 F3000 X113.578 Y137.24
G0 X112.606 Y137.473
G0 X95.217 Y136.299
M204 S1800
M205 X8 Y8
G1 F1500 X95.439 Y135.636 E84.59868
G1 X95.506 Y134.974 E84.62966
G1 X95.433 Y134.331 E84.6598
G1 X95.212 Y133.695 E84.69115
G1 X94.852 Y133.123 E84.72262
G1 X94.377 Y132.648 E84.7539
G1 X93.805 Y132.288 E84.78537
G1 X93.169 Y132.067 E84.81672
G1 X92.5 Y131.99 E84.84808
G1 X91.831 Y132.067 E84.87944
G1 X91.195 Y132.288 E84.91079
G1 X90.623 Y132.648 E84.94226
G1 X90.148 Y133.123 E84.97354
G1 X89.788 Y133.695 E85.00501
G1 X89.567 Y134.331 E85.03636
G1 X89.49 Y135 E85.06772
G1 X89.567 Y135.669 E85.09908
G1 X89.788 Y136.305 E85.13043
G1 X90.148 Y136.877 E85.1619
G1 X90.623 Y137.352 E85.19318
G1 X91.195 Y137.712 E85.22465
G1 X91.831 Y137.933 E85.256
G1 X92.5 Y138.01 E85.28736
G1 X93.169 Y137.933 E85.31871
G1 X93.805 Y137.712 E85.35007
G1 X94.377 Y137.352 E85.38154
G1 X94.851 Y136.878 E85.41275
G1 X95.217 Y136.299 E85.44465
M204 S3000
M205 X10 Y10
G0 F3000 X94.707 Y136.057
M204 S1800
M205 X8 Y8
G1 F1500 X94.888 Y135.517 E85.47117
G1 X94.943 Y134.977 E85.49644
G1 X94.884 Y134.456 E85.52086
G1 X94.704 Y133.939 E85.54635
G1 X94.412 Y133.475 E85.57187
G1 X94.025 Y133.088 E85.59736
G1 X93.561 Y132.796 E85.62289
G1 X93.044 Y132.616 E85.64838
G1 X92.5 Y132.554 E85.67387
G1 X91.956 Y132.616 E85.69937
G1 X91.439 Y132.796 E85.72486
G1 X90.975 Y133.088 E85.75039
G1 X90.588 Y133.475 E85.77587
G1 X90.296 Y133.939 E85.8014
G1 X90.116 Y134.456 E85.82689
G1 X90.054 Y135 E85.85239
G1 X90.116 Y135.544 E85.87788
G1 X90.296 Y136.061 E85.90337
G1 X90.588 Y136.525 E85.9289
G1 X90.975 Y136.912 E85.95438
G1 X91.439 Y137.204 E85.97991
G1 X91.956 Y137.384 E86.0054
G1 X92.5 Y137.446 E86.0309
G1 X93.044 Y137.384 E86.05639
G1 X93.561 Y137.204 E86.08188
G1 X94.025 Y136.912 E86.10741
G1 X94.411 Y136.526 E86.13283
G1 X94.707 Y136.057 E86.15866
M204 S3000
M205 X10 Y10
G0 F3000 X94.797 Y136.099
G0 X112.5 Y137.486
G0 X113.578 Y137.24
G0 X114.797 Y136.099
G0 X114.707 Y136.057
M204 S1800
M205 X8 Y8
G1 F1500 X114.888 Y135.517 E86.18517
G1 X114.943 Y134.977 E86.21045
G1 X114.884 Y134.456 E86.23486
G1 X114.704 Y133.939 E86.26036
G1 X114.412 Y133.475 E86.28588
G1 X114.025 Y133.088 E86.31137
G1 X113.561 Y132.796 E86.3369
G1 X113.044 Y132.616 E86.36239
G1 X112.5 Y132.554 E86.38788
G1 X111.956 Y132.616 E86.41338
G1 X111.439 Y132.796 E86.43887
G1 X110.975 Y133.088 E86.4644
G1 X110.588 Y133.475 E86.48988
G1 X110.296 Y133.939 E86.51541
G1 X110.116 Y134.456 E86.5409
G1 X110.054 Y135 E86.56639
G1 X110.116 Y135.544 E86.59189
G1 X110.296 Y136.061 E86.61738
G1 X110.588 Y136.525 E86.64291
G1 X110.975 Y136.912 E86.66839
G1 X111.439 Y137.204 E86.69392
G1 X111.956 Y137.384 E86.71941
G1 X112.5 Y137.446 E86.74491
G1 X113.044 Y137.384 E86.7704
G1 X113.561 Y137.204 E86.79589
G1 X114.025 Y136.912 E86.82142
G1 X114.411 Y136.526 E86.84684
G1 X114.707 Y136.057 E86.87266
M204 S3000
M205 X10 Y10
G0 F3000 X114.797 Y136.099
G0 X167.5 Y137.486
G0 X168.578 Y137.24
G0 X169.797 Y136.099
G0 X169.707 Y136.057
M204 S1800
M205 X8 Y8
G1 F1500 X169.888 Y135.517 E86.89918
G1 X169.943 Y134.977 E86.92446
G1 X169.884 Y134.456 E86.94887
G1 X169.704 Y133.939 E86.97436
G1 X169.412 Y133.475 E86.99989
G1 X169.025 Y133.088 E87.02538
G1 X168.561 Y132.796 E87.05091
