;FLAVOR:Marlin
;TIME:1043
;Filament used: 1.0614m
;Layer height: 0.2
;MINX:89.279
;MINY:88.554
;MINZ:0.2
;MAXX:120.732
;MAXY:121.433
;MAXZ:33.2
;Generated with Cura_SteamEngine 4.8.0
M140 S60
M105
M190 S60
M104 S200
M105
M109 S200
M82 ;absolute extrusion mode
; Script based on an original created by tjjfvi (https://github.com/tjjfvi)
; An up-to-date version of the tjjfvi's original script can be found
; here:  https://csi.t6.fyi/
; Note - This script will only work in Cura V4.2 and above!
; --- Global Settings
; layer_height = 0.2
; smooth_spiralized_contours = True
; magic_mesh_surface_mode = normal
; machine_extruder_count = 1
; --- Single Extruder Settings
; speed_z_hop = 10
; retraction_amount = 6
; retraction_hop = 0.075
; retraction_hop_enabled = True
; retraction_enable = True
; retraction_speed = 40
; retraction_retract_speed = 40
; retraction_prime_speed = 40
; speed_travel = 100


G21 ;metric values
G90 ;absolute positioning
M82 ;set extruder to absolute mode
M107 ;start with the fan off
G28 X0 Y0 ;move X/Y to min endstops
G28 Z0 ;move Z to min endstops
G1 Z15.0 F100 ;move the platform down 15mm
G92 E0 ;zero the extruded length
G1 F200 E3 ;extrude 3mm of feed stock
G92 E0 ;zero the extruded length again
G1 F100
G0 Y20 F100
M117 Printing...
G5
G92 E0
G92 E0
G1 F2400 E-6
;LAYER_COUNT:166
;LAYER:0
M106 S255
M204 S3000
M205 X10 Y10
G1 F600 Z0.275
G0 F3000 X91.133 Y90.46 Z0.275
M204 S1800
M205 X8 Y8
;TYPE:SKIRT
G1 F600 Z0.2
G1 F2400 E0
G1 X91.664 Y89.981 E0.0333
G1 X92.245 Y89.564 E0.0666
G1 X92.869 Y89.215 E0.09989
G1 X93.528 Y88.937 E0.1332
G1 X94.214 Y88.735 E0.1665
G1 X94.919 Y88.61 E0.19984
G1 X95.584 Y88.566 E0.23087
G1 X96.418 Y88.554 E0.26971
G1 X98.959 Y88.554 E0.38803
G1 X99.753 Y88.565 E0.425
G1 X100.467 Y88.615 E0.45833
G1 X101.17 Y88.744 E0.49161
G1 X101.855 Y88.951 E0.52493
G1 X102.512 Y89.234 E0.55824
G1 X103.169 Y89.61 E0.59349
G1 X104.302 Y90.352 E0.65655
G1 X106.552 Y91.781 E0.78067
G1 X108.833 Y93.142 E0.90435
G1 X111.154 Y94.438 E1.02813
G1 X113.464 Y95.645 E1.1495
G1 X115.975 Y96.866 E1.27951
G1 X117.037 Y97.363 E1.33411
G1 X117.667 Y97.702 E1.36742
G1 X118.255 Y98.109 E1.40072
G1 X118.794 Y98.58 E1.43405
G1 X119.277 Y99.107 E1.46734
G1 X119.698 Y99.685 E1.50063
G1 X120.052 Y100.307 E1.53396
G1 X120.335 Y100.964 E1.56727
G1 X120.542 Y101.648 E1.60054
G1 X120.672 Y102.352 E1.63388
G1 X120.721 Y102.981 E1.66326
G1 X120.732 Y103.482 E1.68659
G1 X120.731 Y105.966 E1.80226
G1 X120.721 Y106.694 E1.83616
G1 X120.672 Y107.407 E1.86944
G1 X120.543 Y108.111 E1.90276
G1 X120.336 Y108.796 E1.93608
G1 X120.054 Y109.453 E1.96938
G1 X119.7 Y110.075 E2.0027
G1 X119.28 Y110.653 E2.03597
G1 X118.797 Y111.181 E2.06929
G1 X118.259 Y111.652 E2.10259
G1 X117.671 Y112.06 E2.13591
G1 X117.133 Y112.356 E2.16451
G1 X116.367 Y112.729 E2.20418
G1 X115.246 Y113.256 E2.26186
G1 X112.858 Y114.462 E2.38643
G1 X110.538 Y115.717 E2.50925
G1 X108.254 Y117.038 E2.63211
G1 X106.019 Y118.417 E2.7544
G1 X104.21 Y119.622 E2.85561
G1 X103.031 Y120.392 E2.92118
G1 X102.411 Y120.749 E2.95449
G1 X101.755 Y121.035 E2.98781
G1 X101.072 Y121.246 E3.0211
G1 X100.369 Y121.379 E3.05442
G1 X99.656 Y121.433 E3.08771
G1 X98.941 Y121.407 E3.12103
G1 X98.233 Y121.301 E3.15436
G1 X97.542 Y121.117 E3.18766
G1 X96.876 Y120.857 E3.22095
G1 X96.181 Y120.498 E3.25737
G1 X96.028 Y120.413 E3.26552
G1 X93.907 Y119.189 E3.37955
G1 X93.269 Y118.809 E3.41413
G1 X92.676 Y118.409 E3.44744
G1 X92.131 Y117.945 E3.48077
G1 X91.641 Y117.424 E3.51407
G1 X91.213 Y116.851 E3.54737
G1 X90.851 Y116.234 E3.58068
G1 X90.56 Y115.581 E3.61397
G1 X90.344 Y114.899 E3.64728
G1 X90.206 Y114.197 E3.6806
G1 X90.146 Y113.484 E3.71392
G1 X90.159 Y112.825 E3.74461
G1 X90.235 Y110.072 E3.87285
G1 X90.233 Y107.429 E3.99592
G1 X90.157 Y104.816 E4.11764
G1 X90.006 Y102.155 E4.24175
G1 X89.778 Y99.51 E4.36537
G1 X89.406 Y96.444 E4.50918
G1 X89.32 Y95.691 E4.54447
G1 X89.279 Y94.977 E4.57777
G1 X89.318 Y94.263 E4.61107
G1 X89.436 Y93.557 E4.6444
G1 X89.632 Y92.87 E4.67766
G1 X89.903 Y92.208 E4.71097
G1 X90.247 Y91.581 E4.74427
G1 X90.659 Y90.996 E4.77759
G1 X91.133 Y90.46 E4.81091
M204 S3000
M205 X10 Y10
G0 F3000 X91.707 Y90.684
M204 S1800
M205 X8 Y8
G1 F2400 X92.234 Y90.25 E4.8427
G1 X92.808 Y89.879 E4.87452
G1 X93.422 Y89.579 E4.90634
G1 X94.066 Y89.352 E4.93814
G1 X94.733 Y89.202 E4.96997
G1 X95.592 Y89.126 E5.01013
G1 X96.418 Y89.114 E5.04859
G1 X99.042 Y89.115 E5.17078
G1 X99.745 Y89.125 E5.20352
G1 X100.426 Y89.174 E5.23531
G1 X101.097 Y89.303 E5.26713
G1 X101.749 Y89.51 E5.29898
G1 X102.372 Y89.791 E5.3308
G1 X102.862 Y90.079 E5.35727
G1 X104.005 Y90.827 E5.42087
G1 X106.242 Y92.249 E5.5443
G1 X108.551 Y93.626 E5.66949
G1 X110.872 Y94.923 E5.79329
G1 X113.238 Y96.158 E5.91757
G1 X115.689 Y97.35 E6.04448
G1 X116.8 Y97.87 E6.1016
G1 X117.401 Y98.196 E6.13343
G1 X117.959 Y98.589 E6.16521
G1 X118.468 Y99.045 E6.19704
G1 X118.92 Y99.557 E6.22884
G1 X119.309 Y100.119 E6.26066
G1 X119.63 Y100.722 E6.29247
G1 X119.879 Y101.358 E6.32428
G1 X120.051 Y102.02 E6.35613
G1 X120.161 Y102.996 E6.40186
G1 X120.172 Y103.482 E6.4245
G1 X120.171 Y105.958 E6.53979
G1 X120.161 Y106.686 E6.57369
G1 X120.112 Y107.368 E6.60553
G1 X119.984 Y108.039 E6.63734
G1 X119.777 Y108.69 E6.66915
G1 X119.497 Y109.313 E6.70095
G1 X119.145 Y109.899 E6.73278
G1 X118.728 Y110.44 E6.76459
G1 X118.25 Y110.928 E6.7964
G1 X117.718 Y111.357 E6.82822
G1 X116.887 Y111.852 E6.87326
G1 X116.129 Y112.223 E6.91256
G1 X114.963 Y112.772 E6.97257
G1 X112.632 Y113.949 E7.09416
G1 X110.243 Y115.241 E7.22063
G1 X107.958 Y116.563 E7.34355
G1 X105.718 Y117.944 E7.46608
G1 X103.903 Y119.154 E7.56766
G1 X102.724 Y119.924 E7.63323
G1 X102.131 Y120.263 E7.66503
G1 X101.503 Y120.531 E7.69683
G1 X100.847 Y120.724 E7.72867
G1 X100.174 Y120.839 E7.76046
G1 X99.492 Y120.874 E7.79226
G1 X98.81 Y120.829 E7.82408
G1 X98.138 Y120.705 E7.8559
G1 X97.485 Y120.504 E7.88772
G1 X96.752 Y120.171 E7.92521
G1 X96.308 Y119.928 E7.94877
G1 X94.194 Y118.707 E8.06245
G1 X93.556 Y118.327 E8.09703
G1 X92.99 Y117.944 E8.12885
G1 X92.473 Y117.497 E8.16068
G1 X92.012 Y116.993 E8.19248
G1 X91.613 Y116.439 E8.22427
G1 X91.281 Y115.841 E8.25612
G1 X91.022 Y115.209 E8.28792
G1 X90.837 Y114.551 E8.31975
G1 X90.732 Y113.876 E8.35156
G1 X90.709 Y113.065 E8.38934
G1 X90.72 Y112.795 E8.40192
G1 X90.795 Y110.087 E8.52807
G1 X90.793 Y107.446 E8.65104
G1 X90.715 Y104.769 E8.77575
G1 X90.564 Y102.11 E8.89976
G1 X90.338 Y99.478 E9.02277
G1 X89.963 Y96.381 E9.16803
G1 X89.877 Y95.628 E9.20332
G1 X89.839 Y94.945 E9.23517
G1 X89.881 Y94.264 E9.26694
G1 X90.003 Y93.591 E9.29879
G1 X90.202 Y92.938 E9.33058
G1 X90.476 Y92.312 E9.3624
G1 X90.822 Y91.723 E9.39421
G1 X91.234 Y91.177 E9.42606
G1 X91.707 Y90.684 E9.45787
M204 S3000
M205 X10 Y10
G0 F3000 X91.809 Y91.373
M204 S1800
M205 X8 Y8
G1 F2400 X92.279 Y90.925 E9.48811
G1 X92.801 Y90.538 E9.51836
G1 X93.366 Y90.218 E9.5486
G1 X93.967 Y89.97 E9.57887
G1 X94.593 Y89.798 E9.6091
G1 X95.236 Y89.704 E9.63936
G1 X95.6 Y89.686 E9.65633
G1 X96.418 Y89.674 E9.69443
G1 X98.959 Y89.674 E9.81274
G1 X99.737 Y89.685 E9.84898
G1 X100.385 Y89.734 E9.87924
G1 X101.022 Y89.862 E9.90949
G1 X101.638 Y90.068 E9.93973
G1 X102.224 Y90.347 E9.96996
G1 X102.555 Y90.547 E9.98796
G1 X103.675 Y91.281 E10.05032
G1 X105.974 Y92.741 E10.17713
G1 X108.284 Y94.118 E10.30236
G1 X110.603 Y95.414 E10.42606
G1 X112.984 Y96.658 E10.55115
G1 X115.426 Y97.845 E10.67758
G1 X116.562 Y98.377 E10.73599
G1 X117.133 Y98.689 E10.76629
G1 X117.66 Y99.067 E10.79648
G1 X118.137 Y99.508 E10.82673
G1 X118.557 Y100.004 E10.857
G1 X118.912 Y100.548 E10.88724
G1 X119.198 Y101.131 E10.91748
G1 X119.41 Y101.745 E10.94773
G1 X119.545 Y102.381 E10.978
G1 X119.601 Y103.012 E11.0075
G1 X119.612 Y103.482 E11.02939
G1 X119.612 Y105.951 E11.14436
G1 X119.602 Y106.679 E11.17826
G1 X119.553 Y107.326 E11.20847
G1 X119.425 Y107.963 E11.23873
G1 X119.219 Y108.579 E11.26897
G1 X118.94 Y109.166 E11.29924
G1 X118.591 Y109.714 E11.32949
G1 X118.177 Y110.214 E11.35972
G1 X117.704 Y110.66 E11.38999
G1 X117.181 Y111.045 E11.42023
G1 X116.641 Y111.349 E11.44908
G1 X115.89 Y111.716 E11.48801
G1 X114.736 Y112.259 E11.54739
G1 X112.349 Y113.464 E11.6719
G1 X109.989 Y114.741 E11.79685
G1 X107.687 Y116.072 E11.92067
G1 X105.411 Y117.477 E12.04521
G1 X103.597 Y118.685 E12.1467
G1 X102.418 Y119.455 E12.21227
G1 X101.853 Y119.776 E12.24253
G1 X101.254 Y120.025 E12.27273
G1 X100.628 Y120.199 E12.30299
G1 X99.985 Y120.294 E12.33325
G1 X99.336 Y120.31 E12.36348
G1 X98.689 Y120.246 E12.39375
G1 X98.055 Y120.104 E12.42401
G1 X97.444 Y119.884 E12.45425
G1 X96.714 Y119.513 E12.49238
G1 X96.588 Y119.443 E12.49909
G1 X94.48 Y118.226 E12.61243
G1 X93.842 Y117.846 E12.64701
G1 X93.306 Y117.48 E12.67723
G1 X92.818 Y117.051 E12.70749
G1 X92.387 Y116.565 E12.73773
G1 X92.018 Y116.03 E12.76799
G1 X91.719 Y115.454 E12.79821
G1 X91.492 Y114.845 E12.82848
G1 X91.342 Y114.213 E12.85872
G1 X91.27 Y113.567 E12.88899
G1 X91.279 Y112.841 E12.9228
G1 X91.355 Y110.101 E13.05043
G1 X91.353 Y107.43 E13.17481
G1 X91.274 Y104.722 E13.30096
G1 X91.125 Y102.098 E13.42334
G1 X90.895 Y99.422 E13.5484
G1 X90.519 Y96.317 E13.69404
G1 X90.433 Y95.564 E13.72933
G1 X90.399 Y94.915 E13.75959
G1 X90.445 Y94.267 E13.78984
G1 X90.571 Y93.63 E13.82008
G1 X90.773 Y93.013 E13.85031
G1 X91.05 Y92.425 E13.88057
G1 X91.397 Y91.876 E13.91082
G1 X91.809 Y91.373 E13.94109
M204 S3000
M205 X10 Y10
G1 F2400 E7.94109
;MESH:Sodastream_Flaschenhalshalterrakete_mk2.stl
G0 F3000 X97.139 Y94.289
G0 X97.139 Y95.803
G0 X101.167 Y101.686
M204 S1800
M205 X8 Y8
;TYPE:WALL-INNER
G1 F2400 E13.94109
G1 F1500 X99.343 Y98.52 E14.11123
G1 X98.334 Y96.774 E14.20513
G1 X98.092 Y96.354 E14.2277
G1 X98.576 Y96.354 E14.24048
G1 X98.577 Y96.354 E14.24053
G1 X98.859 Y96.354 E14.25366
G1 X101.703 Y101.282 E14.5186
G1 X103.166 Y101.102 E14.58724
G1 X103.633 Y101.102 E14.60898
G1 X104.119 Y101.162 E14.63179
G1 X104.568 Y101.278 E14.65338
G1 X105.022 Y101.457 E14.6761
G1 X105.418 Y101.675 E14.69715
G1 X105.815 Y101.964 E14.72002
G1 X106.164 Y102.293 E14.74235
G1 X106.46 Y102.647 E14.76384
G1 X106.718 Y103.053 E14.78624
G1 X106.928 Y103.497 E14.80911
G1 X107.31 Y104.552 E14.86135
G1 X112.932 Y104.552 E15.12314
G1 X112.932 Y105.214 E15.15396
G1 X107.345 Y105.214 E15.41412
G1 X106.834 Y106.489 E15.47808
G1 X106.604 Y106.908 E15.50033
G1 X106.32 Y107.298 E15.5228
G1 X106.005 Y107.636 E15.54431
G1 X105.621 Y107.955 E15.56756
G1 X105.226 Y108.205 E15.58933
G1 X104.802 Y108.405 E15.61116
G1 X104.335 Y108.556 E15.63401
G1 X103.875 Y108.644 E15.65582
G1 X103.4 Y108.674 E15.67798
G1 X102.905 Y108.642 E15.70108
G1 X101.72 Y108.456 E15.75693
G1 X99.02 Y113.133 E16.0084
G1 X98.687 Y112.941 E16.02629
G1 X98.445 Y112.802 E16.03929
G1 X98.585 Y112.56 E16.0477
G1 X101.126 Y108.162 E16.28421
G1 X100.204 Y106.917 E16.35635
G1 X99.974 Y106.502 E16.37844
G1 X99.798 Y106.06 E16.4006
G1 X99.68 Y105.606 E16.42244
G1 X99.619 Y105.124 E16.44506
G1 X99.616 Y104.656 E16.46686
G1 X99.676 Y104.174 E16.48947
G1 X99.793 Y103.721 E16.51126
G1 X99.966 Y103.282 E16.53323
G1 X100.203 Y102.85 E16.55617
G1 X100.481 Y102.463 E16.57836
G1 X101.167 Y101.686 E16.62663
M204 S3000
M205 X10 Y10
G0 F3000 X100.481 Y101.617
M204 S1800
M205 X8 Y8
G1 F1500 X98.858 Y98.8 E16.77801
G1 X97.364 Y96.214 E16.91708
G1 X97.122 Y95.794 E16.93965
G1 X97.606 Y95.794 E16.95243
G1 X97.607 Y95.794 E16.95248
G1 X99.182 Y95.794 E17.02581
G1 X102.003 Y100.681 E17.28857
G1 X103.13 Y100.542 E17.34144
G1 X103.67 Y100.542 E17.36659
G1 X104.218 Y100.61 E17.3923
G1 X104.747 Y100.746 E17.41773
G1 X105.259 Y100.948 E17.44336
G1 X105.723 Y101.204 E17.46804
G1 X106.172 Y101.531 E17.4939
G1 X106.572 Y101.907 E17.51946
G1 X106.913 Y102.316 E17.54426
G1 X107.207 Y102.779 E17.5698
G1 X107.449 Y103.291 E17.59617
G1 X107.703 Y103.992 E17.63089
G1 X113.492 Y103.992 E17.90045
G1 X113.492 Y105.774 E17.98342
G1 X107.724 Y105.774 E18.25201
G1 X107.342 Y106.727 E18.29981
G1 X107.078 Y107.208 E18.32536
G1 X106.754 Y107.654 E18.35103
G1 X106.386 Y108.048 E18.37614
G1 X105.952 Y108.408 E18.40239
G1 X105.497 Y108.697 E18.42749
G1 X105.006 Y108.928 E18.45276
G1 X104.478 Y109.099 E18.4786
G1 X103.944 Y109.201 E18.50392
G1 X103.4 Y109.235 E18.5293
G1 X102.847 Y109.2 E18.5551
G1 X102.013 Y109.069 E18.59441
G1 X99.225 Y113.898 E18.85405
G1 X97.922 Y113.146 E18.92411
G1 X97.68 Y113.007 E18.9371
G1 X97.82 Y112.765 E18.94551
G1 X100.457 Y108.2 E19.19099
G1 X99.731 Y107.22 E19.24778
G1 X99.468 Y106.744 E19.27311
G1 X99.264 Y106.232 E19.29877
G1 X99.128 Y105.708 E19.32398
G1 X99.059 Y105.165 E19.34947
G1 X99.056 Y104.621 E19.3748
G1 X99.124 Y104.075 E19.40042
G1 X99.26 Y103.546 E19.42585
G1 X99.459 Y103.04 E19.45117
G1 X99.725 Y102.556 E19.47689
G1 X100.045 Y102.112 E19.50237
G1 X100.481 Y101.617 E19.53309
M204 S3000
M205 X10 Y10
G0 F3000 X99.795 Y101.548
M204 S1800
M205 X8 Y8
;TYPE:WALL-OUTER
G1 F1500 X98.373 Y99.079 E19.66576
G1 X96.395 Y95.653 E19.84997
G1 X96.153 Y95.234 E19.8725
G1 X96.636 Y95.234 E19.88524
G1 X96.637 Y95.234 E19.88529
G1 X99.505 Y95.234 E20.01884
G1 X102.302 Y100.08 E20.27937
G1 X103.093 Y99.982 E20.31649
G1 X103.707 Y99.982 E20.34508
G1 X104.324 Y100.059 E20.37403
G1 X104.918 Y100.211 E20.40258
G1 X105.492 Y100.438 E20.43132
G1 X106.031 Y100.735 E20.45998
G1 X106.529 Y101.098 E20.48868
G1 X106.976 Y101.517 E20.5172
G1 X107.369 Y101.989 E20.5458
G1 X107.698 Y102.507 E20.57438
G1 X107.965 Y103.071 E20.60343
G1 X108.096 Y103.432 E20.62132
G1 X114.052 Y103.432 E20.89865
G1 X114.052 Y106.334 E21.03378
G1 X108.103 Y106.334 E21.31079
G1 X107.851 Y106.962 E21.3423
G1 X107.552 Y107.508 E21.37129
G1 X107.188 Y108.009 E21.40012
G1 X106.771 Y108.456 E21.42859
G1 X106.281 Y108.862 E21.45822
G1 X105.766 Y109.19 E21.48665
G1 X105.21 Y109.451 E21.51525
G1 X104.621 Y109.642 E21.54408
G1 X104.013 Y109.758 E21.57291
G1 X103.4 Y109.796 E21.6015
G1 X102.789 Y109.758 E21.63001
G1 X102.306 Y109.682 E21.65278
G1 X99.43 Y114.663 E21.9206
G1 X97.157 Y113.351 E22.04281
G1 X96.915 Y113.212 E22.0558
G1 X97.055 Y112.97 E22.06421
G1 X99.788 Y108.238 E22.31866
G1 X99.256 Y107.52 E22.36027
G1 X98.962 Y106.986 E22.38866
G1 X98.731 Y106.409 E22.4176
G1 X98.578 Y105.816 E22.44612
G1 X98.499 Y105.198 E22.47513
G1 X98.496 Y104.586 E22.50362
G1 X98.573 Y103.969 E22.53258
G1 X98.725 Y103.375 E22.56113
G1 X98.95 Y102.805 E22.58966
G1 X99.249 Y102.259 E22.61865
G1 X99.612 Y101.755 E22.64757
G1 X99.795 Y101.548 E22.66044
M204 S3000
M205 X10 Y10
G0 F3000 X99.696 Y101.375
G0 X100.267 Y101.047
G0 X100.909 Y102.808
M204 S1800
M205 X8 Y8
;TYPE:SKIN
G1 F1500 X101.776 Y101.828 E22.72136
G1 X103.201 Y101.652 E22.78822
G1 X103.598 Y101.652 E22.80671
G1 X104.022 Y101.704 E22.8266
G1 X104.783 Y101.953 E22.86388
G1 X105.125 Y102.141 E22.88205
G1 X105.463 Y102.387 E22.90152
G1 X106.017 Y102.974 E22.9391
G1 X106.234 Y103.317 E22.958
G1 X106.421 Y103.712 E22.97835
G1 X106.864 Y104.935 E23.03892
G1 X106.338 Y106.249 E23.10483
G1 X106.137 Y106.615 E23.12427
G1 X105.63 Y107.232 E23.16146
G1 X105.298 Y107.508 E23.18156
G1 X104.602 Y107.892 E23.21858
G1 X104.2 Y108.021 E23.23823
G1 X103.799 Y108.098 E23.25725
G1 X103.401 Y108.124 E23.27582
G1 X102.981 Y108.096 E23.29542
G1 X101.602 Y107.881 E23.36041
G1 X100.667 Y106.617 E23.43362
G1 X100.472 Y106.266 E23.45231
G1 X100.222 Y105.507 E23.48952
G1 X100.166 Y104.69 E23.52766
G1 X100.218 Y104.27 E23.54736
G1 X100.466 Y103.513 E23.58446
G1 X100.671 Y103.139 E23.60431
G1 X100.909 Y102.808 E23.6233
M204 S3000
M205 X10 Y10
G0 F3000 X104.515 Y102.139
M204 S1800
M205 X8 Y8
G1 F1500 X106.173 Y103.797 E23.73248
G1 X106.243 Y103.867
M204 S3000
M205 X10 Y10
G0 F3000 X106.564 Y104.98
M204 S1800
M205 X8 Y8
G1 F1500 X103.495 Y101.911 E23.93458
M204 S3000
M205 X10 Y10
G0 F3000 X102.76 Y101.968
M204 S1800
M205 X8 Y8
G1 F1500 X106.338 Y105.547 E24.17023
M204 S3000
M205 X10 Y10
G0 F3000 X106.112 Y106.112
M204 S1800
M205 X8 Y8
G1 F1500 X102.055 Y102.055 E24.43739
M204 S3000
M205 X10 Y10
G0 F3000 X101.612 Y102.404
M204 S1800
M205 X8 Y8
G1 F1500 X105.81 Y106.602 E24.71384
M204 S3000
M205 X10 Y10
G0 F3000 X105.452 Y107.036
M204 S1800
M205 X8 Y8
G1 F1500 X101.24 Y102.824 E24.9912
M204 S3000
