;FLAVOR:Marlin
;TIME:1563
;Filament used: 1.71711m
;Layer height: 0.2
;MINX:87.832
;MINY:86.992
;MINZ:0.2
;MAXX:122.183
;MAXY:122.988
;MAXZ:45.6
;Generated with Cura_SteamEngine 4.8.0
M140 S60
M105
M190 S60
M104 S200
M105
M109 S200
M82 ;absolute extrusion mode
; Script based on an original created by tjjfvi (https://github.com/tjjfvi)
; An up-to-date version of the tjjfvi's original script can be found
; here:  https://csi.t6.fyi/
; Note - This script will only work in Cura V4.2 and above!
; --- Global Settings
; layer_height = 0.2
; smooth_spiralized_contours = True
; magic_mesh_surface_mode = normal
; machine_extruder_count = 1
; --- Single Extruder Settings
; speed_z_hop = 10
; retraction_amount = 6
; retraction_hop = 0.075
; retraction_hop_enabled = True
; retraction_enable = True
; retraction_speed = 40
; retraction_retract_speed = 40
; retraction_prime_speed = 40
; speed_travel = 100


G21 ;metric values
G90 ;absolute positioning
M82 ;set extruder to absolute mode
M107 ;start with the fan off
G28 X0 Y0 ;move X/Y to min endstops
G28 Z0 ;move Z to min endstops
G1 Z15.0 F100 ;move the platform down 15mm
G92 E0 ;zero the extruded length
G1 F200 E3 ;extrude 3mm of feed stock
G92 E0 ;zero the extruded length again
G1 F100
G0 Y20 F100
M117 Printing...
G5
G92 E0
G92 E0
G1 F2400 E-6
;LAYER_COUNT:228
;LAYER:0
M106 S255
M204 S3000
M205 X10 Y10
G1 F600 Z0.275
G0 F3000 X89.56 Y89.026 Z0.275
M204 S1800
M205 X8 Y8
;TYPE:SKIRT
G1 F600 Z0.2
G1 F2400 E0
G1 X90.078 Y88.532 E0.03333
G1 X90.647 Y88.099 E0.06662
G1 X91.261 Y87.733 E0.09991
G1 X91.912 Y87.437 E0.13321
G1 X92.593 Y87.216 E0.16655
G1 X93.293 Y87.072 E0.19982
G1 X94.133 Y87.004 E0.23907
G1 X94.966 Y86.992 E0.27786
G1 X98.129 Y86.992 E0.42514
G1 X98.924 Y87.003 E0.46216
G1 X99.637 Y87.053 E0.49544
G1 X100.341 Y87.182 E0.52877
G1 X101.025 Y87.389 E0.56205
G1 X101.683 Y87.671 E0.59538
G1 X102.411 Y88.096 E0.63464
G1 X104.591 Y89.566 E0.75707
G1 X106.844 Y90.996 E0.88132
G1 X109.073 Y92.323 E1.00212
G1 X111.427 Y93.637 E1.12765
G1 X113.753 Y94.85 E1.2498
G1 X116.144 Y96.012 E1.37359
G1 X118.146 Y96.916 E1.47587
G1 X118.485 Y97.075 E1.49331
G1 X119.115 Y97.413 E1.5266
G1 X119.703 Y97.82 E1.5599
G1 X120.243 Y98.29 E1.59323
G1 X120.726 Y98.818 E1.62655
G1 X121.147 Y99.396 E1.65985
G1 X121.502 Y100.017 E1.69316
G1 X121.785 Y100.674 E1.72647
G1 X121.992 Y101.358 E1.75974
G1 X122.122 Y102.062 E1.79308
G1 X122.172 Y102.694 E1.8226
G1 X122.183 Y103.195 E1.84593
G1 X122.182 Y106.225 E1.98702
G1 X122.171 Y106.956 E2.02106
G1 X122.121 Y107.67 E2.05439
G1 X121.991 Y108.373 E2.08768
G1 X121.783 Y109.058 E2.12102
G1 X121.5 Y109.715 E2.15433
G1 X121.146 Y110.336 E2.18761
G1 X120.724 Y110.914 E2.22094
G1 X120.241 Y111.441 E2.25422
G1 X119.702 Y111.911 E2.28752
G1 X119.114 Y112.318 E2.32082
G1 X118.403 Y112.694 E2.35827
G1 X117.913 Y112.915 E2.3833
G1 X115.498 Y114.05 E2.50756
G1 X113.106 Y115.258 E2.63233
G1 X110.809 Y116.501 E2.75395
G1 X108.494 Y117.841 E2.8785
G1 X106.267 Y119.214 E3.00032
G1 X102.923 Y121.441 E3.1874
G1 X102.342 Y121.846 E3.22038
G1 X101.733 Y122.222 E3.25371
G1 X101.086 Y122.527 E3.28702
G1 X100.409 Y122.759 E3.32034
G1 X99.711 Y122.913 E3.35362
G1 X99 Y122.988 E3.38691
G1 X98.284 Y122.984 E3.42025
G1 X97.574 Y122.899 E3.45355
G1 X96.878 Y122.736 E3.48684
G1 X96.204 Y122.497 E3.52014
G1 X95.654 Y122.234 E3.54852
G1 X95.214 Y121.995 E3.57184
G1 X92.571 Y120.469 E3.71395
G1 X91.953 Y120.101 E3.74744
G1 X91.359 Y119.701 E3.78079
G1 X90.815 Y119.238 E3.81405
G1 X90.325 Y118.716 E3.84739
G1 X89.896 Y118.144 E3.88068
G1 X89.534 Y117.527 E3.91399
G1 X89.244 Y116.873 E3.9473
G1 X89.028 Y116.192 E3.98057
G1 X88.889 Y115.49 E4.01389
G1 X88.829 Y114.777 E4.04721
G1 X88.833 Y114.336 E4.06775
G1 X88.88 Y113.225 E4.11953
G1 X88.911 Y112.694 E4.14429
G1 X88.986 Y110.059 E4.26704
G1 X88.988 Y107.415 E4.39016
G1 X88.913 Y104.738 E4.51486
G1 X88.765 Y102.101 E4.63784
G1 X88.541 Y99.461 E4.76121
G1 X88.244 Y96.84 E4.88404
G1 X88.048 Y95.394 E4.95198
G1 X87.893 Y94.305 E5.0032
G1 X87.832 Y93.592 E5.03653
G1 X87.851 Y92.877 E5.06983
G1 X87.949 Y92.169 E5.10311
G1 X88.126 Y91.476 E5.13642
G1 X88.379 Y90.807 E5.16972
G1 X88.705 Y90.17 E5.20304
G1 X89.101 Y89.574 E5.23636
G1 X89.56 Y89.026 E5.26965
M204 S3000
M205 X10 Y10
G0 F3000 X90.14 Y89.234
M204 S1800
M205 X8 Y8
G1 F2400 X90.655 Y88.785 E5.30146
G1 X91.218 Y88.399 E5.33325
G1 X91.823 Y88.081 E5.36507
G1 X92.461 Y87.837 E5.39688
G1 X93.124 Y87.669 E5.42873
G1 X94.142 Y87.564 E5.47638
G1 X94.966 Y87.552 E5.51475
G1 X98.129 Y87.552 E5.66204
G1 X98.916 Y87.563 E5.69869
G1 X99.597 Y87.612 E5.73048
G1 X100.268 Y87.741 E5.7623
G1 X100.92 Y87.948 E5.79415
G1 X101.542 Y88.229 E5.82593
G1 X102.098 Y88.56 E5.85606
G1 X104.297 Y90.043 E5.97956
G1 X106.535 Y91.464 E6.10301
G1 X108.807 Y92.816 E6.22611
G1 X111.159 Y94.129 E6.35154
G1 X113.514 Y95.357 E6.47521
G1 X115.919 Y96.525 E6.59971
G1 X117.985 Y97.459 E6.70529
G1 X118.248 Y97.582 E6.7188
G1 X118.849 Y97.907 E6.75062
G1 X119.408 Y98.3 E6.78244
G1 X119.917 Y98.756 E6.81426
G1 X120.369 Y99.268 E6.84606
G1 X120.759 Y99.829 E6.87788
G1 X121.08 Y100.432 E6.90968
G1 X121.329 Y101.069 E6.94153
G1 X121.501 Y101.73 E6.97334
G1 X121.612 Y102.709 E7.01921
G1 X121.623 Y103.195 E7.04185
G1 X121.622 Y106.217 E7.18257
G1 X121.611 Y106.948 E7.21661
G1 X121.561 Y107.629 E7.24841
G1 X121.432 Y108.3 E7.28022
G1 X121.225 Y108.951 E7.31203
G1 X120.943 Y109.574 E7.34387
G1 X120.591 Y110.159 E7.37566
G1 X120.173 Y110.699 E7.40746
G1 X119.694 Y111.187 E7.4393
G1 X119.162 Y111.615 E7.4711
G1 X118.583 Y111.979 E7.50294
G1 X118.173 Y112.184 E7.52429
G1 X117.643 Y112.423 E7.55136
G1 X115.244 Y113.55 E7.67478
G1 X112.865 Y114.752 E7.79889
G1 X110.528 Y116.017 E7.92263
G1 X108.224 Y117.35 E8.04658
G1 X105.96 Y118.746 E8.17043
G1 X102.591 Y120.99 E8.35892
G1 X102.021 Y121.387 E8.39126
G1 X101.439 Y121.744 E8.42305
G1 X100.819 Y122.031 E8.45487
G1 X100.17 Y122.243 E8.48666
G1 X99.5 Y122.378 E8.51848
G1 X98.819 Y122.434 E8.5503
G1 X98.136 Y122.41 E8.58212
G1 X97.461 Y122.307 E8.61392
G1 X96.802 Y122.125 E8.64575
G1 X95.919 Y121.741 E8.69059
G1 X95.494 Y121.509 E8.71314
G1 X92.857 Y119.988 E8.85489
G1 X92.239 Y119.62 E8.88838
G1 X91.673 Y119.236 E8.92023
G1 X91.157 Y118.79 E8.95199
G1 X90.695 Y118.286 E8.98382
G1 X90.296 Y117.731 E9.01565
G1 X89.964 Y117.134 E9.04746
G1 X89.705 Y116.502 E9.07926
G1 X89.521 Y115.844 E9.11108
G1 X89.415 Y115.169 E9.14289
G1 X89.392 Y114.359 E9.18063
G1 X89.439 Y113.257 E9.23199
G1 X89.469 Y112.741 E9.25605
G1 X89.546 Y110.039 E9.38192
G1 X89.548 Y107.399 E9.50485
G1 X89.473 Y104.726 E9.62937
G1 X89.323 Y102.057 E9.75384
G1 X89.1 Y99.423 E9.87693
G1 X88.797 Y96.749 E10.00224
G1 X88.603 Y95.319 E10.06944
G1 X88.447 Y94.226 E10.12085
G1 X88.391 Y93.545 E10.15266
G1 X88.414 Y92.862 E10.18449
G1 X88.517 Y92.187 E10.21628
G1 X88.698 Y91.528 E10.2481
G1 X88.955 Y90.895 E10.27992
G1 X89.284 Y90.296 E10.31174
G1 X89.681 Y89.74 E10.34355
G1 X90.14 Y89.234 E10.37536
M204 S3000
M205 X10 Y10
G0 F3000 X90.261 Y89.92
M204 S1800
M205 X8 Y8
G1 F2400 X90.719 Y89.459 E10.40562
G1 X91.229 Y89.058 E10.43583
G1 X91.786 Y88.722 E10.46612
G1 X92.379 Y88.458 E10.49634
G1 X93 Y88.268 E10.52658
G1 X93.64 Y88.156 E10.55684
G1 X94.15 Y88.124 E10.58063
G1 X94.966 Y88.112 E10.61863
G1 X98.129 Y88.112 E10.76591
G1 X98.908 Y88.123 E10.80219
G1 X99.556 Y88.172 E10.83245
G1 X100.193 Y88.3 E10.86271
G1 X100.809 Y88.506 E10.89295
G1 X101.395 Y88.785 E10.92317
G1 X101.785 Y89.024 E10.94447
G1 X103.977 Y90.502 E11.06757
G1 X106.252 Y91.946 E11.19305
G1 X108.541 Y93.309 E11.3171
G1 X110.878 Y94.613 E11.44171
G1 X113.288 Y95.87 E11.56828
G1 X115.651 Y97.018 E11.69061
G1 X117.748 Y97.966 E11.79777
G1 X118.011 Y98.089 E11.81129
G1 X118.581 Y98.4 E11.84152
G1 X119.109 Y98.779 E11.87178
G1 X119.587 Y99.219 E11.90204
G1 X120.006 Y99.715 E11.93227
G1 X120.362 Y100.259 E11.96254
G1 X120.648 Y100.842 E11.99278
G1 X120.861 Y101.456 E12.02304
G1 X120.996 Y102.091 E12.05327
G1 X121.052 Y102.725 E12.08291
G1 X121.063 Y103.195 E12.1048
G1 X121.062 Y106.208 E12.2451
G1 X121.051 Y106.939 E12.27914
G1 X121.002 Y107.587 E12.3094
G1 X120.873 Y108.224 E12.33966
G1 X120.667 Y108.84 E12.36991
G1 X120.387 Y109.426 E12.40015
G1 X120.037 Y109.973 E12.43039
G1 X119.622 Y110.473 E12.46064
G1 X119.149 Y110.919 E12.49092
G1 X118.625 Y111.303 E12.52117
G1 X117.943 Y111.673 E12.5573
G1 X117.488 Y111.878 E12.58053
G1 X114.975 Y113.059 E12.70983
G1 X112.597 Y114.26 E12.83388
G1 X110.244 Y115.534 E12.95847
G1 X107.942 Y116.865 E13.08229
G1 X105.659 Y118.273 E13.20719
G1 X102.304 Y120.508 E13.3949
G1 X101.701 Y120.928 E13.42912
G1 X101.146 Y121.266 E13.45938
G1 X100.554 Y121.533 E13.48962
G1 X99.934 Y121.725 E13.51984
G1 X99.295 Y121.84 E13.55007
G1 X98.646 Y121.876 E13.58034
G1 X97.998 Y121.831 E13.61059
G1 X97.36 Y121.708 E13.64084
G1 X96.742 Y121.507 E13.6711
G1 X96.184 Y121.248 E13.69975
G1 X95.773 Y121.024 E13.72154
G1 X93.144 Y119.507 E13.86288
G1 X92.526 Y119.139 E13.89637
G1 X91.989 Y118.773 E13.92663
G1 X91.501 Y118.343 E13.95692
G1 X91.07 Y117.858 E13.98713
G1 X90.702 Y117.322 E14.0174
G1 X90.402 Y116.746 E14.04764
G1 X90.175 Y116.137 E14.07791
G1 X90.025 Y115.505 E14.10815
G1 X89.953 Y114.86 E14.13837
G1 X89.952 Y114.383 E14.16059
G1 X89.998 Y113.289 E14.21157
G1 X90.029 Y112.755 E14.23648
G1 X90.106 Y110.056 E14.36221
G1 X90.108 Y107.383 E14.48667
G1 X90.033 Y104.715 E14.61095
G1 X89.881 Y102.013 E14.73697
G1 X89.655 Y99.348 E14.86151
G1 X89.355 Y96.696 E14.98578
G1 X89.158 Y95.243 E15.05406
G1 X89.002 Y94.147 E15.10561
G1 X88.95 Y93.5 E15.13583
G1 X88.978 Y92.851 E15.16608
G1 X89.086 Y92.21 E15.19635
G1 X89.271 Y91.587 E15.22661
G1 X89.531 Y90.992 E15.25685
G1 X89.863 Y90.434 E15.28708
G1 X90.261 Y89.92 E15.31735
M204 S3000
M205 X10 Y10
G1 F2400 E9.31735
;MESH:Sodastream_Flaschenhalshalterrakete_mk2.stl
G0 F3000 X95.688 Y92.727
G0 X95.688 Y94.242
G0 X100.3 Y101.138
M204 S1800
M205 X8 Y8
;TYPE:WALL-INNER
G1 F2400 E15.31735
G1 F1500 X98.691 Y98.343 E15.46752
G1 X96.882 Y95.212 E15.6359
G1 X96.64 Y94.792 E15.65847
G1 X97.124 Y94.792 E15.67125
G1 X97.125 Y94.792 E15.6713
G1 X98.029 Y94.792 E15.71339
G1 X101.307 Y100.473 E16.0188
G1 X102.868 Y100.278 E16.09206
G1 X103.433 Y100.278 E16.11836
G1 X104.03 Y100.352 E16.14638
G1 X104.561 Y100.489 E16.17191
G1 X105.113 Y100.707 E16.19955
G1 X105.609 Y100.981 E16.22593
G1 X106.082 Y101.324 E16.25314
G1 X106.497 Y101.712 E16.27959
G1 X106.867 Y102.158 E16.30658
G1 X107.18 Y102.652 E16.33381
G1 X107.433 Y103.188 E16.36141
G1 X107.824 Y104.265 E16.41476
G1 X114.383 Y104.265 E16.72017
G1 X114.383 Y105.465 E16.77605
G1 X107.859 Y105.465 E17.07984
G1 X107.316 Y106.814 E17.14755
G1 X107.04 Y107.317 E17.17426
G1 X106.699 Y107.787 E17.2013
G1 X106.304 Y108.21 E17.22825
G1 X105.841 Y108.593 E17.25623
G1 X105.368 Y108.894 E17.28234
G1 X104.838 Y109.142 E17.30959
G1 X104.299 Y109.318 E17.33599
G1 X103.727 Y109.427 E17.3631
G1 X103.15 Y109.463 E17.39002
G1 X102.554 Y109.427 E17.41782
G1 X101.325 Y109.229 E17.47579
G1 X98.309 Y114.454 E17.75671
G1 X98.169 Y114.696 E17.76973
G1 X97.927 Y114.556 E17.77814
G1 X97.129 Y114.095 E17.82105
G1 X100.263 Y108.668 E18.11287
G1 X99.275 Y107.334 E18.19016
G1 X98.997 Y106.829 E18.21701
G1 X98.777 Y106.281 E18.2445
G1 X98.639 Y105.746 E18.27023
G1 X98.564 Y105.151 E18.29816
G1 X98.562 Y104.588 E18.32437
G1 X98.635 Y103.996 E18.35215
G1 X98.772 Y103.465 E18.37768
G1 X98.989 Y102.914 E18.40526
G1 X99.266 Y102.409 E18.43208
G1 X99.622 Y101.915 E18.46043
G1 X100.3 Y101.138 E18.50845
M204 S3000
M205 X10 Y10
G0 F3000 X99.615 Y101.071
M204 S1800
M205 X8 Y8
G1 F1500 X98.206 Y98.622 E18.64001
G1 X95.913 Y94.652 E18.85349
G1 X95.671 Y94.232 E18.87606
G1 X96.155 Y94.232 E18.88884
G1 X96.156 Y94.232 E18.88889
G1 X98.352 Y94.232 E18.99114
G1 X101.606 Y99.871 E19.2943
G1 X102.831 Y99.718 E19.35179
G1 X103.47 Y99.718 E19.38154
G1 X104.129 Y99.8 E19.41246
G1 X104.74 Y99.957 E19.44184
G1 X105.35 Y100.198 E19.47238
G1 X105.91 Y100.507 E19.50216
G1 X106.442 Y100.894 E19.53279
G1 X106.905 Y101.327 E19.56231
G1 X107.32 Y101.827 E19.59257
G1 X107.669 Y102.378 E19.62294
G1 X107.95 Y102.973 E19.65358
G1 X108.216 Y103.705 E19.68984
G1 X114.943 Y103.705 E20.00308
G1 X114.943 Y106.025 E20.11111
G1 X108.237 Y106.025 E20.42337
G1 X107.822 Y107.056 E20.47512
G1 X107.512 Y107.622 E20.50517
G1 X107.132 Y108.144 E20.53524
G1 X106.689 Y108.619 E20.56548
G1 X106.175 Y109.044 E20.59654
G1 X105.636 Y109.387 E20.62628
G1 X105.047 Y109.663 E20.65657
G1 X104.437 Y109.862 E20.68645
G1 X103.796 Y109.984 E20.71683
G1 X103.151 Y110.024 E20.74693
G1 X102.492 Y109.984 E20.77767
G1 X101.617 Y109.843 E20.81894
G1 X98.514 Y115.219 E21.10797
G1 X98.374 Y115.461 E21.12099
G1 X98.132 Y115.321 E21.1294
G1 X96.364 Y114.3 E21.22447
G1 X99.594 Y108.706 E21.52525
G1 X98.8 Y107.634 E21.58737
G1 X98.489 Y107.069 E21.6174
G1 X98.245 Y106.461 E21.64791
G1 X98.087 Y105.847 E21.67743
G1 X98.004 Y105.19 E21.70826
G1 X98.002 Y104.552 E21.73797
G1 X98.083 Y103.897 E21.7687
G1 X98.24 Y103.286 E21.79808
G1 X98.48 Y102.679 E21.82847
G1 X98.792 Y102.108 E21.85877
G1 X99.182 Y101.568 E21.88979
G1 X99.615 Y101.071 E21.92048
M204 S3000
M205 X10 Y10
G0 F3000 X98.931 Y101.004
M204 S1800
M205 X8 Y8
;TYPE:WALL-OUTER
G1 F1500 X97.721 Y98.901 E22.03346
G1 X94.944 Y94.091 E22.29208
G1 X94.702 Y93.672 E22.31461
G1 X95.185 Y93.672 E22.32736
G1 X95.186 Y93.672 E22.3274
G1 X98.675 Y93.672 E22.48987
G1 X101.905 Y99.269 E22.79077
G1 X102.794 Y99.158 E22.83249
G1 X103.508 Y99.158 E22.86573
G1 X104.227 Y99.248 E22.89948
G1 X104.918 Y99.425 E22.93269
G1 X105.587 Y99.689 E22.96618
G1 X106.215 Y100.036 E22.99959
G1 X106.799 Y100.461 E23.03322
G1 X107.313 Y100.942 E23.066
G1 X107.771 Y101.493 E23.09936
G1 X108.16 Y102.108 E23.13325
G1 X108.467 Y102.757 E23.16668
G1 X108.608 Y103.145 E23.1859
G1 X115.503 Y103.145 E23.50696
G1 X115.503 Y106.585 E23.66714
G1 X108.615 Y106.585 E23.98788
G1 X108.331 Y107.291 E24.02331
G1 X107.984 Y107.926 E24.05701
G1 X107.565 Y108.501 E24.09013
G1 X107.074 Y109.028 E24.12367
G1 X106.507 Y109.497 E24.15794
G1 X105.906 Y109.879 E24.1911
G1 X105.258 Y110.183 E24.22443
G1 X104.573 Y110.406 E24.25797
G1 X103.865 Y110.541 E24.29153
G1 X103.151 Y110.585 E24.32484
G1 X102.429 Y110.541 E24.35852
G1 X101.909 Y110.457 E24.38305
G1 X98.718 Y115.984 E24.68022
G1 X98.579 Y116.226 E24.69322
G1 X98.337 Y116.086 E24.70163
G1 X95.599 Y114.505 E24.84885
G1 X98.925 Y108.744 E25.1586
G1 X98.325 Y107.934 E25.20554
G1 X97.981 Y107.308 E25.2388
G1 X97.713 Y106.64 E25.27232
G1 X97.535 Y105.948 E25.30559
G1 X97.444 Y105.229 E25.33933
G1 X97.442 Y104.516 E25.37254
G1 X97.531 Y103.798 E25.40622
G1 X97.708 Y103.107 E25.43944
G1 X97.971 Y102.443 E25.47269
G1 X98.319 Y101.807 E25.50645
G1 X98.742 Y101.221 E25.54011
G1 X98.931 Y101.004 E25.55351
M204 S3000
M205 X10 Y10
G0 F3000 X98.832 Y100.831
G0 X99.403 Y100.504
G0 X100.058 Y102.251
M204 S1800
M205 X8 Y8
;TYPE:SKIN
G1 F1500 X100.972 Y101.204 E25.61822
G1 X99.168 Y98.068 E25.78668
G1 X97.594 Y95.342 E25.93326
G1 X97.711 Y95.342 E25.93871
G1 X101.013 Y101.064 E26.24633
G1 X102.904 Y100.828 E26.33506
G1 X103.398 Y100.828 E26.35807
G1 X103.933 Y100.894 E26.38317
G1 X104.39 Y101.012 E26.40514
G1 X104.877 Y101.204 E26.42952
G1 X105.31 Y101.444 E26.45257
G1 X105.729 Y101.748 E26.47668
G1 X106.1 Y102.095 E26.50033
G1 X106.419 Y102.479 E26.52358
G1 X106.699 Y102.921 E26.54794
G1 X106.923 Y103.396 E26.57239
G1 X107.439 Y104.815 E26.6427
G1 X113.833 Y104.815 E26.94043
G1 X113.833 Y104.915 E26.94509
G1 X107.488 Y104.915 E27.24054
G1 X106.818 Y106.578 E27.32402
G1 X106.576 Y107.019 E27.34745
G1 X106.272 Y107.439 E27.37159
G1 X105.927 Y107.808 E27.39511
G1 X105.517 Y108.148 E27.41991
G1 X105.109 Y108.408 E27.44244
G1 X104.632 Y108.631 E27.46696
G1 X104.158 Y108.785 E27.49017
G1 X103.653 Y108.881 E27.5141
G1 X103.157 Y108.912 E27.53724
G1 X102.615 Y108.88 E27.56253
G1 X101.038 Y108.626 E27.6369
G1 X97.968 Y113.945 E27.92287
G1 X97.88 Y113.894 E27.92761
G1 X100.919 Y108.631 E28.2106
G1 X99.737 Y107.035 E28.30308
G1 X99.497 Y106.597 E28.32633
G1 X99.297 Y106.101 E28.35123
G1 X99.182 Y105.651 E28.37286
