;FLAVOR:Marlin
;TIME:12926
;Filament used: 10.9073m
;Layer height: 0.2
;MINX:15.6
;MINY:48.6
;MINZ:0.2
;MAXX:194.4
;MAXY:161.4
;MAXZ:4
;Generated with Cura_SteamEngine 4.8.0
M140 S55
M105
M190 S55
M104 S200
M105
M109 S200
M82 ;absolute extrusion mode
; Script based on an original created by tjjfvi (https://github.com/tjjfvi)
; An up-to-date version of the tjjfvi's original script can be found
; here:  https://csi.t6.fyi/
; Note - This script will only work in Cura V4.2 and above!
; --- Global Settings
; layer_height = 0.2
; smooth_spiralized_contours = True
; magic_mesh_surface_mode = normal
; machine_extruder_count = 1
; --- Single Extruder Settings
; speed_z_hop = 10
; retraction_amount = 6
; retraction_hop = 0.075
; retraction_hop_enabled = True
; retraction_enable = True
; retraction_speed = 40
; retraction_retract_speed = 40
; retraction_prime_speed = 40
; speed_travel = 100


G21 ;metric values
G90 ;absolute positioning
M82 ;set extruder to absolute mode
M107 ;start with the fan off
G28 X0 Y0 ;move X/Y to min endstops
G28 Z0 ;move Z to min endstops
G1 Z15.0 F100 ;move the platform down 15mm
G92 E0 ;zero the extruded length
G1 F200 E3 ;extrude 3mm of feed stock
G92 E0 ;zero the extruded length again
G1 F100
G0 Y20 F100
M117 Printing...
G5
G92 E0
G92 E0
G1 F2400 E-6
;LAYER_COUNT:20
;LAYER:0
M106 S255
M204 S3000
M205 X10 Y10
G1 F600 Z0.275
G0 F3000 X57.916 Y50.659 Z0.275
M204 S1800
M205 X8 Y8
;TYPE:SKIRT
G1 F600 Z0.2
G1 F2400 E0
G1 X58.431 Y50.162 E0.03333
G1 X58.998 Y49.726 E0.06663
G1 X59.61 Y49.356 E0.09993
G1 X60.259 Y49.057 E0.1332
G1 X60.938 Y48.832 E0.16651
G1 X61.638 Y48.684 E0.19983
G1 X62.41 Y48.613 E0.23593
G1 X62.93 Y48.6 E0.26015
G1 X146.693 Y48.6 E4.1605
G1 X147.485 Y48.611 E4.19739
G1 X148.199 Y48.661 E4.23072
G1 X148.902 Y48.79 E4.264
G1 X149.587 Y48.997 E4.29732
G1 X150.244 Y49.28 E4.33063
G1 X150.866 Y49.633 E4.36393
G1 X151.444 Y50.054 E4.39723
G1 X151.972 Y50.537 E4.43055
G1 X152.442 Y51.076 E4.46385
G1 X152.85 Y51.664 E4.49717
G1 X153.189 Y52.294 E4.53049
G1 X153.456 Y52.957 E4.56377
G1 X153.538 Y53.224 E4.57677
G1 X153.798 Y54.116 E4.62004
G1 X154.579 Y56.66 E4.74395
G1 X155.423 Y59.154 E4.86655
G1 X156.346 Y61.65 E4.99047
G1 X157.328 Y64.09 E5.11294
G1 X158.388 Y66.522 E5.23648
G1 X159.518 Y68.926 E5.36017
G1 X160.71 Y71.287 E5.48332
G1 X161.965 Y73.612 E5.60635
G1 X163.293 Y75.906 E5.72977
G1 X164.682 Y78.16 E5.85306
G1 X166.137 Y80.378 E5.97658
G1 X167.658 Y82.558 E6.10035
G1 X169.217 Y84.665 E6.2224
G1 X170.864 Y86.765 E6.34667
G1 X172.543 Y88.782 E6.46887
G1 X174.311 Y90.789 E6.59342
G1 X176.113 Y92.722 E6.71647
G1 X177.957 Y94.593 E6.83879
G1 X179.858 Y96.412 E6.96131
G1 X181.834 Y98.201 E7.08542
G1 X183.863 Y99.936 E7.20973
G1 X185.915 Y101.592 E7.33252
G1 X188.017 Y103.193 E7.45555
G1 X190.177 Y104.743 E7.57935
G1 X190.801 Y105.164 E7.6144
G1 X191.646 Y105.752 E7.66233
G1 X192.209 Y106.192 E7.69561
G1 X192.72 Y106.693 E7.72893
G1 X193.171 Y107.248 E7.76223
G1 X193.558 Y107.85 E7.79555
G1 X193.875 Y108.491 E7.82885
G1 X194.119 Y109.163 E7.86214
G1 X194.286 Y109.858 E7.89542
G1 X194.387 Y110.808 E7.93991
G1 X194.4 Y111.33 E7.96422
G1 X194.399 Y122.406 E8.47997
G1 X194.383 Y123.531 E8.53236
G1 X194.383 Y126.31 E8.66176
G1 X194.398 Y126.995 E8.69366
G1 X194.4 Y127.266 E8.70628
G1 X194.399 Y138.406 E9.22501
G1 X194.383 Y139.531 E9.2774
G1 X194.383 Y142.31 E9.4068
G1 X194.398 Y142.995 E9.43871
G1 X194.4 Y143.266 E9.45132
G1 X194.4 Y154.343 E9.96712
G1 X194.391 Y155.07 E10.00097
G1 X194.342 Y155.784 E10.0343
G1 X194.214 Y156.488 E10.06761
G1 X194.008 Y157.173 E10.10092
G1 X193.727 Y157.83 E10.1342
G1 X193.374 Y158.453 E10.16754
G1 X192.954 Y159.032 E10.20084
G1 X192.472 Y159.56 E10.23413
G1 X191.935 Y160.032 E10.26743
G1 X191.347 Y160.44 E10.30075
G1 X190.718 Y160.781 E10.33407
G1 X190.055 Y161.049 E10.36737
G1 X189.366 Y161.241 E10.40067
G1 X188.66 Y161.356 E10.43398
G1 X187.849 Y161.397 E10.47179
G1 X187.67 Y161.4 E10.48013
G1 X117.61 Y161.399 E13.74241
G1 X116.913 Y161.389 E13.77487
G1 X116.232 Y161.349 E13.80664
G1 X115.888 Y161.315 E13.82273
G1 X113.713 Y161.081 E13.92459
G1 X111.068 Y160.871 E14.04814
G1 X108.394 Y160.734 E14.17282
G1 X105.79 Y160.676 E14.2941
G1 X103.109 Y160.692 E14.41894
G1 X100.503 Y160.78 E14.54036
G1 X97.84 Y160.946 E14.6646
G1 X94.271 Y161.287 E14.83155
G1 X93.749 Y161.347 E14.85601
G1 X93.243 Y161.384 E14.87964
G1 X92.674 Y161.4 E14.90614
G1 X22.615 Y161.399 E18.16838
G1 X21.917 Y161.389 E18.20089
G1 X21.204 Y161.339 E18.23417
G1 X20.5 Y161.21 E18.2675
G1 X19.816 Y161.002 E18.30079
G1 X19.159 Y160.72 E18.33408
G1 X18.537 Y160.366 E18.3674
G1 X17.959 Y159.945 E18.4007
G1 X17.431 Y159.462 E18.43402
G1 X16.961 Y158.924 E18.46729
G1 X16.553 Y158.336 E18.50061
G1 X16.214 Y157.706 E18.53392
G1 X15.947 Y157.043 E18.56721
G1 X15.756 Y156.353 E18.60054
G1 X15.643 Y155.647 E18.63384
G1 X15.602 Y154.831 E18.67188
G1 X15.6 Y154.658 E18.67994
G1 X15.601 Y143.594 E19.19512
G1 X15.617 Y142.469 E19.24751
G1 X15.617 Y139.69 E19.37691
G1 X15.602 Y139.005 E19.40882
G1 X15.6 Y138.734 E19.42144
G1 X15.601 Y127.594 E19.94016
G1 X15.617 Y126.469 E19.99255
G1 X15.617 Y123.69 E20.12195
G1 X15.602 Y123.005 E20.15386
G1 X15.6 Y122.734 E20.16648
G1 X15.601 Y111.616 E20.68418
G1 X15.611 Y110.914 E20.71687
G1 X15.661 Y110.2 E20.7502
G1 X15.79 Y109.497 E20.78348
G1 X15.997 Y108.812 E20.8168
G1 X16.28 Y108.155 E20.85011
G1 X16.633 Y107.533 E20.88341
G1 X17.054 Y106.955 E20.91671
G1 X17.537 Y106.427 E20.95003
G1 X18.076 Y105.957 E20.98333
G1 X18.782 Y105.462 E21.02348
G1 X20.996 Y103.917 E21.14919
G1 X23.107 Y102.352 E21.27156
G1 X25.17 Y100.732 E21.3937
G1 X27.224 Y99.023 E21.51812
G1 X29.235 Y97.25 E21.64295
G1 X31.14 Y95.474 E21.76423
G1 X33.041 Y93.598 E21.88859
G1 X34.844 Y91.715 E22.00998
G1 X36.649 Y89.72 E22.13526
G1 X38.348 Y87.73 E22.2571
G1 X40.034 Y85.64 E22.38214
G1 X41.613 Y83.565 E22.50355
G1 X43.167 Y81.398 E22.62772
G1 X44.658 Y79.189 E22.75182
G1 X46.066 Y76.972 E22.87411
G1 X47.419 Y74.7 E22.99724
G1 X48.718 Y72.372 E23.12138
G1 X49.924 Y70.062 E23.24272
G1 X51.098 Y67.645 E23.36784
G1 X52.176 Y65.257 E23.48984
G1 X53.221 Y62.761 E23.61584
G1 X54.155 Y60.33 E23.7371
G1 X55.044 Y57.813 E23.8614
G1 X55.844 Y55.322 E23.98323
G1 X56.343 Y53.611 E24.06622
G1 X56.496 Y53.117 E24.0903
G1 X56.745 Y52.446 E24.12362
G1 X57.068 Y51.808 E24.15692
G1 X57.46 Y51.21 E24.19022
G1 X57.916 Y50.659 E24.22352
M204 S3000
M205 X10 Y10
G0 F3000 X58.411 Y50.951
M204 S1800
M205 X8 Y8
G1 F2400 X58.913 Y50.488 E24.25532
G1 X59.467 Y50.087 E24.28717
G1 X60.063 Y49.754 E24.31896
G1 X60.695 Y49.493 E24.35079
G1 X61.352 Y49.307 E24.38259
G1 X62.027 Y49.199 E24.41442
G1 X62.748 Y49.163 E24.44803
G1 X62.93 Y49.16 E24.45651
G1 X146.693 Y49.16 E28.35687
G1 X147.477 Y49.171 E28.39338
G1 X148.159 Y49.22 E28.42522
G1 X148.83 Y49.349 E28.45703
G1 X149.481 Y49.556 E28.48884
G1 X150.104 Y49.837 E28.52066
G1 X150.689 Y50.189 E28.55246
G1 X151.23 Y50.606 E28.58426
G1 X151.718 Y51.085 E28.6161
G1 X152.147 Y51.616 E28.64789
G1 X152.511 Y52.195 E28.67974
G1 X152.804 Y52.812 E28.71154
G1 X152.998 Y53.382 E28.73958
G1 X153.027 Y53.475 E28.74411
G1 X153.239 Y54.201 E28.77933
G1 X154.045 Y56.827 E28.90724
G1 X154.899 Y59.351 E29.03131
G1 X155.822 Y61.845 E29.15514
G1 X156.816 Y64.315 E29.27912
G1 X157.882 Y66.763 E29.40345
G1 X159.012 Y69.168 E29.52718
G1 X160.21 Y71.541 E29.65096
G1 X161.474 Y73.88 E29.77476
G1 X162.818 Y76.203 E29.89972
G1 X164.214 Y78.467 E30.02358
G1 X165.669 Y80.687 E30.14717
G1 X167.192 Y82.869 E30.27108
G1 X168.77 Y85.002 E30.39462
G1 X170.424 Y87.111 E30.51943
G1 X172.14 Y89.172 E30.64431
G1 X173.893 Y91.163 E30.76783
G1 X175.7 Y93.101 E30.89121
G1 X177.549 Y94.977 E31.01386
G1 X179.491 Y96.835 E31.13901
G1 X181.472 Y98.629 E31.26346
G1 X183.506 Y100.368 E31.38807
G1 X185.565 Y102.03 E31.51128
G1 X187.687 Y103.645 E31.63545
G1 X189.84 Y105.19 E31.75885
G1 X190.481 Y105.623 E31.79487
G1 X191.326 Y106.211 E31.8428
G1 X191.863 Y106.634 E31.87463
G1 X192.347 Y107.116 E31.90644
G1 X192.771 Y107.651 E31.93823
G1 X193.13 Y108.233 E31.97007
G1 X193.419 Y108.852 E32.00188
G1 X193.633 Y109.501 E32.0337
G1 X193.77 Y110.17 E32.06549
G1 X193.827 Y110.825 E32.09611
G1 X193.84 Y111.33 E32.11963
G1 X193.839 Y122.398 E32.635
G1 X193.823 Y123.531 E32.68777
G1 X193.823 Y126.277 E32.81563
G1 X193.838 Y126.999 E32.84926
G1 X193.84 Y127.27 E32.86188
G1 X193.839 Y138.398 E33.38004
G1 X193.823 Y139.531 E33.43281
G1 X193.823 Y142.277 E33.56067
G1 X193.838 Y142.999 E33.5943
G1 X193.84 Y143.27 E33.60692
G1 X193.84 Y154.336 E34.1222
G1 X193.831 Y155.063 E34.15605
G1 X193.782 Y155.745 E34.18789
G1 X193.654 Y156.416 E34.2197
G1 X193.449 Y157.068 E34.25152
G1 X193.169 Y157.691 E34.28333
G1 X192.819 Y158.277 E34.31511
G1 X192.402 Y158.819 E34.34696
G1 X191.925 Y159.308 E34.37876
G1 X191.394 Y159.737 E34.41055
G1 X190.816 Y160.102 E34.44238
G1 X190.2 Y160.397 E34.47418
G1 X189.553 Y160.618 E34.50602
G1 X188.885 Y160.762 E34.53784
G1 X188.155 Y160.829 E34.57198
G1 X187.67 Y160.84 E34.59456
G1 X117.618 Y160.839 E37.85648
G1 X116.921 Y160.829 E37.88894
G1 X116.287 Y160.792 E37.91851
G1 X115.948 Y160.758 E37.93437
G1 X113.783 Y160.525 E38.03577
G1 X111.069 Y160.309 E38.16254
G1 X108.47 Y160.177 E38.28372
G1 X105.764 Y160.117 E38.40975
G1 X103.122 Y160.131 E38.53278
G1 X100.449 Y160.222 E38.65732
G1 X97.784 Y160.388 E38.78165
G1 X94.204 Y160.731 E38.94911
G1 X93.685 Y160.79 E38.97343
G1 X92.875 Y160.837 E39.01122
G1 X92.674 Y160.84 E39.02058
G1 X22.623 Y160.839 E42.28244
G1 X21.925 Y160.829 E42.31495
G1 X21.244 Y160.78 E42.34674
G1 X20.573 Y160.651 E42.37856
G1 X19.922 Y160.444 E42.41037
G1 X19.299 Y160.163 E42.44219
G1 X18.713 Y159.811 E42.47402
G1 X18.173 Y159.393 E42.50582
G1 X17.685 Y158.915 E42.53763
G1 X17.256 Y158.383 E42.56945
G1 X16.892 Y157.805 E42.60126
G1 X16.598 Y157.188 E42.63308
G1 X16.379 Y156.541 E42.66489
G1 X16.236 Y155.873 E42.6967
G1 X16.171 Y155.148 E42.73059
G1 X16.16 Y154.658 E42.75341
G1 X16.161 Y143.602 E43.26823
G1 X16.177 Y142.469 E43.32099
G1 X16.177 Y139.723 E43.44886
G1 X16.162 Y139.001 E43.48248
G1 X16.16 Y138.73 E43.4951
G1 X16.161 Y127.602 E44.01327
G1 X16.177 Y126.469 E44.06603
G1 X16.177 Y123.723 E44.1939
G1 X16.162 Y123.001 E44.22752
G1 X16.16 Y122.73 E44.24014
G1 X16.161 Y111.624 E44.75728
G1 X16.171 Y110.922 E44.78997
G1 X16.22 Y110.24 E44.82181
G1 X16.349 Y109.569 E44.85363
G1 X16.556 Y108.918 E44.88544
G1 X16.837 Y108.295 E44.91726
G1 X17.189 Y107.71 E44.94905
G1 X17.606 Y107.169 E44.98086
G1 X18.084 Y106.681 E45.01267
G1 X18.736 Y106.169 E45.05127
G1 X19.105 Y105.919 E45.07202
G1 X21.307 Y104.383 E45.19704
G1 X23.428 Y102.812 E45.31994
G1 X25.572 Y101.127 E45.44692
G1 X27.575 Y99.461 E45.56823
G1 X29.611 Y97.665 E45.69465
G1 X31.538 Y95.87 E45.81728
G1 X33.409 Y94.023 E45.9397
G1 X35.267 Y92.082 E46.06481
G1 X37.077 Y90.081 E46.19045
G1 X38.78 Y88.088 E46.31252
G1 X40.472 Y85.989 E46.43806
G1 X42.066 Y83.895 E46.5606
G1 X43.625 Y81.72 E46.68521
G1 X45.123 Y79.502 E46.80984
G1 X46.533 Y77.28 E46.93237
G1 X47.911 Y74.966 E47.05778
G1 X49.203 Y72.653 E47.18115
G1 X50.437 Y70.288 E47.30536
G1 X51.597 Y67.899 E47.42902
G1 X52.702 Y65.453 E47.554
G1 X53.732 Y62.994 E47.67814
G1 X54.678 Y60.528 E47.80113
G1 X55.574 Y57.993 E47.92633
G1 X56.376 Y55.495 E48.04849
G1 X56.877 Y53.776 E48.13187
G1 X57.03 Y53.282 E48.15595
G1 X57.27 Y52.643 E48.18773
G1 X57.583 Y52.035 E48.21957
G1 X57.965 Y51.469 E48.25137
G1 X58.411 Y50.951 E48.2832
M204 S3000
M205 X10 Y10
G0 F3000 X58.903 Y51.249
M204 S1800
M205 X8 Y8
G1 F2400 X59.393 Y50.822 E48.31346
G1 X59.932 Y50.459 E48.34372
G1 X60.511 Y50.165 E48.37396
G1 X61.122 Y49.944 E48.40421
G1 X61.755 Y49.8 E48.43444
G1 X62.445 Y49.733 E48.46672
G1 X62.93 Y49.72 E48.48931
G1 X146.693 Y49.72 E52.38967
G1 X147.469 Y49.731 E52.42581
G1 X148.117 Y49.78 E52.45607
G1 X148.754 Y49.908 E52.48632
G1 X149.37 Y50.114 E52.51657
G1 X149.956 Y50.393 E52.54679
G1 X150.504 Y50.743 E52.57707
G1 X151.004 Y51.157 E52.60729
G1 X151.45 Y51.63 E52.63756
G1 X151.835 Y52.153 E52.6678
G1 X152.152 Y52.72 E52.69805
G1 X152.397 Y53.322 E52.72832
G1 X152.463 Y53.538 E52.73883
G1 X152.716 Y54.404 E52.78084
G1 X153.511 Y56.994 E52.907
G1 X154.375 Y59.548 E53.03254
G1 X155.304 Y62.059 E53.15721
G1 X156.302 Y64.54 E53.28173
G1 X157.363 Y66.974 E53.40537
G1 X158.512 Y69.42 E53.53121
G1 X159.712 Y71.796 E53.65515
G1 X160.997 Y74.176 E53.7811
G1 X162.333 Y76.484 E53.90528
G1 X163.729 Y78.749 E54.02917
G1 X165.213 Y81.012 E54.15518
G1 X166.731 Y83.187 E54.27868
G1 X168.34 Y85.362 E54.40466
G1 X169.98 Y87.453 E54.5284
G1 X171.705 Y89.525 E54.65394
G1 X173.46 Y91.518 E54.7776
G1 X175.306 Y93.497 E54.90361
G1 X177.177 Y95.396 E55.02775
G1 X179.105 Y97.241 E55.15201
G1 X181.111 Y99.057 E55.278
G1 X183.132 Y100.785 E55.40182
G1 X185.211 Y102.464 E55.52625
G1 X187.363 Y104.102 E55.65218
G1 X189.535 Y105.66 E55.77665
G1 X190.161 Y106.083 E55.81183
G1 X191.006 Y106.671 E55.85977
G1 X191.515 Y107.074 E55.89
G1 X191.971 Y107.537 E55.92026
G1 X192.367 Y108.052 E55.95051
G1 X192.696 Y108.612 E55.98075
G1 X192.955 Y109.208 E56.01101
G1 X193.138 Y109.831 E56.04125
G1 X193.243 Y110.472 E56.07149
G1 X193.278 Y111.168 E56.10394
G1 X193.28 Y111.33 E56.11148
G1 X193.279 Y122.39 E56.62648
G1 X193.263 Y123.531 E56.67962
G1 X193.263 Y126.289 E56.80804
G1 X193.278 Y127.003 E56.8413
G1 X193.28 Y127.274 E56.85392
G1 X193.279 Y138.39 E57.37152
G1 X193.263 Y139.531 E57.42466
G1 X193.263 Y142.289 E57.55308
G1 X193.278 Y143.003 E57.58634
G1 X193.28 Y143.274 E57.59896
G1 X193.28 Y154.329 E58.11372
G1 X193.271 Y155.056 E58.14758
G1 X193.223 Y155.704 E58.17783
G1 X193.095 Y156.341 E58.20809
G1 X192.891 Y156.958 E58.23835
G1 X192.612 Y157.545 E58.26861
G1 X192.264 Y158.093 E58.29884
G1 X191.851 Y158.594 E58.32907
G1 X191.379 Y159.041 E58.35934
G1 X190.856 Y159.426 E58.38958
G1 X190.29 Y159.744 E58.41981
G1 X189.688 Y159.991 E58.45011
G1 X189.062 Y160.161 E58.48032
G1 X188.139 Y160.269 E58.52359
G1 X187.67 Y160.28 E58.54543
G1 X117.626 Y160.279 E61.80698
G1 X116.929 Y160.269 E61.83943
G1 X116.342 Y160.235 E61.86681
G1 X116.008 Y160.202 E61.88244
G1 X113.779 Y159.962 E61.98683
G1 X111.144 Y159.753 E62.10992
G1 X108.476 Y159.617 E62.23431
G1 X105.773 Y159.556 E62.3602
G1 X103.1 Y159.572 E62.48467
G1 X100.432 Y159.662 E62.60898
G1 X97.755 Y159.829 E62.73387
G1 X94.143 Y160.174 E62.90283
G1 X93.622 Y160.234 E62.92725
G1 X92.856 Y160.277 E62.96297
G1 X92.674 Y160.28 E62.97145
G1 X22.631 Y160.279 E66.23294
G1 X21.933 Y160.269 E66.26545
G1 X21.286 Y160.22 E66.29566
G1 X20.649 Y160.092 E66.32592
G1 X20.033 Y159.886 E66.35616
G1 X19.446 Y159.606 E66.38644
G1 X18.899 Y159.257 E66.41666
G1 X18.398 Y158.843 E66.44692
G1 X17.953 Y158.37 E66.47716
G1 X17.568 Y157.846 E66.50744
G1 X17.251 Y157.279 E66.53769
G1 X17.006 Y156.678 E66.56791
G1 X16.837 Y156.051 E66.59814
G1 X16.731 Y155.133 E66.64117
G1 X16.72 Y154.658 E66.6633
G1 X16.721 Y143.61 E67.17774
G1 X16.737 Y142.469 E67.23087
G1 X16.737 Y139.711 E67.3593
G1 X16.722 Y138.997 E67.39255
G1 X16.72 Y138.726 E67.40517
G1 X16.721 Y127.61 E67.92278
G1 X16.737 Y126.469 E67.97591
G1 X16.737 Y123.711 E68.10434
G1 X16.722 Y122.997 E68.13759
G1 X16.72 Y122.726 E68.15021
G1 X16.721 Y111.632 E68.6668
G1 X16.731 Y110.93 E68.69949
G1 X16.78 Y110.282 E68.72975
G1 X16.908 Y109.645 E68.76
G1 X17.114 Y109.029 E68.79025
G1 X17.393 Y108.443 E68.82047
G1 X17.743 Y107.895 E68.85074
G1 X18.157 Y107.395 E68.88097
G1 X18.63 Y106.949 E68.91124
G1 X19.05 Y106.633 E68.93572
G1 X19.413 Y106.387 E68.95614
G1 X21.62 Y104.848 E69.08142
G1 X23.794 Y103.237 E69.20742
