;FLAVOR:Marlin
;TIME:1924
;Filament used: 3.21306m
;Layer height: 0.3
;MINX:27.162
;MINY:23.586
;MINZ:0.3
;MAXX:92.768
;MAXY:141.282
;MAXZ:11.974
;Generated with Cura_SteamEngine 4.8.0
M140 S55
M105
M190 S55
M104 S200
M105
M109 S200
M82 ;absolute extrusion mode
; Script based on an original created by tjjfvi (https://github.com/tjjfvi)
; An up-to-date version of the tjjfvi's original script can be found
; here:  https://csi.t6.fyi/
; Note - This script will only work in Cura V4.2 and above!
; --- Global Settings
; layer_height = 0.3
; smooth_spiralized_contours = True
; magic_mesh_surface_mode = normal
; machine_extruder_count = 1
; --- Single Extruder Settings
; speed_z_hop = 10
; retraction_amount = 6
; retraction_hop = 0.075
; retraction_hop_enabled = True
; retraction_enable = True
; retraction_speed = 40
; retraction_retract_speed = 40
; retraction_prime_speed = 40
; speed_travel = 100


G21 ;metric values
G90 ;absolute positioning
M82 ;set extruder to absolute mode
M107 ;start with the fan off
G28 X0 Y0 ;move X/Y to min endstops
G28 Z0 ;move Z to min endstops
G1 Z15.0 F100 ;move the platform down 15mm
G92 E0 ;zero the extruded length
G1 F200 E3 ;extrude 3mm of feed stock
G92 E0 ;zero the extruded length again
G1 F100
G0 Y20 F100
M117 Printing...
G5
G92 E0
G92 E0
G1 F2400 E-6
;LAYER_COUNT:23
;LAYER:0
M106 S255
M204 S3000
M205 X10 Y10
G1 F600 Z0.375
G0 F3000 X28.612 Y25.949 Z0.375
M204 S1800
M205 X8 Y8
;TYPE:SKIRT
G1 F600 Z0.3
G1 F2400 E0
G1 X29.095 Y25.421 E0.04998
G1 X29.633 Y24.95 E0.09992
G1 X30.221 Y24.542 E0.14991
G1 X30.85 Y24.202 E0.19985
G1 X31.514 Y23.935 E0.24984
G1 X32.203 Y23.743 E0.2998
G1 X32.909 Y23.629 E0.34975
G1 X33.713 Y23.589 E0.40597
G1 X33.892 Y23.586 E0.41848
G1 X62.855 Y23.586 E2.44144
G1 X63.645 Y23.597 E2.49662
G1 X64.358 Y23.647 E2.54654
G1 X65.062 Y23.776 E2.59653
G1 X65.746 Y23.984 E2.64647
G1 X66.403 Y24.266 E2.69641
G1 X67.025 Y24.62 E2.74639
G1 X67.603 Y25.041 E2.79634
G1 X68.131 Y25.524 E2.84632
G1 X68.601 Y26.062 E2.89622
G1 X69.009 Y26.65 E2.94621
G1 X69.348 Y27.28 E2.99617
G1 X69.615 Y27.943 E3.0461
G1 X69.806 Y28.633 E3.0961
G1 X69.919 Y29.339 E3.14604
G1 X69.959 Y30.136 E3.20178
G1 X69.962 Y30.316 E3.21435
G1 X69.962 Y59.329 E5.2408
G1 X69.953 Y60.056 E5.29159
G1 X69.904 Y60.77 E5.34157
G1 X69.776 Y61.474 E5.39155
G1 X69.57 Y62.159 E5.44151
G1 X69.289 Y62.816 E5.49142
G1 X68.936 Y63.439 E5.54144
G1 X68.516 Y64.018 E5.5914
G1 X68.034 Y64.546 E5.64133
G1 X67.497 Y65.018 E5.69127
G1 X66.909 Y65.426 E5.74126
G1 X66.28 Y65.767 E5.79123
G1 X65.617 Y66.035 E5.84118
G1 X64.928 Y66.227 E5.89114
G1 X64.222 Y66.342 E5.9411
G1 X63.411 Y66.383 E5.99782
G1 X63.232 Y66.386 E6.01032
G1 X34.186 Y66.385 E8.03907
G1 X33.488 Y66.376 E8.08783
G1 X32.775 Y66.327 E8.13775
G1 X32.071 Y66.199 E8.18773
G1 X31.386 Y65.993 E8.23769
G1 X30.729 Y65.711 E8.28763
G1 X30.107 Y65.358 E8.33758
G1 X29.528 Y64.938 E8.38754
G1 X28.999 Y64.456 E8.43753
G1 X28.528 Y63.918 E8.48747
G1 X28.12 Y63.331 E8.5374
G1 X27.78 Y62.701 E8.5874
G1 X27.512 Y62.038 E8.63735
G1 X27.32 Y61.349 E8.68731
G1 X27.206 Y60.643 E8.73726
G1 X27.164 Y59.817 E8.79503
G1 X27.162 Y59.644 E8.80711
G1 X27.163 Y30.573 E10.83761
G1 X27.172 Y29.908 E10.88406
G1 X27.221 Y29.195 E10.93398
G1 X27.35 Y28.491 E10.98397
G1 X27.557 Y27.807 E11.03389
G1 X27.839 Y27.149 E11.08389
G1 X28.192 Y26.527 E11.13384
G1 X28.612 Y25.949 E11.18375
M204 S3000
M205 X10 Y10
G0 F3000 X29.165 Y26.162
M204 S1800
M205 X8 Y8
G1 F2400 X29.642 Y25.674 E11.23141
G1 X30.174 Y25.245 E11.27914
G1 X30.752 Y24.88 E11.32689
G1 X31.369 Y24.586 E11.37463
G1 X32.015 Y24.366 E11.42229
G1 X32.683 Y24.223 E11.47001
G1 X33.407 Y24.157 E11.52079
G1 X33.892 Y24.146 E11.55467
G1 X62.855 Y24.146 E13.57763
G1 X63.637 Y24.157 E13.63225
G1 X64.318 Y24.206 E13.67994
G1 X64.989 Y24.335 E13.72767
G1 X65.64 Y24.542 E13.77538
G1 X66.263 Y24.823 E13.82312
G1 X66.849 Y25.175 E13.87086
G1 X67.389 Y25.593 E13.91856
G1 X67.877 Y26.071 E13.96627
G1 X68.306 Y26.603 E14.014
G1 X68.67 Y27.181 E14.06171
G1 X68.964 Y27.798 E14.10945
G1 X69.183 Y28.445 E14.15716
G1 X69.326 Y29.113 E14.20488
G1 X69.391 Y29.832 E14.2553
G1 X69.402 Y30.316 E14.28911
G1 X69.402 Y59.322 E16.31508
G1 X69.393 Y60.049 E16.36586
G1 X69.344 Y60.731 E16.41362
G1 X69.216 Y61.402 E16.46133
G1 X69.011 Y62.054 E16.50907
G1 X68.731 Y62.677 E16.55677
G1 X68.381 Y63.263 E16.60445
G1 X67.964 Y63.805 E16.65221
G1 X67.487 Y64.294 E16.69992
G1 X66.956 Y64.723 E16.7476
G1 X66.378 Y65.088 E16.79535
G1 X65.762 Y65.383 E16.84306
G1 X65.115 Y65.604 E16.89081
G1 X64.447 Y65.748 E16.93854
G1 X63.717 Y65.815 E16.98974
G1 X63.232 Y65.826 E17.02363
G1 X34.194 Y65.826 E19.05182
G1 X33.496 Y65.817 E19.10058
G1 X32.814 Y65.768 E19.14834
G1 X32.143 Y65.64 E19.19605
G1 X31.492 Y65.434 E19.24374
G1 X30.868 Y65.154 E19.29151
G1 X30.282 Y64.803 E19.33922
G1 X29.741 Y64.386 E19.38693
G1 X29.252 Y63.908 E19.43469
G1 X28.823 Y63.377 E19.48237
G1 X28.458 Y62.799 E19.53012
G1 X28.164 Y62.183 E19.57779
G1 X27.943 Y61.536 E19.62555
G1 X27.799 Y60.868 E19.67328
G1 X27.733 Y60.135 E19.72468
G1 X27.722 Y59.644 E19.75899
G1 X27.723 Y30.581 E21.78893
G1 X27.732 Y29.916 E21.83538
G1 X27.781 Y29.235 E21.88307
G1 X27.909 Y28.563 E21.93085
G1 X28.115 Y27.912 E21.97854
G1 X28.396 Y27.289 E22.02628
G1 X28.747 Y26.703 E22.07399
G1 X29.165 Y26.162 E22.12174
M204 S3000
M205 X10 Y10
G0 F3000 X29.302 Y26.888
M204 S1800
M205 X8 Y8
G1 F2400 X29.716 Y26.387 E22.16713
G1 X30.188 Y25.941 E22.21249
G1 X30.711 Y25.557 E22.25781
G1 X31.278 Y25.239 E22.30322
G1 X31.879 Y24.993 E22.34857
G1 X32.506 Y24.823 E22.39395
G1 X33.423 Y24.717 E22.45842
G1 X33.892 Y24.706 E22.49119
G1 X62.855 Y24.706 E24.51415
G1 X63.629 Y24.717 E24.56822
G1 X64.276 Y24.766 E24.61354
G1 X64.913 Y24.894 E24.65892
G1 X65.529 Y25.1 E24.70428
G1 X66.116 Y25.38 E24.74971
G1 X66.663 Y25.729 E24.79503
G1 X67.164 Y26.143 E24.84042
G1 X67.609 Y26.616 E24.88578
G1 X67.994 Y27.14 E24.9312
G1 X68.311 Y27.707 E24.97657
G1 X68.556 Y28.308 E25.0219
G1 X68.725 Y28.935 E25.06726
G1 X68.831 Y29.848 E25.13146
G1 X68.842 Y30.316 E25.16416
G1 X68.842 Y59.315 E27.18963
G1 X68.833 Y60.042 E27.24041
G1 X68.785 Y60.69 E27.28579
G1 X68.657 Y61.327 E27.33118
G1 X68.453 Y61.944 E27.37657
G1 X68.174 Y62.531 E27.42196
G1 X67.826 Y63.079 E27.4673
G1 X67.413 Y63.58 E27.51265
G1 X66.941 Y64.027 E27.55806
G1 X66.418 Y64.412 E27.60342
G1 X65.852 Y64.73 E27.64876
G1 X65.25 Y64.977 E27.69421
G1 X64.624 Y65.147 E27.73952
G1 X63.701 Y65.255 E27.80443
G1 X63.232 Y65.266 E27.83719
G1 X34.201 Y65.266 E29.8649
G1 X33.503 Y65.257 E29.91366
G1 X32.855 Y65.208 E29.95905
G1 X32.218 Y65.081 E30.00442
G1 X31.602 Y64.876 E30.04976
G1 X31.015 Y64.597 E30.09516
G1 X30.467 Y64.248 E30.14053
G1 X29.966 Y63.835 E30.18588
G1 X29.519 Y63.363 E30.23129
G1 X29.134 Y62.84 E30.27665
G1 X28.816 Y62.273 E30.32206
G1 X28.57 Y61.672 E30.36741
G1 X28.4 Y61.045 E30.41279
G1 X28.293 Y60.12 E30.47783
G1 X28.282 Y59.644 E30.51108
G1 X28.282 Y30.589 E32.54047
G1 X28.291 Y29.924 E32.58692
G1 X28.34 Y29.276 E32.63231
G1 X28.468 Y28.639 E32.67769
G1 X28.673 Y28.022 E32.7231
G1 X28.953 Y27.436 E32.76846
G1 X29.302 Y26.888 E32.81384
M204 S3000
M205 X10 Y10
G1 F2400 E26.81384
;MESH:infill_Percentage_20.stl
G0 F3000 X32.897 Y30.84
G0 X34.416 Y30.84
G0 X62.162 Y58.586
M204 S1800
M205 X8 Y8
;TYPE:WALL-INNER
G1 F2400 E32.81384
G1 F1800 X34.962 Y58.586 E34.71366
G1 X34.962 Y31.386 E36.61348
G1 X62.162 Y31.386 E38.5133
G1 X62.162 Y58.586 E40.41312
M204 S3000
M205 X10 Y10
G0 F3000 X62.722 Y59.146
M204 S1800
M205 X8 Y8
G1 F1800 X34.402 Y59.146 E42.39117
G1 X34.402 Y30.826 E44.36921
G1 X62.722 Y30.826 E46.34726
G1 X62.722 Y59.146 E48.32531
M204 S3000
M205 X10 Y10
G0 F3000 X63.282 Y59.706
M204 S1800
M205 X8 Y8
;TYPE:WALL-OUTER
G1 F1800 X33.842 Y59.706 E50.38158
G1 X33.842 Y30.266 E52.43785
G1 X63.282 Y30.266 E54.49413
G1 X63.282 Y59.706 E56.5504
M204 S3000
M205 X10 Y10
G0 F3000 X63.082 Y59.706
G0 X62.652 Y59.076
G0 X61.612 Y58.036
M204 S1800
M205 X8 Y8
;TYPE:SKIN
G1 F1800 X35.512 Y58.036 E58.37339
G1 X35.512 Y31.936 E60.19638
G1 X61.612 Y31.936 E62.01937
G1 X61.612 Y58.036 E63.84236
M204 S3000
M205 X10 Y10
G0 F3000 X61.351 Y32.84
M204 S1800
M205 X8 Y8
G1 F1800 X60.706 Y32.195 E63.90607
M204 S3000
M205 X10 Y10
G0 F3000 X59.914 Y32.195
M204 S1800
M205 X8 Y8
G1 F1800 X61.351 Y33.632 E64.04801
M204 S3000
M205 X10 Y10
G0 F3000 X61.351 Y34.424
M204 S1800
M205 X8 Y8
G1 F1800 X59.122 Y32.195 E64.26819
M204 S3000
M205 X10 Y10
G0 F3000 X58.33 Y32.195
M204 S1800
M205 X8 Y8
G1 F1800 X61.351 Y35.216 E64.56659
M204 S3000
M205 X10 Y10
G0 F3000 X61.351 Y36.008
M204 S1800
M205 X8 Y8
G1 F1800 X57.538 Y32.195 E64.94323
M204 S3000
M205 X10 Y10
G0 F3000 X56.746 Y32.195
M204 S1800
M205 X8 Y8
G1 F1800 X61.351 Y36.8 E65.3981
M204 S3000
M205 X10 Y10
G0 F3000 X61.351 Y37.592
M204 S1800
M205 X8 Y8
G1 F1800 X55.954 Y32.195 E65.9312
M204 S3000
M205 X10 Y10
G0 F3000 X55.162 Y32.195
M204 S1800
M205 X8 Y8
G1 F1800 X61.351 Y38.384 E66.54254
M204 S3000
M205 X10 Y10
G0 F3000 X61.351 Y39.176
M204 S1800
M205 X8 Y8
G1 F1800 X54.37 Y32.195 E67.23211
M204 S3000
M205 X10 Y10
G0 F3000 X53.578 Y32.195
M204 S1800
M205 X8 Y8
G1 F1800 X61.351 Y39.968 E67.9999
M204 S3000
M205 X10 Y10
G0 F3000 X61.351 Y40.76
M204 S1800
M205 X8 Y8
G1 F1800 X52.786 Y32.195 E68.84593
M204 S3000
M205 X10 Y10
G0 F3000 X51.994 Y32.195
M204 S1800
M205 X8 Y8
G1 F1800 X61.351 Y41.552 E69.77019
M204 S3000
M205 X10 Y10
G0 F3000 X61.351 Y42.344
M204 S1800
M205 X8 Y8
G1 F1800 X51.203 Y32.195 E70.77264
M204 S3000
M205 X10 Y10
G0 F3000 X50.411 Y32.195
M204 S1800
M205 X8 Y8
G1 F1800 X61.351 Y43.136 E71.85331
M204 S3000
M205 X10 Y10
G0 F3000 X61.351 Y43.928
M204 S1800
M205 X8 Y8
G1 F1800 X49.619 Y32.195 E73.01222
M204 S3000
M205 X10 Y10
G0 F3000 X48.827 Y32.195
M204 S1800
M205 X8 Y8
G1 F1800 X61.351 Y44.72 E74.24936
M204 S3000
M205 X10 Y10
G0 F3000 X61.351 Y45.512
M204 S1800
M205 X8 Y8
G1 F1800 X48.035 Y32.195 E75.56473
M204 S3000
M205 X10 Y10
G0 F3000 X47.243 Y32.195
M204 S1800
M205 X8 Y8
G1 F1800 X61.351 Y46.304 E76.95834
M204 S3000
M205 X10 Y10
G0 F3000 X61.351 Y47.096
M204 S1800
M205 X8 Y8
G1 F1800 X46.451 Y32.195 E78.43017
M204 S3000
M205 X10 Y10
G0 F3000 X45.659 Y32.195
M204 S1800
M205 X8 Y8
G1 F1800 X61.351 Y47.888 E79.98024
M204 S3000
M205 X10 Y10
G0 F3000 X61.351 Y48.68
M204 S1800
M205 X8 Y8
G1 F1800 X44.867 Y32.195 E81.60854
M204 S3000
M205 X10 Y10
G0 F3000 X44.075 Y32.195
M204 S1800
M205 X8 Y8
G1 F1800 X61.351 Y49.472 E83.31507
M204 S3000
M205 X10 Y10
G0 F3000 X61.351 Y50.263
M204 S1800
M205 X8 Y8
G1 F1800 X43.283 Y32.195 E85.09978
M204 S3000
M205 X10 Y10
G0 F3000 X42.491 Y32.195
M204 S1800
M205 X8 Y8
G1 F1800 X61.351 Y51.055 E86.96273
M204 S3000
M205 X10 Y10
G0 F3000 X61.351 Y51.847
M204 S1800
M205 X8 Y8
G1 F1800 X41.699 Y32.195 E88.9039
M204 S3000
M205 X10 Y10
G0 F3000 X40.907 Y32.195
M204 S1800
M205 X8 Y8
G1 F1800 X61.351 Y52.639 E90.92331
M204 S3000
M205 X10 Y10
G0 F3000 X61.351 Y53.431
M204 S1800
M205 X8 Y8
G1 F1800 X40.115 Y32.195 E93.02095
M204 S3000
M205 X10 Y10
G0 F3000 X39.323 Y32.195
M204 S1800
M205 X8 Y8
G1 F1800 X61.351 Y54.223 E95.19682
M204 S3000
M205 X10 Y10
G0 F3000 X61.351 Y55.015
M204 S1800
M205 X8 Y8
G1 F1800 X38.531 Y32.195 E97.45093
M204 S3000
M205 X10 Y10
G0 F3000 X37.739 Y32.195
M204 S1800
M205 X8 Y8
G1 F1800 X61.351 Y55.807 E99.78326
M204 S3000
M205 X10 Y10
G0 F3000 X61.351 Y56.599
M204 S1800
M205 X8 Y8
G1 F1800 X36.947 Y32.195 E102.19383
M204 S3000
M205 X10 Y10
G0 F3000 X36.155 Y32.195
M204 S1800
M205 X8 Y8
G1 F1800 X61.351 Y57.391 E104.68263
M204 S3000
M205 X10 Y10
G0 F3000 X60.943 Y57.775
M204 S1800
M205 X8 Y8
G1 F1800 X35.771 Y32.603 E107.16906
M204 S3000
M205 X10 Y10
G0 F3000 X35.771 Y33.395
M204 S1800
M205 X8 Y8
G1 F1800 X60.151 Y57.775 E109.57726
M204 S3000
M205 X10 Y10
G0 F3000 X59.359 Y57.775
M204 S1800
M205 X8 Y8
G1 F1800 X35.771 Y34.187 E111.90722
M204 S3000
M205 X10 Y10
G0 F3000 X35.771 Y34.979
M204 S1800
M205 X8 Y8
G1 F1800 X58.567 Y57.775 E114.15895
M204 S3000
M205 X10 Y10
G0 F3000 X57.775 Y57.775
M204 S1800
M205 X8 Y8
G1 F1800 X35.771 Y35.771 E116.33246
M204 S3000
M205 X10 Y10
G0 F3000 X35.771 Y36.563
M204 S1800
M205 X8 Y8
G1 F1800 X56.983 Y57.775 E118.42773
M204 S3000
M205 X10 Y10
G0 F3000 X56.191 Y57.775
M204 S1800
M205 X8 Y8
G1 F1800 X35.771 Y37.355 E120.44476
M204 S3000
M205 X10 Y10
G0 F3000 X35.771 Y38.146
M204 S1800
M205 X8 Y8
G1 F1800 X55.399 Y57.775 E122.38362
M204 S3000
M205 X10 Y10
G0 F3000 X54.607 Y57.775
M204 S1800
M205 X8 Y8
G1 F1800 X35.771 Y38.938 E124.24424
M204 S3000
M205 X10 Y10
G0 F3000 X35.771 Y39.73
M204 S1800
M205 X8 Y8
G1 F1800 X53.815 Y57.775 E126.02663
M204 S3000
M205 X10 Y10
G0 F3000 X53.023 Y57.775
M204 S1800
M205 X8 Y8
G1 F1800 X35.771 Y40.522 E127.73079
M204 S3000
M205 X10 Y10
G0 F3000 X35.771 Y41.314
M204 S1800
M205 X8 Y8
G1 F1800 X52.231 Y57.775 E129.35672
M204 S3000
M205 X10 Y10
G0 F3000 X51.439 Y57.775
M204 S1800
M205 X8 Y8
G1 F1800 X35.771 Y42.106 E130.90442
M204 S3000
M205 X10 Y10
G0 F3000 X35.771 Y42.898
M204 S1800
M205 X8 Y8
G1 F1800 X50.647 Y57.775 E132.37388
M204 S3000
M205 X10 Y10
G0 F3000 X49.855 Y57.775
M204 S1800
M205 X8 Y8
G1 F1800 X35.771 Y43.69 E133.76511
M204 S3000
M205 X10 Y10
G0 F3000 X35.771 Y44.482
M204 S1800
M205 X8 Y8
G1 F1800 X49.064 Y57.775 E135.07816
M204 S3000
M205 X10 Y10
G0 F3000 X48.272 Y57.775
M204 S1800
M205 X8 Y8
G1 F1800 X35.771 Y45.274 E136.31298
M204 S3000
M205 X10 Y10
G0 F3000 X35.771 Y46.066
M204 S1800
M205 X8 Y8
G1 F1800 X47.48 Y57.775 E137.46957
M204 S3000
M205 X10 Y10
G0 F3000 X46.688 Y57.775
M204 S1800
M205 X8 Y8
G1 F1800 X35.771 Y46.858 E138.54792
M204 S3000
M205 X10 Y10
G0 F3000 X35.771 Y47.65
M204 S1800
M205 X8 Y8
G1 F1800 X45.896 Y57.775 E139.54805
M204 S3000
M205 X10 Y10
G0 F3000 X45.104 Y57.775
M204 S1800
M205 X8 Y8
G1 F1800 X35.771 Y48.442 E140.46994
M204 S3000
M205 X10 Y10
G0 F3000 X35.771 Y49.234
M204 S1800
M205 X8 Y8
G1 F1800 X44.312 Y57.775 E141.3136
M204 S3000
M205 X10 Y10
G0 F3000 X43.52 Y57.775
M204 S1800
M205 X8 Y8
G1 F1800 X35.771 Y50.026 E142.07902
M204 S3000
M205 X10 Y10
G0 F3000 X35.771 Y50.818
M204 S1800
M205 X8 Y8
G1 F1800 X42.728 Y57.775 E142.76622
M204 S3000
M205 X10 Y10
G0 F3000 X41.936 Y57.775
M204 S1800
M205 X8 Y8
G1 F1800 X35.771 Y51.61 E143.37518
M204 S3000
M205 X10 Y10
G0 F3000 X35.771 Y52.402
M204 S1800
M205 X8 Y8
G1 F1800 X41.144 Y57.775 E143.90592
M204 S3000
M205 X10 Y10
G0 F3000 X40.352 Y57.775
M204 S1800
M205 X8 Y8
G1 F1800 X35.771 Y53.194 E144.35842
M204 S3000
M205 X10 Y10
G0 F3000 X35.771 Y53.986
M204 S1800
M205 X8 Y8
G1 F1800 X39.56 Y57.775 E144.73268
M204 S3000
M205 X10 Y10
G0 F3000 X38.768 Y57.775
M204 S1800
M205 X8 Y8
G1 F1800 X35.771 Y54.778 E145.02872
M204 S3000
M205 X10 Y10
G0 F3000 X35.771 Y55.57
M204 S1800
M205 X8 Y8
G1 F1800 X37.976 Y57.775 E145.24652
M204 S3000
M205 X10 Y10
G0 F3000 X37.184 Y57.775
M204 S1800
M205 X8 Y8
G1 F1800 X35.771 Y56.362 E145.3861
M204 S3000
M205 X10 Y10
G0 F3000 X35.771 Y57.154
M204 S1800
M205 X8 Y8
G1 F1800 X36.392 Y57.775 E145.44744
M204 S3000
M205 X10 Y10
;MESH:NONMESH
G0 F600 X36.392 Y57.775 Z0.6
G0 F3000 X62.562 Y58.986
;TIME_ELAPSED:72.998338
;LAYER:1
M204 S1800
M205 X8 Y8
;TYPE:WALL-INNER
;MESH:infill_Percentage_20.stl
G1 F2700 X34.562 Y58.986 E146.84436
G1 X34.562 Y30.986 E148.24129
G1 X62.562 Y30.986 E149.63822
G1 X62.562 Y58.986 E151.03514
M204 S3000
M205 X10 Y10
G0 F4500 X62.962 Y59.386
M204 S1800
M205 X8 Y8
G1 F2700 X34.162 Y59.386 E152.47198
