;FLAVOR:Marlin
;TIME:1702
;Filament used: 1.43207m
;Layer height: 0.2
;MINX:83.6
;MINY:83.599
;MINZ:0.2
;MAXX:126.4
;MAXY:126.399
;MAXZ:6.875
;Generated with Cura_SteamEngine 4.8.0
M140 S55
M105
M190 S55
M104 S200
M105
M109 S200
M82 ;absolute extrusion mode
; Script based on an original created by tjjfvi (https://github.com/tjjfvi)
; An up-to-date version of the tjjfvi's original script can be found
; here:  https://csi.t6.fyi/
; Note - This script will only work in Cura V4.2 and above!
; --- Global Settings
; layer_height = 0.2
; smooth_spiralized_contours = True
; magic_mesh_surface_mode = normal
; machine_extruder_count = 1
; --- Single Extruder Settings
; speed_z_hop = 10
; retraction_amount = 6
; retraction_hop = 0.075
; retraction_hop_enabled = True
; retraction_enable = True
; retraction_speed = 40
; retraction_retract_speed = 40
; retraction_prime_speed = 40
; speed_travel = 100


G21 ;metric values
G90 ;absolute positioning
M82 ;set extruder to absolute mode
M107 ;start with the fan off
G28 X0 Y0 ;move X/Y to min endstops
G28 Z0 ;move Z to min endstops
G1 Z15.0 F100 ;move the platform down 15mm
G92 E0 ;zero the extruded length
G1 F200 E3 ;extrude 3mm of feed stock
G92 E0 ;zero the extruded length again
G1 F100
G0 Y20 F100
M117 Printing...
G5
G92 E0
G92 E0
G1 F2400 E-6
;LAYER_COUNT:34
;LAYER:0
M106 S255
M204 S3000
M205 X10 Y10
G1 F600 Z0.275
G0 F3000 X85.533 Y85.434 Z0.275
M204 S1800
M205 X8 Y8
;TYPE:SKIRT
G1 F600 Z0.2
G1 F2400 E0
G1 X86.071 Y84.963 E0.0333
G1 X86.659 Y84.555 E0.06662
G1 X87.288 Y84.215 E0.09991
G1 X87.952 Y83.948 E0.13324
G1 X88.641 Y83.756 E0.16654
G1 X89.347 Y83.642 E0.19984
G1 X90.151 Y83.602 E0.23733
G1 X90.33 Y83.599 E0.24566
G1 X119.293 Y83.599 E1.5943
G1 X120.083 Y83.61 E1.63109
G1 X120.796 Y83.66 E1.66437
G1 X121.5 Y83.789 E1.6977
G1 X122.184 Y83.997 E1.73099
G1 X122.841 Y84.279 E1.76428
G1 X123.463 Y84.633 E1.79761
G1 X124.041 Y85.054 E1.8309
G1 X124.569 Y85.537 E1.86423
G1 X125.039 Y86.075 E1.89749
G1 X125.447 Y86.663 E1.93082
G1 X125.786 Y87.293 E1.96413
G1 X126.053 Y87.956 E1.99741
G1 X126.244 Y88.646 E2.03075
G1 X126.357 Y89.352 E2.06404
G1 X126.397 Y90.149 E2.1012
G1 X126.4 Y90.329 E2.10958
G1 X126.4 Y119.342 E3.46055
G1 X126.391 Y120.069 E3.4944
G1 X126.342 Y120.783 E3.52773
G1 X126.214 Y121.487 E3.56105
G1 X126.008 Y122.172 E3.59435
G1 X125.727 Y122.829 E3.62763
G1 X125.374 Y123.452 E3.66097
G1 X124.954 Y124.031 E3.69428
G1 X124.472 Y124.559 E3.72757
G1 X123.935 Y125.031 E3.76086
G1 X123.347 Y125.439 E3.79418
G1 X122.718 Y125.78 E3.8275
G1 X122.055 Y126.048 E3.8608
G1 X121.366 Y126.24 E3.8941
G1 X120.66 Y126.355 E3.92741
G1 X119.849 Y126.396 E3.96522
G1 X119.67 Y126.399 E3.97356
G1 X90.624 Y126.398 E5.32606
G1 X89.926 Y126.389 E5.35857
G1 X89.213 Y126.34 E5.39185
G1 X88.509 Y126.212 E5.42516
G1 X87.824 Y126.006 E5.45847
G1 X87.167 Y125.724 E5.49176
G1 X86.545 Y125.371 E5.52507
G1 X85.966 Y124.951 E5.55837
G1 X85.437 Y124.469 E5.5917
G1 X84.966 Y123.931 E5.62499
G1 X84.558 Y123.344 E5.65828
G1 X84.218 Y122.714 E5.69161
G1 X83.95 Y122.051 E5.72491
G1 X83.758 Y121.362 E5.75822
G1 X83.644 Y120.656 E5.79152
G1 X83.602 Y119.83 E5.83003
G1 X83.6 Y119.657 E5.83809
G1 X83.601 Y90.586 E7.19175
G1 X83.61 Y89.921 E7.22272
G1 X83.659 Y89.208 E7.256
G1 X83.788 Y88.504 E7.28933
G1 X83.995 Y87.82 E7.3226
G1 X84.277 Y87.162 E7.35594
G1 X84.63 Y86.54 E7.38924
G1 X85.05 Y85.962 E7.42251
G1 X85.533 Y85.434 E7.45583
M204 S3000
M205 X10 Y10
G0 F3000 X86.08 Y85.687
M204 S1800
M205 X8 Y8
G1 F2400 X86.612 Y85.258 E7.48765
G1 X87.19 Y84.893 E7.51948
G1 X87.807 Y84.599 E7.55131
G1 X88.453 Y84.379 E7.58309
G1 X89.121 Y84.236 E7.6149
G1 X89.845 Y84.17 E7.64875
G1 X90.33 Y84.159 E7.67134
G1 X119.293 Y84.159 E9.01998
G1 X120.075 Y84.17 E9.05639
G1 X120.756 Y84.219 E9.08819
G1 X121.427 Y84.348 E9.12
G1 X122.078 Y84.555 E9.15181
G1 X122.701 Y84.836 E9.18363
G1 X123.287 Y85.188 E9.21547
G1 X123.827 Y85.606 E9.24726
G1 X124.315 Y86.084 E9.27907
G1 X124.744 Y86.616 E9.31089
G1 X125.108 Y87.194 E9.3427
G1 X125.402 Y87.811 E9.37453
G1 X125.621 Y88.458 E9.40633
G1 X125.764 Y89.126 E9.43814
G1 X125.829 Y89.845 E9.47176
G1 X125.84 Y90.329 E9.4943
G1 X125.84 Y119.335 E10.84494
G1 X125.831 Y120.062 E10.8788
G1 X125.782 Y120.744 E10.91063
G1 X125.654 Y121.415 E10.94244
G1 X125.449 Y122.067 E10.97427
G1 X125.169 Y122.69 E11.00607
G1 X124.819 Y123.276 E11.03786
G1 X124.402 Y123.818 E11.0697
G1 X123.925 Y124.307 E11.10151
G1 X123.394 Y124.736 E11.13329
G1 X122.816 Y125.101 E11.16513
G1 X122.2 Y125.396 E11.19693
G1 X121.553 Y125.617 E11.22876
G1 X120.885 Y125.761 E11.26058
G1 X120.155 Y125.828 E11.29472
G1 X119.67 Y125.839 E11.31731
G1 X90.632 Y125.839 E12.66944
G1 X89.934 Y125.83 E12.70194
G1 X89.252 Y125.781 E12.73378
G1 X88.581 Y125.653 E12.76559
G1 X87.93 Y125.447 E12.79739
G1 X87.306 Y125.167 E12.82923
G1 X86.72 Y124.816 E12.86104
G1 X86.179 Y124.399 E12.89285
G1 X85.69 Y123.921 E12.92469
G1 X85.261 Y123.39 E12.95647
G1 X84.896 Y122.812 E12.9883
G1 X84.602 Y122.196 E13.02009
G1 X84.381 Y121.549 E13.05192
G1 X84.237 Y120.881 E13.08374
G1 X84.171 Y120.148 E13.11801
G1 X84.16 Y119.657 E13.14088
G1 X84.161 Y90.594 E14.49418
G1 X84.17 Y89.929 E14.52514
G1 X84.219 Y89.248 E14.55694
G1 X84.347 Y88.576 E14.58879
G1 X84.553 Y87.925 E14.62059
G1 X84.834 Y87.302 E14.65241
G1 X85.185 Y86.716 E14.68422
G1 X85.603 Y86.175 E14.71605
G1 X86.08 Y85.687 E14.74783
M204 S3000
M205 X10 Y10
G0 F3000 X86.154 Y86.4
M204 S1800
M205 X8 Y8
G1 F2400 X86.626 Y85.954 E14.77806
G1 X87.149 Y85.57 E14.80828
G1 X87.716 Y85.252 E14.83855
G1 X88.317 Y85.006 E14.86879
G1 X88.944 Y84.836 E14.89904
G1 X89.861 Y84.73 E14.94202
G1 X90.33 Y84.719 E14.96386
G1 X119.293 Y84.719 E16.3125
G1 X120.067 Y84.73 E16.34855
G1 X120.714 Y84.779 E16.37876
G1 X121.351 Y84.907 E16.40901
G1 X121.967 Y85.113 E16.43926
G1 X122.554 Y85.393 E16.46954
G1 X123.101 Y85.742 E16.49976
G1 X123.602 Y86.156 E16.53002
G1 X124.047 Y86.629 E16.56026
G1 X124.432 Y87.153 E16.59054
G1 X124.749 Y87.72 E16.62079
G1 X124.994 Y88.321 E16.65101
G1 X125.163 Y88.948 E16.68124
G1 X125.269 Y89.861 E16.72404
G1 X125.28 Y90.329 E16.74584
G1 X125.28 Y119.328 E18.09616
G1 X125.271 Y120.055 E18.13001
G1 X125.223 Y120.703 E18.16027
G1 X125.095 Y121.34 E18.19052
G1 X124.891 Y121.957 E18.22078
G1 X124.612 Y122.544 E18.25104
G1 X124.264 Y123.092 E18.28127
G1 X123.851 Y123.593 E18.31151
G1 X123.379 Y124.04 E18.34178
G1 X122.856 Y124.425 E18.37202
G1 X122.29 Y124.743 E18.40225
G1 X121.688 Y124.99 E18.43254
G1 X121.062 Y125.16 E18.46275
G1 X120.139 Y125.268 E18.50602
G1 X119.67 Y125.279 E18.52787
G1 X90.639 Y125.279 E19.87967
G1 X89.941 Y125.27 E19.91218
G1 X89.293 Y125.221 E19.94244
G1 X88.656 Y125.094 E19.97268
G1 X88.04 Y124.889 E20.00291
G1 X87.453 Y124.61 E20.03317
G1 X86.905 Y124.261 E20.06343
G1 X86.404 Y123.848 E20.09366
G1 X85.957 Y123.376 E20.12393
G1 X85.572 Y122.853 E20.15417
G1 X85.254 Y122.286 E20.18444
G1 X85.008 Y121.685 E20.21468
G1 X84.838 Y121.058 E20.24493
G1 X84.731 Y120.133 E20.28829
G1 X84.72 Y119.657 E20.31046
G1 X84.72 Y90.602 E21.66338
G1 X84.729 Y89.937 E21.69435
G1 X84.778 Y89.289 E21.72461
G1 X84.906 Y88.652 E21.75486
G1 X85.111 Y88.035 E21.78514
G1 X85.391 Y87.449 E21.81538
G1 X85.74 Y86.901 E21.84563
G1 X86.154 Y86.4 E21.8759
M204 S3000
M205 X10 Y10
G1 F2400 E15.8759
;MESH:infill_Percentage_5.stl
G0 F3000 X89.335 Y90.853
G0 X90.854 Y90.853
G0 X118.6 Y118.599
M204 S1800
M205 X8 Y8
;TYPE:WALL-INNER
G1 F2400 E21.8759
G1 F1500 X91.4 Y118.599 E23.14244
G1 X91.4 Y91.399 E24.40899
G1 X118.6 Y91.399 E25.67553
G1 X118.6 Y118.599 E26.94208
M204 S3000
M205 X10 Y10
G0 F3000 X119.16 Y119.159
M204 S1800
M205 X8 Y8
G1 F1500 X90.84 Y119.159 E28.26078
G1 X90.84 Y90.839 E29.57947
G1 X119.16 Y90.839 E30.89817
G1 X119.16 Y119.159 E32.21687
M204 S3000
M205 X10 Y10
G0 F3000 X119.72 Y119.719
M204 S1800
M205 X8 Y8
;TYPE:WALL-OUTER
G1 F1500 X90.28 Y119.719 E33.58772
G1 X90.28 Y90.279 E34.95857
G1 X119.72 Y90.279 E36.32942
G1 X119.72 Y119.719 E37.70027
M204 S3000
M205 X10 Y10
G0 F3000 X119.52 Y119.719
G0 X119.09 Y119.089
G0 X118.05 Y118.049
M204 S1800
M205 X8 Y8
;TYPE:SKIN
G1 F1500 X91.95 Y118.049 E38.91559
G1 X91.95 Y91.949 E40.13092
G1 X118.05 Y91.949 E41.34625
G1 X118.05 Y118.049 E42.56157
M204 S3000
M205 X10 Y10
G0 F3000 X117.789 Y92.446
M204 S1800
M205 X8 Y8
G1 F1500 X117.551 Y92.208 E42.57724
M204 S3000
M205 X10 Y10
G0 F3000 X116.759 Y92.208
M204 S1800
M205 X8 Y8
G1 F1500 X117.789 Y93.238 E42.64507
M204 S3000
M205 X10 Y10
G0 F3000 X117.789 Y94.03
M204 S1800
M205 X8 Y8
G1 F1500 X115.967 Y92.208 E42.76505
M204 S3000
M205 X10 Y10
G0 F3000 X115.175 Y92.208
M204 S1800
M205 X8 Y8
G1 F1500 X117.789 Y94.822 E42.93719
M204 S3000
M205 X10 Y10
G0 F3000 X117.789 Y95.614
M204 S1800
M205 X8 Y8
G1 F1500 X114.383 Y92.208 E43.16148
M204 S3000
M205 X10 Y10
G0 F3000 X113.591 Y92.208
M204 S1800
M205 X8 Y8
G1 F1500 X117.789 Y96.406 E43.43793
M204 S3000
M205 X10 Y10
G0 F3000 X117.789 Y97.198
M204 S1800
M205 X8 Y8
G1 F1500 X112.799 Y92.208 E43.76653
M204 S3000
M205 X10 Y10
G0 F3000 X112.007 Y92.208
M204 S1800
M205 X8 Y8
G1 F1500 X117.789 Y97.99 E44.14728
M204 S3000
M205 X10 Y10
G0 F3000 X117.789 Y98.782
M204 S1800
M205 X8 Y8
G1 F1500 X111.215 Y92.208 E44.58019
M204 S3000
M205 X10 Y10
G0 F3000 X110.423 Y92.208
M204 S1800
M205 X8 Y8
G1 F1500 X117.789 Y99.574 E45.06525
M204 S3000
M205 X10 Y10
G0 F3000 X117.789 Y100.366
M204 S1800
M205 X8 Y8
G1 F1500 X109.631 Y92.208 E45.60247
M204 S3000
M205 X10 Y10
G0 F3000 X108.839 Y92.208
M204 S1800
M205 X8 Y8
G1 F1500 X117.789 Y101.157 E46.19181
M204 S3000
M205 X10 Y10
G0 F3000 X117.789 Y101.949
M204 S1800
M205 X8 Y8
G1 F1500 X108.048 Y92.208 E46.83327
M204 S3000
M205 X10 Y10
G0 F3000 X107.256 Y92.208
M204 S1800
M205 X8 Y8
G1 F1500 X117.789 Y102.741 E47.52689
M204 S3000
M205 X10 Y10
G0 F3000 X117.789 Y103.533
M204 S1800
M205 X8 Y8
G1 F1500 X106.464 Y92.208 E48.27266
M204 S3000
M205 X10 Y10
G0 F3000 X105.672 Y92.208
M204 S1800
M205 X8 Y8
G1 F1500 X117.789 Y104.325 E49.07058
M204 S3000
M205 X10 Y10
G0 F3000 X117.789 Y105.117
M204 S1800
M205 X8 Y8
G1 F1500 X104.88 Y92.208 E49.92066
M204 S3000
M205 X10 Y10
G0 F3000 X104.088 Y92.208
M204 S1800
M205 X8 Y8
G1 F1500 X117.789 Y105.909 E50.8229
M204 S3000
M205 X10 Y10
G0 F3000 X117.789 Y106.701
M204 S1800
M205 X8 Y8
G1 F1500 X103.296 Y92.208 E51.77729
M204 S3000
M205 X10 Y10
G0 F3000 X102.504 Y92.208
M204 S1800
M205 X8 Y8
G1 F1500 X117.789 Y107.493 E52.78383
M204 S3000
M205 X10 Y10
G0 F3000 X117.789 Y108.285
M204 S1800
M205 X8 Y8
G1 F1500 X101.712 Y92.208 E53.84253
M204 S3000
M205 X10 Y10
G0 F3000 X100.92 Y92.208
M204 S1800
M205 X8 Y8
G1 F1500 X117.789 Y109.077 E54.95338
M204 S3000
M205 X10 Y10
G0 F3000 X117.789 Y109.869
M204 S1800
M205 X8 Y8
G1 F1500 X100.128 Y92.208 E56.11639
M204 S3000
M205 X10 Y10
G0 F3000 X99.336 Y92.208
M204 S1800
M205 X8 Y8
G1 F1500 X117.789 Y110.661 E57.33155
M204 S3000
M205 X10 Y10
G0 F3000 X117.789 Y111.453
M204 S1800
M205 X8 Y8
G1 F1500 X98.544 Y92.208 E58.59886
M204 S3000
M205 X10 Y10
G0 F3000 X97.752 Y92.208
M204 S1800
M205 X8 Y8
G1 F1500 X117.789 Y112.245 E59.91834
M204 S3000
M205 X10 Y10
G0 F3000 X117.789 Y113.037
M204 S1800
M205 X8 Y8
G1 F1500 X96.96 Y92.208 E61.28996
M204 S3000
M205 X10 Y10
G0 F3000 X96.168 Y92.208
M204 S1800
M205 X8 Y8
G1 F1500 X117.789 Y113.829 E62.71374
M204 S3000
M205 X10 Y10
G0 F3000 X117.789 Y114.621
M204 S1800
M205 X8 Y8
G1 F1500 X95.376 Y92.208 E64.18967
M204 S3000
M205 X10 Y10
G0 F3000 X94.584 Y92.208
M204 S1800
M205 X8 Y8
G1 F1500 X117.789 Y115.413 E65.71776
M204 S3000
M205 X10 Y10
G0 F3000 X117.789 Y116.205
M204 S1800
M205 X8 Y8
G1 F1500 X93.792 Y92.208 E67.29801
M204 S3000
M205 X10 Y10
G0 F3000 X93 Y92.208
M204 S1800
M205 X8 Y8
G1 F1500 X117.789 Y116.997 E68.93041
M204 S3000
M205 X10 Y10
G0 F3000 X117.789 Y117.789
M204 S1800
M205 X8 Y8
G1 F1500 X92.208 Y92.208 E70.61496
M204 S3000
M205 X10 Y10
G0 F3000 X92.208 Y93
M204 S1800
M205 X8 Y8
G1 F1500 X116.996 Y117.788 E72.24729
M204 S3000
M205 X10 Y10
G0 F3000 X116.204 Y117.788
M204 S1800
M205 X8 Y8
G1 F1500 X92.208 Y93.792 E73.82747
M204 S3000
M205 X10 Y10
G0 F3000 X92.208 Y94.584
M204 S1800
M205 X8 Y8
G1 F1500 X115.412 Y117.788 E75.35549
M204 S3000
M205 X10 Y10
G0 F3000 X114.62 Y117.788
M204 S1800
M205 X8 Y8
G1 F1500 X92.208 Y95.376 E76.83136
M204 S3000
M205 X10 Y10
G0 F3000 X92.208 Y96.168
M204 S1800
M205 X8 Y8
G1 F1500 X113.828 Y117.788 E78.25507
M204 S3000
M205 X10 Y10
G0 F3000 X113.036 Y117.788
M204 S1800
M205 X8 Y8
G1 F1500 X92.208 Y96.96 E79.62663
M204 S3000
M205 X10 Y10
G0 F3000 X92.208 Y97.752
M204 S1800
M205 X8 Y8
G1 F1500 X112.244 Y117.788 E80.94604
M204 S3000
M205 X10 Y10
G0 F3000 X111.452 Y117.788
M204 S1800
M205 X8 Y8
G1 F1500 X92.208 Y98.544 E82.21329
M204 S3000
M205 X10 Y10
G0 F3000 X92.208 Y99.336
M204 S1800
M205 X8 Y8
G1 F1500 X110.66 Y117.788 E83.42838
M204 S3000
M205 X10 Y10
G0 F3000 X109.868 Y117.788
M204 S1800
M205 X8 Y8
G1 F1500 X92.208 Y100.128 E84.59132
M204 S3000
M205 X10 Y10
G0 F3000 X92.208 Y100.92
M204 S1800
M205 X8 Y8
G1 F1500 X109.076 Y117.788 E85.70211
M204 S3000
M205 X10 Y10
G0 F3000 X108.284 Y117.788
M204 S1800
M205 X8 Y8
G1 F1500 X92.208 Y101.712 E86.76074
M204 S3000
M205 X10 Y10
G0 F3000 X92.208 Y102.504
M204 S1800
M205 X8 Y8
G1 F1500 X107.492 Y117.788 E87.76722
M204 S3000
M205 X10 Y10
G0 F3000 X106.7 Y117.788
M204 S1800
M205 X8 Y8
G1 F1500 X92.208 Y103.296 E88.72154
M204 S3000
M205 X10 Y10
G0 F3000 X92.208 Y104.088
M204 S1800
M205 X8 Y8
G1 F1500 X105.909 Y117.788 E89.62374
M204 S3000
M205 X10 Y10
G0 F3000 X105.117 Y117.788
M204 S1800
M205 X8 Y8
G1 F1500 X92.208 Y104.88 E90.47379
M204 S3000
M205 X10 Y10
G0 F3000 X92.208 Y105.672
M204 S1800
M205 X8 Y8
G1 F1500 X104.325 Y117.788 E91.27168
M204 S3000
M205 X10 Y10
G0 F3000 X103.533 Y117.788
M204 S1800
M205 X8 Y8
G1 F1500 X92.208 Y106.464 E92.01742
M204 S3000
M205 X10 Y10
G0 F3000 X92.208 Y107.256
M204 S1800
M205 X8 Y8
G1 F1500 X102.741 Y117.788 E92.711
M204 S3000
M205 X10 Y10
G0 F3000 X101.949 Y117.788
M204 S1800
M205 X8 Y8
G1 F1500 X92.208 Y108.048 E93.35243
M204 S3000
M205 X10 Y10
G0 F3000 X92.208 Y108.839
M204 S1800
M205 X8 Y8
G1 F1500 X101.157 Y117.788 E93.94174
M204 S3000
M205 X10 Y10
G0 F3000 X100.365 Y117.788
M204 S1800
M205 X8 Y8
G1 F1500 X92.208 Y109.631 E94.47889
M204 S3000
M205 X10 Y10
G0 F3000 X92.208 Y110.423
M204 S1800
M205 X8 Y8
G1 F1500 X99.573 Y117.788 E94.96389
M204 S3000
M205 X10 Y10
G0 F3000 X98.781 Y117.788
M204 S1800
M205 X8 Y8
G1 F1500 X92.208 Y111.215 E95.39673
M204 S3000
M205 X10 Y10
G0 F3000 X92.208 Y112.007
M204 S1800
M205 X8 Y8
G1 F1500 X97.989 Y117.788 E95.77742
M204 S3000
M205 X10 Y10
G0 F3000 X97.197 Y117.788
M204 S1800
M205 X8 Y8
G1 F1500 X92.208 Y112.799 E96.10596
M204 S3000
M205 X10 Y10
G0 F3000 X92.208 Y113.591
M204 S1800
M205 X8 Y8
G1 F1500 X96.405 Y117.788 E96.38234
M204 S3000
M205 X10 Y10
G0 F3000 X95.613 Y117.788
M204 S1800
M205 X8 Y8
G1 F1500 X92.208 Y114.383 E96.60656
M204 S3000
M205 X10 Y10
G0 F3000 X92.208 Y115.175
M204 S1800
M205 X8 Y8
G1 F1500 X94.821 Y117.788 E96.77863
M204 S3000
M205 X10 Y10
G0 F3000 X94.029 Y117.788
M204 S1800
M205 X8 Y8
G1 F1500 X92.208 Y115.967 E96.89855
M204 S3000
M205 X10 Y10
G0 F3000 X92.208 Y116.759
M204 S1800
M205 X8 Y8
G1 F1500 X93.237 Y117.788 E96.96631
M204 S3000
M205 X10 Y10
G0 F3000 X92.445 Y117.788
M204 S1800
M205 X8 Y8
G1 F1500 X92.208 Y117.551 E96.98192
M204 S3000
M205 X10 Y10
;MESH:NONMESH
G0 F600 X92.208 Y117.551 Z0.4
G0 F3000 X119 Y118.999
