;FLAVOR:Marlin
;TIME:2743
;Filament used: 1.01909m
;Layer height: 0.1
;MINX:88.284
;MINY:97.534
;MINZ:0.1
;MAXX:121.716
;MAXY:112.467
;MAXZ:28.5
;Generated with Cura_SteamEngine 4.8.0
M140 S55
M105
M190 S55
M104 S200
M105
M109 S200
M82 ;absolute extrusion mode
; Script based on an original created by tjjfvi (https://github.com/tjjfvi)
; An up-to-date version of the tjjfvi's original script can be found
; here:  https://csi.t6.fyi/
; Note - This script will only work in Cura V4.2 and above!
; --- Global Settings
; layer_height = 0.1
; smooth_spiralized_contours = True
; magic_mesh_surface_mode = normal
; machine_extruder_count = 1
; --- Single Extruder Settings
; speed_z_hop = 10
; retraction_amount = 6
; retraction_hop = 0.075
; retraction_hop_enabled = True
; retraction_enable = True
; retraction_speed = 40
; retraction_retract_speed = 40
; retraction_prime_speed = 40
; speed_travel = 50


G21 ;metric values
G90 ;absolute positioning
M82 ;set extruder to absolute mode
M107 ;start with the fan off
G28 X0 Y0 ;move X/Y to min endstops
G28 Z0 ;move Z to min endstops
G1 Z15.0 F50 ;move the platform down 15mm
G92 E0 ;zero the extruded length
G1 F200 E3 ;extrude 3mm of feed stock
G92 E0 ;zero the extruded length again
G1 F50
G0 Y20 F50
M117 Printing...
G5
G92 E0
G92 E0
G1 F2400 E-6
;LAYER_COUNT:285
;LAYER:0
M106 S255
M204 S3000
M205 X10 Y10
G1 F600 Z0.175
G0 F1500 X90.633 Y99.443 Z0.175
M204 S1800
M205 X8 Y8
;TYPE:SKIRT
G1 F600 Z0.1
G1 F2400 E0
G1 X91.203 Y98.962 E0.01736
G1 X91.821 Y98.545 E0.03472
G1 X92.481 Y98.196 E0.0521
G1 X93.174 Y97.919 E0.06948
G1 X93.892 Y97.719 E0.08683
G1 X94.628 Y97.596 E0.10421
G1 X95.277 Y97.554 E0.11935
G1 X96.368 Y97.536 E0.14475
G1 X98.045 Y97.541 E0.1838
G1 X98.712 Y97.552 E0.19933
G1 X98.909 Y97.558 E0.20392
G1 X99.949 Y97.605 E0.22815
G1 X100.77 Y97.654 E0.2473
G1 X103.407 Y97.736 E0.30873
G1 X106.013 Y97.744 E0.3694
G1 X108.633 Y97.676 E0.43042
G1 X109.571 Y97.62 E0.4523
G1 X109.915 Y97.618 E0.46031
G1 X110.956 Y97.566 E0.48457
G1 X111.166 Y97.558 E0.48947
G1 X112.19 Y97.539 E0.51331
G1 X113.962 Y97.534 E0.55457
G1 X114.667 Y97.542 E0.57098
G1 X115.411 Y97.591 E0.58834
G1 X116.146 Y97.719 E0.60571
G1 X116.863 Y97.924 E0.62307
G1 X117.554 Y98.206 E0.64045
G1 X118.211 Y98.559 E0.65781
G1 X118.826 Y98.981 E0.67518
G1 X119.393 Y99.466 E0.69255
G1 X119.904 Y100.009 E0.70991
G1 X120.354 Y100.604 E0.72728
G1 X120.763 Y101.29 E0.74587
G1 X120.918 Y101.588 E0.7537
G1 X121.226 Y102.268 E0.77108
G1 X121.46 Y102.976 E0.78844
G1 X121.616 Y103.705 E0.80579
G1 X121.686 Y104.31 E0.81997
G1 X121.704 Y104.565 E0.82592
G1 X121.716 Y105.311 E0.84329
G1 X121.649 Y106.054 E0.86066
G1 X121.412 Y107.105 E0.88575
G1 X121.371 Y107.238 E0.88899
G1 X121.166 Y107.813 E0.9032
G1 X121.043 Y108.115 E0.91079
G1 X120.725 Y108.79 E0.92816
G1 X120.337 Y109.427 E0.94553
G1 X119.882 Y110.019 E0.96291
G1 X119.367 Y110.558 E0.98027
G1 X118.797 Y111.04 E0.99765
G1 X118.179 Y111.457 E1.01501
G1 X117.52 Y111.806 E1.03237
G1 X116.828 Y112.083 E1.04972
G1 X116.109 Y112.284 E1.0671
G1 X115.373 Y112.407 E1.08448
G1 X114.726 Y112.449 E1.09957
G1 X113.686 Y112.467 E1.12379
G1 X112.005 Y112.467 E1.16293
G1 X111.299 Y112.457 E1.17937
G1 X111.112 Y112.452 E1.18372
G1 X110.442 Y112.424 E1.19933
G1 X108.932 Y112.338 E1.23455
G1 X106.326 Y112.263 E1.29524
G1 X103.679 Y112.263 E1.35687
G1 X101.062 Y112.336 E1.41783
G1 X99.361 Y112.431 E1.45749
G1 X98.657 Y112.457 E1.47389
G1 X97.932 Y112.466 E1.49077
G1 X96.004 Y112.467 E1.53566
G1 X95.31 Y112.457 E1.55182
G1 X94.566 Y112.407 E1.56918
G1 X93.831 Y112.277 E1.58656
G1 X93.115 Y112.069 E1.60392
G1 X92.425 Y111.785 E1.62129
G1 X91.769 Y111.43 E1.63866
G1 X91.155 Y111.006 E1.65603
G1 X90.59 Y110.519 E1.6734
G1 X90.08 Y109.974 E1.69077
G1 X89.632 Y109.378 E1.70813
G1 X89.233 Y108.705 E1.72635
G1 X89.111 Y108.47 E1.73251
G1 X88.803 Y107.79 E1.74989
G1 X88.57 Y107.082 E1.76725
G1 X88.405 Y106.296 E1.78594
G1 X88.355 Y105.963 E1.79378
G1 X88.284 Y105.221 E1.81114
G1 X88.293 Y104.475 E1.82851
G1 X88.381 Y103.734 E1.84588
G1 X88.549 Y103.008 E1.86323
G1 X88.74 Y102.434 E1.87732
G1 X88.957 Y101.886 E1.89104
G1 X89.275 Y101.211 E1.90841
G1 X89.664 Y100.574 E1.92579
G1 X90.118 Y99.983 E1.94314
G1 X90.633 Y99.443 E1.96051
M204 S3000
M205 X10 Y10
G0 F1500 X91.103 Y99.771
M204 S1800
M205 X8 Y8
G1 F2400 X91.659 Y99.321 E1.97717
G1 X92.262 Y98.936 E1.99382
G1 X92.904 Y98.621 E2.01047
G1 X93.577 Y98.379 E2.02712
G1 X94.273 Y98.213 E2.04378
G1 X95.287 Y98.114 E2.0675
G1 X96.366 Y98.096 E2.09263
G1 X98.036 Y98.101 E2.13151
G1 X98.703 Y98.112 E2.14704
G1 X98.884 Y98.117 E2.15125
G1 X99.915 Y98.164 E2.17528
G1 X100.753 Y98.214 E2.19483
G1 X103.387 Y98.296 E2.25618
G1 X106.026 Y98.304 E2.31762
G1 X108.65 Y98.236 E2.37874
G1 X109.604 Y98.179 E2.40099
G1 X109.924 Y98.178 E2.40844
G1 X110.984 Y98.125 E2.43315
G1 X111.177 Y98.118 E2.43764
G1 X112.192 Y98.099 E2.46128
G1 X113.956 Y98.094 E2.50235
G1 X114.661 Y98.102 E2.51876
G1 X115.374 Y98.15 E2.5354
G1 X116.078 Y98.278 E2.55206
G1 X116.763 Y98.483 E2.56871
G1 X117.421 Y98.763 E2.58536
G1 X118.044 Y99.115 E2.60202
G1 X118.623 Y99.535 E2.61867
G1 X119.153 Y100.016 E2.63533
G1 X119.625 Y100.553 E2.65198
G1 X120.034 Y101.14 E2.66864
G1 X120.421 Y101.847 E2.6874
G1 X120.715 Y102.499 E2.70405
G1 X120.934 Y103.18 E2.72071
G1 X121.077 Y103.88 E2.73734
G1 X121.145 Y104.604 E2.75427
G1 X121.156 Y105.32 E2.77095
G1 X121.086 Y106.031 E2.78758
G1 X120.877 Y106.94 E2.80929
G1 X120.836 Y107.073 E2.81253
G1 X120.647 Y107.602 E2.82561
G1 X120.524 Y107.904 E2.83321
G1 X120.218 Y108.55 E2.84985
G1 X119.841 Y109.158 E2.8665
G1 X119.399 Y109.721 E2.88317
G1 X118.897 Y110.23 E2.89981
G1 X118.341 Y110.68 E2.91647
G1 X117.739 Y111.066 E2.93312
G1 X117.097 Y111.382 E2.94978
G1 X116.424 Y111.624 E2.96643
G1 X115.728 Y111.789 E2.98308
G1 X114.716 Y111.889 E3.00676
G1 X113.686 Y111.907 E3.03074
G1 X112.013 Y111.907 E3.06969
G1 X111.135 Y111.893 E3.09014
G1 X110.474 Y111.865 E3.10554
G1 X108.945 Y111.778 E3.14119
G1 X106.342 Y111.703 E3.20182
G1 X103.699 Y111.703 E3.26336
G1 X101.015 Y111.778 E3.32587
G1 X99.337 Y111.871 E3.365
G1 X98.65 Y111.898 E3.38101
G1 X97.931 Y111.906 E3.39775
G1 X96.012 Y111.907 E3.44243
G1 X95.318 Y111.897 E3.45858
G1 X94.604 Y111.847 E3.47525
G1 X93.901 Y111.718 E3.49189
G1 X93.216 Y111.51 E3.50856
G1 X92.559 Y111.228 E3.5252
G1 X91.938 Y110.874 E3.54184
G1 X91.359 Y110.453 E3.55851
G1 X90.832 Y109.97 E3.57516
G1 X90.361 Y109.431 E3.59182
G1 X89.954 Y108.843 E3.60847
G1 X89.608 Y108.212 E3.62522
G1 X89.314 Y107.56 E3.64188
G1 X89.095 Y106.879 E3.65853
G1 X88.959 Y106.213 E3.67436
G1 X88.909 Y105.88 E3.6822
G1 X88.842 Y105.168 E3.69885
G1 X88.856 Y104.453 E3.7155
G1 X88.949 Y103.744 E3.73215
G1 X89.219 Y102.754 E3.75604
G1 X89.476 Y102.097 E3.77246
G1 X89.782 Y101.451 E3.7891
G1 X90.159 Y100.843 E3.80576
G1 X90.601 Y100.281 E3.82241
G1 X91.103 Y99.771 E3.83907
M204 S3000
M205 X10 Y10
G0 F1500 X91.571 Y100.105
M204 S1800
M205 X8 Y8
G1 F2400 X92.112 Y99.688 E3.85497
G1 X92.698 Y99.337 E3.87087
G1 X93.321 Y99.056 E3.88679
G1 X93.973 Y98.851 E3.9027
G1 X94.644 Y98.722 E3.91861
G1 X95.297 Y98.674 E3.93385
G1 X96.365 Y98.656 E3.95872
G1 X98.026 Y98.661 E3.99739
G1 X98.693 Y98.672 E4.01292
G1 X98.859 Y98.677 E4.01679
G1 X99.882 Y98.723 E4.04063
G1 X100.738 Y98.774 E4.0606
G1 X103.368 Y98.856 E4.12186
G1 X106.038 Y98.864 E4.18402
G1 X108.67 Y98.796 E4.24532
G1 X109.638 Y98.738 E4.2679
G1 X109.934 Y98.738 E4.27479
G1 X111.012 Y98.684 E4.29992
G1 X111.188 Y98.678 E4.30402
G1 X112.194 Y98.659 E4.32744
G1 X113.949 Y98.654 E4.3683
G1 X114.654 Y98.662 E4.38472
G1 X115.336 Y98.71 E4.40064
G1 X116.007 Y98.837 E4.41654
G1 X116.659 Y99.042 E4.43245
G1 X117.283 Y99.321 E4.44836
G1 X117.869 Y99.671 E4.46425
G1 X118.411 Y100.087 E4.48016
G1 X118.9 Y100.564 E4.49607
G1 X119.331 Y101.095 E4.51199
G1 X119.769 Y101.807 E4.53145
G1 X119.924 Y102.105 E4.53927
G1 X120.203 Y102.729 E4.55519
G1 X120.408 Y103.381 E4.5711
G1 X120.569 Y104.389 E4.59486
G1 X120.587 Y104.644 E4.60082
G1 X120.595 Y105.327 E4.61672
G1 X120.523 Y106.006 E4.63262
G1 X120.342 Y106.775 E4.65101
G1 X120.301 Y106.908 E4.65425
G1 X120.129 Y107.391 E4.66619
G1 X120.006 Y107.693 E4.67378
G1 X119.711 Y108.309 E4.68968
G1 X119.347 Y108.887 E4.70558
G1 X118.918 Y109.419 E4.72149
G1 X118.429 Y109.897 E4.73742
G1 X117.888 Y110.314 E4.75332
G1 X117.302 Y110.666 E4.76923
G1 X116.68 Y110.946 E4.78512
G1 X116.028 Y111.152 E4.80103
G1 X115.357 Y111.28 E4.81694
G1 X114.705 Y111.329 E4.83216
G1 X113.686 Y111.347 E4.85589
G1 X112.021 Y111.347 E4.89465
G1 X111.315 Y111.337 E4.91109
G1 X111.158 Y111.333 E4.91475
G1 X110.506 Y111.305 E4.92994
G1 X109.028 Y111.221 E4.96441
G1 X106.323 Y111.143 E5.02741
G1 X103.683 Y111.143 E5.08888
G1 X101.003 Y111.218 E5.1513
G1 X99.314 Y111.312 E5.19068
G1 X98.643 Y111.338 E5.20632
G1 X97.93 Y111.346 E5.22292
G1 X96.02 Y111.347 E5.26739
G1 X95.326 Y111.337 E5.28355
G1 X94.644 Y111.288 E5.29947
G1 X93.974 Y111.159 E5.31535
G1 X93.322 Y110.952 E5.33128
G1 X92.7 Y110.671 E5.34717
G1 X92.114 Y110.319 E5.36308
G1 X91.573 Y109.901 E5.379
G1 X91.085 Y109.423 E5.39491
G1 X90.657 Y108.891 E5.4108
G1 X90.227 Y108.189 E5.42997
G1 X90.105 Y107.954 E5.43613
G1 X89.826 Y107.33 E5.45205
G1 X89.622 Y106.678 E5.46795
G1 X89.513 Y106.13 E5.48096
G1 X89.463 Y105.797 E5.4888
G1 X89.401 Y105.117 E5.5047
G1 X89.419 Y104.434 E5.52061
G1 X89.517 Y103.758 E5.53651
G1 X89.746 Y102.944 E5.5562
G1 X89.994 Y102.308 E5.57209
G1 X90.289 Y101.692 E5.58799
G1 X90.653 Y101.114 E5.6039
G1 X91.083 Y100.583 E5.6198
G1 X91.571 Y100.105 E5.63571
M204 S3000
M205 X10 Y10
G0 F1500 X91.562 Y100.889
M204 S1800
M205 X8 Y8
G1 F2400 X92.036 Y100.445 E5.65083
G1 X92.561 Y100.062 E5.66596
G1 X93.129 Y99.747 E5.68108
G1 X93.731 Y99.504 E5.69619
G1 X94.359 Y99.337 E5.71132
G1 X95.307 Y99.234 E5.73353
G1 X96.363 Y99.216 E5.75811
G1 X98.017 Y99.221 E5.79662
G1 X98.834 Y99.236 E5.81565
G1 X99.848 Y99.282 E5.83928
G1 X100.721 Y99.334 E5.85964
G1 X103.349 Y99.416 E5.92086
G1 X106.052 Y99.424 E5.98379
G1 X108.687 Y99.356 E6.04516
G1 X109.671 Y99.297 E6.06811
G1 X109.964 Y99.298 E6.07493
G1 X111.04 Y99.244 E6.10001
G1 X111.199 Y99.238 E6.10372
G1 X112.195 Y99.219 E6.12691
G1 X113.943 Y99.214 E6.16761
G1 X114.648 Y99.222 E6.18402
G1 X115.296 Y99.27 E6.19915
G1 X115.933 Y99.396 E6.21427
G1 X116.55 Y99.6 E6.2294
G1 X117.137 Y99.878 E6.24452
G1 X117.685 Y100.226 E6.25963
G1 X118.187 Y100.639 E6.27477
G1 X118.634 Y101.11 E6.28989
G1 X119.02 Y101.632 E6.305
G1 X119.272 Y102.066 E6.31669
G1 X119.427 Y102.364 E6.32451
G1 X119.691 Y102.957 E6.33962
G1 X119.88 Y103.579 E6.35475
G1 X120.01 Y104.428 E6.37475
G1 X120.028 Y104.683 E6.3807
G1 X120.034 Y105.333 E6.39584
G1 X119.96 Y105.978 E6.41095
G1 X119.807 Y106.61 E6.42609
G1 X119.61 Y107.18 E6.44013
G1 X119.487 Y107.482 E6.44773
G1 X119.205 Y108.067 E6.46285
G1 X118.854 Y108.613 E6.47796
G1 X118.438 Y109.113 E6.4931
G1 X117.964 Y109.557 E6.50822
G1 X117.439 Y109.94 E6.52335
G1 X116.872 Y110.255 E6.53845
G1 X116.269 Y110.498 E6.55359
G1 X115.642 Y110.666 E6.5687
G1 X114.695 Y110.769 E6.59088
G1 X113.685 Y110.787 E6.6144
G1 X112.029 Y110.787 E6.65295
G1 X111.181 Y110.774 E6.6727
G1 X110.538 Y110.746 E6.68768
G1 X109.041 Y110.66 E6.72259
G1 X106.339 Y110.583 E6.78553
G1 X103.667 Y110.583 E6.84774
G1 X100.992 Y110.658 E6.91004
G1 X99.29 Y110.752 E6.94973
G1 X98.636 Y110.778 E6.96497
G1 X97.93 Y110.786 E6.98141
G1 X96.028 Y110.787 E7.02569
G1 X95.334 Y110.777 E7.04185
G1 X94.686 Y110.728 E7.05698
G1 X94.049 Y110.6 E7.0721
G1 X93.433 Y110.394 E7.08723
G1 X92.847 Y110.114 E7.10235
G1 X92.299 Y109.765 E7.11747
G1 X91.799 Y109.35 E7.1326
G1 X91.353 Y108.878 E7.14772
G1 X90.969 Y108.354 E7.16285
G1 X90.602 Y107.696 E7.18039
G1 X90.339 Y107.102 E7.19551
G1 X90.15 Y106.48 E7.21065
G1 X90.017 Y105.714 E7.22875
G1 X89.96 Y105.067 E7.24387
G1 X89.983 Y104.418 E7.25899
G1 X90.086 Y103.776 E7.27413
G1 X90.273 Y103.135 E7.28967
G1 X90.513 Y102.52 E7.30504
G1 X90.794 Y101.934 E7.32018
G1 X91.146 Y101.388 E7.3353
G1 X91.562 Y100.889 E7.35043
M204 S3000
M205 X10 Y10
G1 F2400 E1.35043
;MESH:link_v1.3.STL
G0 F1500 X94.704 Y104.445
G0 X95.584 Y104.79
G0 X98.364 Y104.874
G0 X98.43 Y104.782
M204 S1800
M205 X8 Y8
;TYPE:WALL-OUTER
G1 F2400 E7.35043
G1 F1500 X98.478 Y104.873 E7.35282
G1 X98.489 Y105.041 E7.35674
G1 X98.421 Y105.226 E7.36133
G1 X95.574 Y105.228 E7.42761
G1 X95.522 Y105.125 E7.4303
G1 X95.511 Y104.963 E7.43408
G1 X95.573 Y104.774 E7.43871
G1 X98.43 Y104.782 E7.49207
M204 S3000
M205 X10 Y10
G0 X98.478 Y104.873
G0 X98.484 Y104.971
G1 F2400 E1.49207
G0 F1500 X98.384 Y104.976
G0 X99.43 Y104.976
G0 X110.57 Y105.049
G0 X111.529 Y104.978
G0 X114.379 Y104.9
G0 X114.478 Y104.875
M204 S1800
M205 X8 Y8
G1 F2400 E7.49207
G1 F1500 X114.489 Y105.037 E7.49585
G1 X114.427 Y105.226 E7.50048
G1 X111.572 Y105.228 E7.56695
G1 X111.522 Y105.131 E7.56949
G1 X111.51 Y104.976 E7.57311
G1 X111.572 Y104.781 E7.57787
G1 X114.427 Y104.773 E7.63123
G1 X114.478 Y104.875 E7.63389
M204 S3000
M205 X10 Y10
G0 X114.489 Y105.037
G0 X114.478 Y105.073
G1 F2400 E1.63389
;MESH:NONMESH
G0 F600 X114.478 Y105.073 Z0.2
G0 F1500 X114.383 Y105.041
G0 X111.529 Y104.978
G0 X110.57 Y105.049
G0 X99.43 Y104.976
G0 X98.47 Y105.039
G0 X95.721 Y104.968
;TIME_ELAPSED:17.947335
;LAYER:1
M204 S1800
M205 X8 Y8
;TYPE:WALL-INNER
;MESH:link_v1.3.STL
G1 F2400 E7.63389
G1 F600 X95.72 Y104.967 E7.63391
G1 X95.718 Y104.765 E7.63727
G1 X95.92 Y104.765 E7.63944
G1 X95.921 Y104.765 E7.63946
G1 X96.404 Y104.766 E7.64749
G1 X98.083 Y104.757 E7.67541
G1 X98.283 Y104.757 E7.67874
G1 X98.283 Y104.957 E7.68089
G1 X98.283 Y105.24 E7.6856
G1 X97.64 Y105.241 E7.69629
G1 X95.725 Y105.237 E7.72814
G1 X95.721 Y104.968 E7.73261
M204 S3000
M205 X10 Y10
G0 F2250 X96.403 Y104.366
M204 S1800
M205 X8 Y8
;TYPE:WALL-OUTER
G1 F600 X98.514 Y104.356 E7.76772
G1 X98.536 Y104.356 E7.76808
G1 X98.585 Y104.391 E7.76908
G1 X98.683 Y104.681 E7.77417
G1 X98.683 Y104.703 E7.77454
G1 X98.683 Y105.307 E7.78458
G1 X98.612 Y105.548 E7.78876
G1 X98.538 Y105.64 E7.79073
G1 X97.639 Y105.641 E7.80568
G1 X95.461 Y105.636 E7.8419
G1 X95.407 Y105.6 E7.84298
G1 X95.338 Y105.441 E7.84586
G1 X95.302 Y104.913 E7.85466
G1 X95.335 Y104.564 E7.86049
G1 X95.407 Y104.4 E7.86347
G1 X95.46 Y104.364 E7.86453
G1 X96.403 Y104.366 E7.88022
M204 S3000
M205 X10 Y10
G0 F2250 X96.603 Y104.366
G0 X96.605 Y104.839
G1 F2400 E1.88022
G0 F2250 X96.604 Y104.866
G0 X98.263 Y105.035
G0 X99.548 Y105.035
G0 X110.452 Y105.035
G0 X111.737 Y105.035
G0 X114.179 Y105.035
G0 X114.28 Y105.034
M204 S1800
M205 X8 Y8
;TYPE:WALL-INNER
G1 F2400 E7.88022
G1 F600 X114.281 Y105.035 E7.88024
G1 X114.282 Y105.236 E7.88358
G1 X114.081 Y105.236 E7.88574
G1 X114.08 Y105.236 E7.88576
G1 X111.917 Y105.24 E7.92173
G1 X111.717 Y105.24 E7.92506
G1 X111.717 Y105.04 E7.92721
G1 X111.717 Y104.755 E7.93195
G1 X112.193 Y104.753 E7.93987
G1 X114.275 Y104.763 E7.97449
G1 X114.28 Y105.034 E7.979
M204 S3000
M205 X10 Y10
G0 F2250 X114.539 Y104.364
M204 S1800
M205 X8 Y8
;TYPE:WALL-OUTER
G1 F600 X114.593 Y104.4 E7.98008
G1 X114.662 Y104.559 E7.98296
G1 X114.698 Y105.086 E7.99174
G1 X114.665 Y105.436 E7.99759
G1 X114.593 Y105.6 E8.00057
G1 X114.539 Y105.636 E8.00165
G1 X111.48 Y105.64 E8.05252
G1 X111.462 Y105.64 E8.05282
G1 X111.416 Y105.608 E8.05375
G1 X111.317 Y105.306 E8.05904
G1 X111.317 Y105.288 E8.05934
G1 X111.317 Y104.685 E8.06936
G1 X111.416 Y104.39 E8.07454
G1 X111.464 Y104.356 E8.07552
G1 X112.193 Y104.353 E8.08764
G1 X114.539 Y104.364 E8.12665
M204 S3000
M205 X10 Y10
G0 F2250 X114.593 Y104.4
