;FLAVOR:Marlin
;TIME:3377
;Filament used: 2.83818m
;Layer height: 0.2
;MINX:57.349
;MINY:49.375
;MINZ:0.2
;MAXX:142.797
;MAXY:124.289
;MAXZ:12.6
;Generated with Cura_SteamEngine 4.8.0
M140 S55
M105
M190 S55
M104 S200
M105
M109 S200
M82 ;absolute extrusion mode
; Script based on an original created by tjjfvi (https://github.com/tjjfvi)
; An up-to-date version of the tjjfvi's original script can be found
; here:  https://csi.t6.fyi/
; Note - This script will only work in Cura V4.2 and above!
; --- Global Settings
; layer_height = 0.2
; smooth_spiralized_contours = True
; magic_mesh_surface_mode = normal
; machine_extruder_count = 1
; --- Single Extruder Settings
; speed_z_hop = 10
; retraction_amount = 6
; retraction_hop = 0.075
; retraction_hop_enabled = True
; retraction_enable = True
; retraction_speed = 40
; retraction_retract_speed = 40
; retraction_prime_speed = 40
; speed_travel = 100


G21 ;metric values
G90 ;absolute positioning
M82 ;set extruder to absolute mode
M107 ;start with the fan off
G28 X0 Y0 ;move X/Y to min endstops
G28 Z0 ;move Z to min endstops
G1 Z15.0 F100 ;move the platform down 15mm
G92 E0 ;zero the extruded length
G1 F200 E3 ;extrude 3mm of feed stock
G92 E0 ;zero the extruded length again
G1 F100
G0 Y20 F100
M117 Printing...
G5
G92 E0
G92 E0
G1 F2400 E-6
;LAYER_COUNT:63
;LAYER:0
M106 S255
M204 S3000
M205 X10 Y10
G1 F600 Z0.275
G0 F3000 X58.797 Y53.065 Z0.275
M204 S1800
M205 X8 Y8
;TYPE:SKIRT
G1 F600 Z0.2
G1 F2400 E0
G1 X59.279 Y52.537 E0.03329
G1 X59.818 Y52.066 E0.06662
G1 X60.405 Y51.658 E0.09991
G1 X61.034 Y51.318 E0.1332
G1 X61.697 Y51.05 E0.1665
G1 X62.386 Y50.858 E0.19981
G1 X63.092 Y50.744 E0.23311
G1 X63.86 Y50.702 E0.26892
G1 X64.067 Y50.699 E0.27856
G1 X66.982 Y50.7 E0.41429
G1 X68.671 Y50.724 E0.49295
G1 X71.426 Y50.724 E0.62123
G1 X72.466 Y50.701 E0.66967
G1 X72.724 Y50.699 E0.68169
G1 X76.922 Y50.7 E0.87716
G1 X77.645 Y50.71 E0.91083
G1 X77.828 Y50.715 E0.91936
G1 X78.855 Y50.759 E0.96722
G1 X81.515 Y50.834 E1.09113
G1 X84.192 Y50.834 E1.21578
G1 X86.799 Y50.76 E1.33723
G1 X89.471 Y50.609 E1.46184
G1 X92.103 Y50.385 E1.58484
G1 X94.736 Y50.085 E1.70824
G1 X97.369 Y49.71 E1.83208
G1 X98.838 Y49.469 E1.9014
G1 X99.695 Y49.387 E1.94149
G1 X100.233 Y49.375 E1.96654
G1 X110.838 Y49.375 E2.46036
G1 X111.628 Y49.386 E2.49715
G1 X112.341 Y49.436 E2.53043
G1 X113.045 Y49.565 E2.56375
G1 X113.729 Y49.773 E2.59704
G1 X114.386 Y50.055 E2.63034
G1 X115.008 Y50.409 E2.66366
G1 X115.586 Y50.83 E2.69696
G1 X116.114 Y51.313 E2.73028
G1 X116.584 Y51.851 E2.76354
G1 X116.992 Y52.439 E2.79687
G1 X117.283 Y52.968 E2.82498
G1 X117.798 Y54.021 E2.87957
G1 X118.099 Y54.66 E2.91246
G1 X119.296 Y57.026 E3.03592
G1 X120.552 Y59.345 E3.15873
G1 X121.885 Y61.645 E3.28251
G1 X123.284 Y63.911 E3.40651
G1 X124.728 Y66.107 E3.5289
G1 X126.25 Y68.285 E3.65262
G1 X127.814 Y70.394 E3.77488
G1 X129.467 Y72.495 E3.89936
G1 X131.152 Y74.518 E4.02196
G1 X132.889 Y76.485 E4.14415
G1 X134.718 Y78.445 E4.26898
G1 X136.56 Y80.31 E4.39104
G1 X138.49 Y82.153 E4.5153
G1 X140.439 Y83.917 E4.63771
G1 X140.611 Y84.068 E4.64836
G1 X141.121 Y84.569 E4.68165
G1 X141.572 Y85.124 E4.71495
G1 X141.958 Y85.726 E4.74825
G1 X142.275 Y86.367 E4.78155
G1 X142.518 Y87.04 E4.81487
G1 X142.685 Y87.736 E4.8482
G1 X142.784 Y88.683 E4.89253
G1 X142.797 Y89.197 E4.91648
G1 X142.797 Y89.859 E4.9473
G1 X142.787 Y90.561 E4.97999
G1 X142.757 Y91.096 E5.00494
G1 X142.636 Y92.328 E5.06259
G1 X142.62 Y92.466 E5.06906
G1 X142.393 Y95.086 E5.19151
G1 X142.242 Y97.716 E5.31418
G1 X142.163 Y100.362 E5.43744
G1 X142.159 Y103.007 E5.5606
G1 X142.231 Y105.677 E5.68497
G1 X142.376 Y108.287 E5.80669
G1 X142.6 Y110.956 E5.93141
G1 X142.752 Y112.398 E5.99893
G1 X142.794 Y113.193 E6.036
G1 X142.797 Y113.38 E6.04471
G1 X142.797 Y114.031 E6.07502
G1 X142.787 Y114.75 E6.1085
G1 X142.737 Y115.464 E6.14183
G1 X142.608 Y116.167 E6.17511
G1 X142.401 Y116.852 E6.20843
G1 X142.119 Y117.509 E6.24173
G1 X141.766 Y118.131 E6.27503
G1 X141.345 Y118.709 E6.30832
G1 X140.862 Y119.237 E6.34165
G1 X140.324 Y119.708 E6.37494
G1 X139.736 Y120.115 E6.40824
G1 X139.107 Y120.455 E6.44153
G1 X138.443 Y120.722 E6.47486
G1 X137.754 Y120.914 E6.50816
G1 X137.048 Y121.027 E6.54146
G1 X136.288 Y121.068 E6.5769
G1 X136.08 Y121.071 E6.58658
G1 X125.327 Y121.07 E7.08729
G1 X124.616 Y121.059 E7.1204
G1 X123.905 Y121.009 E7.15359
G1 X123.575 Y120.967 E7.16908
G1 X120.926 Y120.665 E7.29322
G1 X118.297 Y120.441 E7.41609
G1 X115.618 Y120.289 E7.54103
G1 X113.013 Y120.214 E7.66238
G1 X110.37 Y120.214 E7.78545
G1 X107.691 Y120.289 E7.91025
G1 X105.053 Y120.437 E8.03327
G1 X102.423 Y120.66 E8.15618
G1 X99.79 Y120.959 E8.27957
G1 X97.169 Y121.332 E8.40284
G1 X94.57 Y121.777 E8.52563
G1 X92 Y122.29 E8.64766
G1 X89.385 Y122.892 E8.77261
G1 X86.781 Y123.569 E8.89789
G1 X85.249 Y124.003 E8.97203
G1 X85.062 Y124.054 E8.98106
G1 X84.362 Y124.204 E9.01439
G1 X83.571 Y124.277 E9.05138
G1 X83.08 Y124.289 E9.07425
G1 X72.335 Y124.288 E9.57459
G1 X71.635 Y124.278 E9.60718
G1 X70.921 Y124.228 E9.64051
G1 X69.94 Y124.025 E9.68716
G1 X67.23 Y123.238 E9.81856
G1 X64.647 Y122.566 E9.94284
G1 X64.361 Y122.495 E9.95656
G1 X63.677 Y122.285 E9.98988
G1 X63.021 Y122 E10.02318
G1 X62.401 Y121.644 E10.05647
G1 X61.824 Y121.22 E10.08982
G1 X61.298 Y120.735 E10.12313
G1 X60.83 Y120.195 E10.1564
G1 X60.425 Y119.605 E10.18973
G1 X60.088 Y118.974 E10.22304
G1 X59.824 Y118.309 E10.25635
G1 X59.636 Y117.62 E10.28961
G1 X59.525 Y116.913 E10.32293
G1 X59.488 Y116.176 E10.35729
G1 X59.485 Y115.983 E10.36628
G1 X59.486 Y115.239 E10.40093
G1 X59.496 Y114.591 E10.4311
G1 X59.511 Y114.232 E10.44783
G1 X59.57 Y113.419 E10.48579
G1 X59.689 Y112.032 E10.55061
G1 X59.839 Y109.424 E10.67225
G1 X59.914 Y106.789 E10.795
G1 X59.916 Y104.146 E10.91807
G1 X59.841 Y101.464 E11.043
G1 X59.693 Y98.825 E11.16608
G1 X59.472 Y96.198 E11.28883
G1 X59.177 Y93.594 E11.41086
G1 X58.802 Y90.947 E11.53535
G1 X58.356 Y88.339 E11.65855
G1 X57.832 Y85.72 E11.78292
G1 X57.513 Y84.287 E11.85128
G1 X57.397 Y83.582 E11.88455
G1 X57.353 Y82.754 E11.92316
G1 X57.35 Y82.573 E11.93159
G1 X57.35 Y81.911 E11.96241
G1 X57.36 Y81.208 E11.99515
G1 X57.39 Y80.673 E12.0201
G1 X57.511 Y79.442 E12.0777
G1 X57.527 Y79.304 E12.08417
G1 X57.754 Y76.684 E12.20662
G1 X57.905 Y74.054 E12.32929
G1 X57.984 Y71.408 E12.45255
G1 X57.988 Y68.763 E12.57571
G1 X57.916 Y66.093 E12.70009
G1 X57.771 Y63.482 E12.82185
G1 X57.547 Y60.809 E12.94675
G1 X57.394 Y59.36 E13.0146
G1 X57.352 Y58.536 E13.05302
G1 X57.349 Y57.813 E13.08669
G1 X57.359 Y57.026 E13.12334
G1 X57.408 Y56.312 E13.15666
G1 X57.536 Y55.609 E13.18993
G1 X57.743 Y54.924 E13.22325
G1 X58.024 Y54.266 E13.25657
G1 X58.377 Y53.644 E13.28987
G1 X58.797 Y53.065 E13.32318
M204 S3000
M205 X10 Y10
G0 F3000 X59.35 Y53.279
M204 S1800
M205 X8 Y8
G1 F2400 X59.827 Y52.79 E13.35499
G1 X60.358 Y52.361 E13.38678
G1 X60.936 Y51.996 E13.41861
G1 X61.553 Y51.701 E13.45045
G1 X62.199 Y51.481 E13.48223
G1 X62.867 Y51.337 E13.51405
G1 X63.569 Y51.272 E13.54688
G1 X64.067 Y51.259 E13.57007
G1 X66.974 Y51.26 E13.70543
G1 X68.663 Y51.284 E13.78409
G1 X71.394 Y51.284 E13.91126
G1 X72.471 Y51.261 E13.96142
G1 X72.729 Y51.259 E13.97343
G1 X76.914 Y51.26 E14.1683
G1 X77.804 Y51.274 E14.20975
G1 X78.815 Y51.317 E14.25687
G1 X81.534 Y51.394 E14.38353
G1 X84.173 Y51.394 E14.50641
G1 X86.847 Y51.318 E14.63097
G1 X89.516 Y51.167 E14.75545
G1 X92.176 Y50.941 E14.87976
G1 X94.773 Y50.645 E15.00147
G1 X97.485 Y50.259 E15.12902
G1 X98.928 Y50.022 E15.19712
G1 X99.711 Y49.947 E15.23374
G1 X100.233 Y49.935 E15.25806
G1 X110.838 Y49.935 E15.75187
G1 X111.62 Y49.946 E15.78829
G1 X112.301 Y49.995 E15.82008
G1 X112.972 Y50.124 E15.85189
G1 X113.623 Y50.331 E15.8837
G1 X114.246 Y50.612 E15.91553
G1 X114.832 Y50.964 E15.94736
G1 X115.372 Y51.382 E15.97916
G1 X115.86 Y51.86 E16.01096
G1 X116.289 Y52.392 E16.04279
G1 X116.78 Y53.215 E16.08741
G1 X117.291 Y54.26 E16.14158
G1 X117.593 Y54.902 E16.17461
G1 X118.793 Y57.273 E16.29835
G1 X120.062 Y59.615 E16.42239
G1 X121.417 Y61.953 E16.54821
G1 X122.811 Y64.21 E16.67174
G1 X124.261 Y66.417 E16.7947
G1 X125.79 Y68.603 E16.91892
G1 X127.368 Y70.732 E17.04232
G1 X129.027 Y72.841 E17.16726
G1 X130.715 Y74.867 E17.29005
G1 X132.491 Y76.879 E17.41502
G1 X134.341 Y78.861 E17.54127
G1 X136.153 Y80.696 E17.66135
G1 X138.104 Y82.559 E17.78696
G1 X140.053 Y84.323 E17.90937
G1 X140.241 Y84.488 E17.92101
G1 X140.727 Y84.968 E17.95282
G1 X141.154 Y85.502 E17.98466
G1 X141.515 Y86.082 E18.01647
G1 X141.806 Y86.7 E18.04828
G1 X142.023 Y87.348 E18.0801
G1 X142.163 Y88.017 E18.11192
G1 X142.224 Y88.7 E18.14385
G1 X142.237 Y89.198 E18.16705
G1 X142.237 Y89.851 E18.19746
G1 X142.227 Y90.553 E18.23015
G1 X142.2 Y91.041 E18.25291
G1 X142.079 Y92.264 E18.31013
G1 X142.065 Y92.388 E18.31594
G1 X141.835 Y95.042 E18.43999
G1 X141.682 Y97.701 E18.56401
G1 X141.603 Y100.345 E18.68718
G1 X141.599 Y103.021 E18.81178
G1 X141.671 Y105.688 E18.93602
G1 X141.818 Y108.33 E19.05923
G1 X142.043 Y111.015 E19.18469
G1 X142.195 Y112.457 E19.25221
G1 X142.234 Y113.21 E19.28732
G1 X142.237 Y113.381 E19.29528
G1 X142.237 Y114.023 E19.32518
G1 X142.227 Y114.742 E19.35866
G1 X142.178 Y115.424 E19.3905
G1 X142.049 Y116.095 E19.42232
G1 X141.843 Y116.746 E19.45411
G1 X141.562 Y117.369 E19.48593
G1 X141.211 Y117.955 E19.51774
G1 X140.793 Y118.495 E19.54954
G1 X140.315 Y118.984 E19.58138
G1 X139.783 Y119.413 E19.6132
G1 X139.205 Y119.777 E19.64501
G1 X138.588 Y120.071 E19.67683
G1 X137.942 Y120.291 E19.70861
G1 X137.273 Y120.433 E19.74046
G1 X136.578 Y120.498 E19.77296
G1 X136.08 Y120.511 E19.79616
G1 X125.336 Y120.51 E20.29644
G1 X124.625 Y120.499 E20.32955
G1 X123.976 Y120.453 E20.35985
G1 X123.64 Y120.41 E20.37562
G1 X120.999 Y120.109 E20.49939
G1 X118.344 Y119.883 E20.62347
G1 X115.664 Y119.731 E20.74846
G1 X112.994 Y119.654 E20.87284
G1 X110.354 Y119.654 E20.99577
G1 X107.679 Y119.729 E21.12038
G1 X105.012 Y119.879 E21.24476
G1 X102.382 Y120.102 E21.36766
G1 X99.718 Y120.404 E21.49251
G1 X97.07 Y120.781 E21.61705
G1 X94.469 Y121.226 E21.73992
G1 X91.868 Y121.745 E21.86343
G1 X89.263 Y122.345 E21.9879
G1 X86.666 Y123.02 E22.11285
G1 X85.157 Y123.448 E22.18588
G1 X84.915 Y123.514 E22.19756
G1 X84.246 Y123.655 E22.2294
G1 X83.554 Y123.717 E22.26175
G1 X83.08 Y123.729 E22.28383
G1 X72.343 Y123.728 E22.78379
G1 X71.643 Y123.718 E22.81639
G1 X70.961 Y123.669 E22.84823
G1 X70.096 Y123.487 E22.88939
G1 X67.383 Y122.699 E23.02094
G1 X64.768 Y122.018 E23.14676
G1 X64.495 Y121.951 E23.15985
G1 X63.842 Y121.749 E23.19168
G1 X63.218 Y121.472 E23.22347
G1 X62.63 Y121.124 E23.25528
G1 X62.087 Y120.709 E23.28711
G1 X61.595 Y120.234 E23.31895
G1 X61.163 Y119.705 E23.35075
G1 X60.796 Y119.129 E23.38256
G1 X60.498 Y118.514 E23.41438
G1 X60.274 Y117.869 E23.44617
G1 X60.127 Y117.202 E23.47798
G1 X60.057 Y116.457 E23.51282
G1 X60.045 Y115.983 E23.5349
G1 X60.046 Y115.248 E23.56912
G1 X60.056 Y114.6 E23.5993
G1 X60.07 Y114.272 E23.61459
G1 X60.128 Y113.467 E23.65217
G1 X60.247 Y112.075 E23.71722
G1 X60.397 Y109.474 E23.83854
G1 X60.474 Y106.769 E23.96454
G1 X60.476 Y104.13 E24.08743
G1 X60.401 Y101.452 E24.21217
G1 X60.252 Y98.784 E24.3366
G1 X60.03 Y96.158 E24.45932
G1 X59.728 Y93.492 E24.58425
G1 X59.358 Y90.878 E24.70718
G1 X58.907 Y88.238 E24.83189
G1 X58.376 Y85.581 E24.95806
G1 X58.06 Y84.165 E25.02562
G1 X57.95 Y83.491 E25.05742
G1 X57.913 Y82.737 E25.09257
G1 X57.91 Y82.572 E25.10025
G1 X57.91 Y81.919 E25.13066
G1 X57.92 Y81.216 E25.1634
G1 X57.947 Y80.728 E25.18615
G1 X58.068 Y79.506 E25.24333
G1 X58.082 Y79.382 E25.24914
G1 X58.312 Y76.728 E25.37319
G1 X58.465 Y74.069 E25.49721
G1 X58.544 Y71.425 E25.62038
G1 X58.548 Y68.749 E25.74498
G1 X58.476 Y66.082 E25.86922
G1 X58.329 Y63.439 E25.99248
G1 X58.104 Y60.75 E26.11812
G1 X57.951 Y59.301 E26.18597
G1 X57.912 Y58.52 E26.22238
G1 X57.909 Y57.812 E26.25535
G1 X57.918 Y57.033 E26.29163
G1 X57.967 Y56.352 E26.32342
G1 X58.095 Y55.681 E26.35523
G1 X58.301 Y55.029 E26.38707
G1 X58.581 Y54.406 E26.41887
G1 X58.932 Y53.82 E26.45068
G1 X59.35 Y53.279 E26.48251
M204 S3000
M205 X10 Y10
G0 F3000 X59.487 Y54.005
M204 S1800
M205 X8 Y8
G1 F2400 X59.901 Y53.504 E26.51278
G1 X60.373 Y53.057 E26.54305
G1 X60.896 Y52.672 E26.57329
G1 X61.462 Y52.354 E26.60352
G1 X62.064 Y52.108 E26.6338
G1 X62.69 Y51.938 E26.664
G1 X63.587 Y51.832 E26.70606
G1 X64.067 Y51.819 E26.72842
G1 X66.966 Y51.82 E26.86341
G1 X68.655 Y51.844 E26.94206
G1 X71.406 Y51.844 E27.07016
G1 X72.475 Y51.821 E27.11995
G1 X72.733 Y51.819 E27.13196
G1 X76.906 Y51.82 E27.32628
G1 X77.629 Y51.83 E27.35995
G1 X77.781 Y51.834 E27.36703
G1 X78.779 Y51.876 E27.41354
G1 X81.518 Y51.954 E27.54113
G1 X84.189 Y51.954 E27.6655
G1 X86.858 Y51.878 E27.78983
G1 X89.56 Y51.725 E27.91585
G1 X92.221 Y51.499 E28.0402
G1 X94.877 Y51.196 E28.16468
G1 X97.563 Y50.814 E28.29101
G1 X99.019 Y50.575 E28.35972
G1 X99.726 Y50.507 E28.39279
G1 X100.233 Y50.495 E28.4164
G1 X110.838 Y50.495 E28.91022
G1 X111.612 Y50.506 E28.94626
G1 X112.259 Y50.555 E28.97647
G1 X112.896 Y50.683 E29.00673
G1 X113.512 Y50.889 E29.03697
G1 X114.099 Y51.169 E29.06726
G1 X114.646 Y51.518 E29.09747
G1 X115.147 Y51.932 E29.12773
G1 X115.592 Y52.405 E29.15797
G1 X115.977 Y52.929 E29.18825
G1 X116.277 Y53.461 E29.21669
G1 X116.785 Y54.498 E29.27046
G1 X117.102 Y55.171 E29.3051
G1 X118.309 Y57.557 E29.42961
G1 X119.571 Y59.885 E29.55291
G1 X120.917 Y62.208 E29.67793
G1 X122.343 Y64.518 E29.80434
G1 X123.805 Y66.743 E29.92831
G1 X125.325 Y68.916 E30.05179
G1 X126.926 Y71.076 E30.17698
G1 X128.601 Y73.205 E30.30312
G1 X130.295 Y75.238 E30.42634
G1 X132.076 Y77.255 E30.55164
G1 X133.911 Y79.222 E30.67689
G1 X135.781 Y81.115 E30.8008
G1 X137.737 Y82.984 E30.92677
G1 X139.667 Y84.73 E31.04796
G1 X139.871 Y84.909 E31.0606
G1 X140.332 Y85.367 E31.09085
G1 X140.733 Y85.878 E31.1211
G1 X141.069 Y86.434 E31.15135
G1 X141.333 Y87.028 E31.18162
G1 X141.522 Y87.649 E31.21184
G1 X141.634 Y88.289 E31.2421
G1 X141.675 Y89.049 E31.27754
G1 X141.678 Y89.759 E31.3106
G1 X141.667 Y90.545 E31.3472
G1 X141.643 Y90.986 E31.36777
G1 X141.523 Y92.2 E31.42457
G1 X141.506 Y92.346 E31.43142
G1 X141.277 Y94.997 E31.55532
G1 X141.123 Y97.653 E31.6792
G1 X141.043 Y100.363 E31.80544
G1 X141.039 Y103.035 E31.92986
G1 X141.111 Y105.7 E32.054
G1 X141.259 Y108.373 E32.17866
G1 X141.486 Y111.074 E32.30487
G1 X141.638 Y112.516 E32.37239
G1 X141.674 Y113.228 E32.40559
G1 X141.677 Y113.382 E32.41276
G1 X141.677 Y114.015 E32.44223
G1 X141.667 Y114.734 E32.47572
G1 X141.619 Y115.382 E32.50597
G1 X141.49 Y116.019 E32.53624
G1 X141.285 Y116.635 E32.56647
G1 X141.005 Y117.222 E32.59675
G1 X140.656 Y117.769 E32.62696
G1 X140.242 Y118.27 E32.65723
G1 X139.77 Y118.716 E32.68746
G1 X139.246 Y119.101 E32.71774
G1 X138.679 Y119.418 E32.74799
G1 X138.078 Y119.663 E32.77821
G1 X137.451 Y119.833 E32.80846
G1 X136.559 Y119.938 E32.85028
G1 X136.08 Y119.951 E32.87259
G1 X125.344 Y119.95 E33.37251
G1 X124.633 Y119.939 E33.40562
G1 X124.047 Y119.898 E33.43297
G1 X123.702 Y119.854 E33.44917
G1 X121.044 Y119.551 E33.57374
G1 X118.351 Y119.322 E33.69959
G1 X115.712 Y119.171 E33.82267
G1 X113.01 Y119.094 E33.94854
G1 X110.338 Y119.094 E34.07296
G1 X107.668 Y119.169 E34.19733
G1 X104.965 Y119.321 E34.32339
G1 X102.31 Y119.546 E34.44747
G1 X99.645 Y119.848 E34.57235
G1 X97 Y120.224 E34.69675
G1 X94.381 Y120.673 E34.82048
G1 X91.737 Y121.2 E34.94602
G1 X89.132 Y121.8 E35.0705
G1 X86.52 Y122.48 E35.19618
G1 X84.954 Y122.923 E35.27196
G1 X84.767 Y122.974 E35.28098
G1 X84.131 Y123.106 E35.31123
G1 X83.537 Y123.158 E35.33899
G1 X83.08 Y123.169 E35.36028
