;FLAVOR:Marlin
;TIME:2022
;Filament used: 1.67756m
;Layer height: 0.2
;MINX:78.6
;MINY:83.6
;MINZ:0.2
;MAXX:131.4
;MAXY:126.4
;MAXZ:25
;Generated with Cura_SteamEngine 4.8.0
M140 S55
M105
M190 S55
M104 S200
M105
M109 S200
M82 ;absolute extrusion mode
; Script based on an original created by tjjfvi (https://github.com/tjjfvi)
; An up-to-date version of the tjjfvi's original script can be found
; here:  https://csi.t6.fyi/
; Note - This script will only work in Cura V4.2 and above!
; --- Global Settings
; layer_height = 0.2
; smooth_spiralized_contours = True
; magic_mesh_surface_mode = normal
; machine_extruder_count = 1
; --- Single Extruder Settings
; speed_z_hop = 10
; retraction_amount = 6
; retraction_hop = 0.075
; retraction_hop_enabled = True
; retraction_enable = True
; retraction_speed = 40
; retraction_retract_speed = 40
; retraction_prime_speed = 40
; speed_travel = 100


G21 ;metric values
G90 ;absolute positioning
M82 ;set extruder to absolute mode
M107 ;start with the fan off
G28 X0 Y0 ;move X/Y to min endstops
G28 Z0 ;move Z to min endstops
G1 Z15.0 F100 ;move the platform down 15mm
G92 E0 ;zero the extruded length
G1 F200 E3 ;extrude 3mm of feed stock
G92 E0 ;zero the extruded length again
G1 F100
G0 Y20 F100
M117 Printing...
G5
G92 E0
G92 E0
G1 F2400 E-6
;LAYER_COUNT:125
;LAYER:0
M106 S255
M204 S3000
M205 X10 Y10
G1 F600 Z0.275
G0 F3000 X81.304 Y85.57 Z0.275
M204 S1800
M205 X8 Y8
;TYPE:SKIRT
G1 F600 Z0.2
G1 F2400 E0
G1 X81.478 Y85.423 E0.01061
G1 X82.343 Y84.808 E0.06003
G1 X82.638 Y84.633 E0.076
G1 X83.272 Y84.303 E0.10928
G1 X83.824 Y84.084 E0.13693
G1 X84.022 Y84.016 E0.14668
G1 X84.767 Y83.81 E0.18267
G1 X84.964 Y83.768 E0.19205
G1 X85.67 Y83.658 E0.22532
G1 X86.163 Y83.628 E0.24832
G1 X87.44 Y83.601 E0.3078
G1 X122.793 Y83.6 E1.95398
G1 X123.401 Y83.608 E1.98229
G1 X123.819 Y83.627 E2.00178
G1 X124.325 Y83.667 E2.02541
G1 X125.034 Y83.763 E2.05873
G1 X125.669 Y83.92 E2.08919
G1 X125.911 Y83.993 E2.10096
G1 X126.583 Y84.237 E2.13425
G1 X127.069 Y84.47 E2.15934
G1 X127.319 Y84.603 E2.17253
G1 X128.033 Y85.045 E2.21163
G1 X128.481 Y85.386 E2.23785
G1 X128.635 Y85.514 E2.24717
G1 X129.159 Y86.001 E2.28048
G1 X129.595 Y86.5 E2.31134
G1 X130.192 Y87.343 E2.35944
G1 X130.367 Y87.638 E2.37541
G1 X130.697 Y88.272 E2.40869
G1 X130.916 Y88.824 E2.43634
G1 X130.984 Y89.022 E2.44609
G1 X131.186 Y89.747 E2.48114
G1 X131.228 Y89.941 E2.49038
G1 X131.34 Y90.647 E2.52367
G1 X131.372 Y91.158 E2.54751
G1 X131.399 Y92.419 E2.60624
G1 X131.4 Y117.782 E3.78724
G1 X131.392 Y118.399 E3.81598
G1 X131.373 Y118.819 E3.83555
G1 X131.333 Y119.325 E3.85919
G1 X131.237 Y120.034 E3.8925
G1 X131.079 Y120.674 E3.9232
G1 X131.007 Y120.912 E3.93478
G1 X130.762 Y121.584 E3.96808
G1 X130.545 Y122.039 E3.99156
G1 X130.414 Y122.288 E4.00466
G1 X130.046 Y122.901 E4.03795
G1 X129.586 Y123.511 E4.07353
G1 X129.111 Y124.047 E4.10687
G1 X128.691 Y124.434 E4.13347
G1 X128.525 Y124.574 E4.14358
G1 X127.689 Y125.172 E4.19144
G1 X127.387 Y125.353 E4.20784
G1 X126.754 Y125.685 E4.24112
G1 X126.176 Y125.916 E4.2701
G1 X125.978 Y125.984 E4.27985
G1 X125.233 Y126.19 E4.31584
G1 X125.036 Y126.232 E4.32522
G1 X124.33 Y126.342 E4.35849
G1 X123.837 Y126.372 E4.38149
G1 X122.56 Y126.399 E4.44097
G1 X87.207 Y126.4 E6.08715
G1 X86.599 Y126.392 E6.11546
G1 X86.181 Y126.373 E6.13495
G1 X85.675 Y126.333 E6.15858
G1 X84.966 Y126.237 E6.1919
G1 X84.331 Y126.08 E6.22236
G1 X84.089 Y126.007 E6.23413
G1 X83.417 Y125.763 E6.26742
G1 X82.923 Y125.526 E6.29293
G1 X82.672 Y125.392 E6.30618
G1 X82.061 Y125.02 E6.33949
G1 X81.485 Y124.583 E6.37315
G1 X80.949 Y124.108 E6.4065
G1 X80.549 Y123.672 E6.43406
G1 X80.405 Y123.5 E6.4445
G1 X79.811 Y122.663 E6.49229
G1 X79.635 Y122.367 E6.50833
G1 X79.304 Y121.733 E6.54163
G1 X79.077 Y121.157 E6.57046
G1 X79.01 Y120.96 E6.58015
G1 X78.814 Y120.253 E6.61431
G1 X78.772 Y120.059 E6.62355
G1 X78.66 Y119.353 E6.65684
G1 X78.628 Y118.838 E6.68087
G1 X78.601 Y117.536 E6.74151
G1 X78.6 Y92.181 E7.92214
G1 X78.608 Y91.595 E7.94943
G1 X78.627 Y91.181 E7.96873
G1 X78.667 Y90.675 E7.99236
G1 X78.763 Y89.966 E8.02568
G1 X78.92 Y89.331 E8.05614
G1 X78.993 Y89.089 E8.06791
G1 X79.237 Y88.417 E8.1012
G1 X79.551 Y87.776 E8.13443
G1 X80.1 Y86.905 E8.18237
G1 X80.312 Y86.622 E8.19884
G1 X80.772 Y86.074 E8.23215
G1 X81.304 Y85.57 E8.26628
M204 S3000
M205 X10 Y10
G0 F3000 X81.665 Y85.998
M204 S1800
M205 X8 Y8
G1 F2400 X81.839 Y85.851 E8.27688
G1 X82.628 Y85.289 E8.32199
G1 X82.923 Y85.114 E8.33796
G1 X83.53 Y84.801 E8.36976
G1 X84.006 Y84.614 E8.39358
G1 X84.204 Y84.546 E8.40333
G1 X84.883 Y84.357 E8.43614
G1 X85.08 Y84.315 E8.44552
G1 X85.756 Y84.212 E8.47736
G1 X86.175 Y84.188 E8.49691
G1 X87.452 Y84.161 E8.55638
G1 X122.793 Y84.16 E10.20201
G1 X123.393 Y84.168 E10.22995
G1 X123.775 Y84.185 E10.24775
G1 X124.281 Y84.225 E10.27139
G1 X124.958 Y84.319 E10.30322
G1 X125.508 Y84.456 E10.32961
G1 X125.75 Y84.529 E10.34138
G1 X126.391 Y84.764 E10.37317
G1 X127.056 Y85.097 E10.4078
G1 X127.707 Y85.501 E10.44348
G1 X128.123 Y85.817 E10.4678
G1 X128.277 Y85.945 E10.47713
G1 X128.776 Y86.412 E10.50895
G1 X129.166 Y86.859 E10.53657
G1 X129.711 Y87.628 E10.58046
G1 X129.886 Y87.923 E10.59643
G1 X130.199 Y88.53 E10.62823
G1 X130.386 Y89.006 E10.65205
G1 X130.454 Y89.204 E10.66179
G1 X130.639 Y89.865 E10.69376
G1 X130.681 Y90.059 E10.703
G1 X130.786 Y90.734 E10.73481
G1 X130.812 Y91.17 E10.75515
G1 X130.839 Y92.431 E10.81388
G1 X130.84 Y117.782 E11.99433
G1 X130.832 Y118.392 E12.02273
G1 X130.815 Y118.775 E12.04058
G1 X130.775 Y119.281 E12.06422
G1 X130.681 Y119.958 E12.09605
G1 X130.543 Y120.512 E12.12263
G1 X130.471 Y120.75 E12.13421
G1 X130.235 Y121.391 E12.16601
G1 X129.918 Y122.027 E12.1991
G1 X129.565 Y122.612 E12.23092
G1 X129.146 Y123.164 E12.26319
G1 X128.692 Y123.674 E12.29498
G1 X128.164 Y124.146 E12.32796
G1 X127.401 Y124.691 E12.37162
G1 X127.099 Y124.872 E12.38802
G1 X126.494 Y125.189 E12.41982
G1 X125.994 Y125.386 E12.44484
G1 X125.796 Y125.454 E12.45459
G1 X125.117 Y125.643 E12.48741
G1 X124.92 Y125.685 E12.49679
G1 X124.244 Y125.788 E12.52863
G1 X123.825 Y125.812 E12.54817
G1 X122.548 Y125.839 E12.60765
G1 X87.207 Y125.84 E14.25328
G1 X86.607 Y125.832 E14.28122
G1 X86.225 Y125.815 E14.29902
G1 X85.719 Y125.775 E14.32266
G1 X85.042 Y125.681 E14.35448
G1 X84.492 Y125.544 E14.38088
G1 X84.25 Y125.471 E14.39265
G1 X83.609 Y125.236 E14.42444
G1 X82.936 Y124.898 E14.4595
G1 X82.353 Y124.541 E14.49134
G1 X81.832 Y124.144 E14.52184
G1 X81.322 Y123.689 E14.55366
G1 X80.978 Y123.313 E14.57739
G1 X80.834 Y123.141 E14.58784
G1 X80.292 Y122.377 E14.63145
G1 X80.116 Y122.081 E14.64749
G1 X79.802 Y121.474 E14.67931
G1 X79.607 Y120.976 E14.70422
G1 X79.54 Y120.779 E14.7139
G1 X79.361 Y120.135 E14.74503
G1 X79.319 Y119.941 E14.75427
G1 X79.214 Y119.266 E14.78608
G1 X79.188 Y118.826 E14.8066
G1 X79.16 Y117.403 E14.87288
G1 X79.161 Y92.099 E16.05114
G1 X79.185 Y91.225 E16.09185
G1 X79.225 Y90.719 E16.11549
G1 X79.319 Y90.042 E16.14731
G1 X79.456 Y89.492 E16.17371
G1 X79.529 Y89.25 E16.18548
G1 X79.764 Y88.609 E16.21727
G1 X80.047 Y88.035 E16.24707
G1 X80.548 Y87.241 E16.29078
G1 X80.76 Y86.958 E16.30725
G1 X81.201 Y86.436 E16.33907
G1 X81.665 Y85.998 E16.36878
M204 S3000
M205 X10 Y10
G0 F3000 X82.027 Y86.426
M204 S1800
M205 X8 Y8
G1 F2400 X82.201 Y86.279 E16.37938
G1 X82.914 Y85.771 E16.42015
G1 X83.209 Y85.596 E16.43612
G1 X83.787 Y85.299 E16.46638
G1 X84.386 Y85.075 E16.49616
G1 X85 Y84.905 E16.52583
G1 X85.197 Y84.863 E16.5352
G1 X85.84 Y84.767 E16.56548
G1 X86.186 Y84.748 E16.58161
G1 X87.575 Y84.72 E16.6463
G1 X122.864 Y84.72 E18.28951
G1 X123.386 Y84.727 E18.31382
G1 X123.731 Y84.743 E18.3299
G1 X124.237 Y84.783 E18.35353
G1 X124.88 Y84.874 E18.38377
G1 X125.588 Y85.065 E18.41792
G1 X126.197 Y85.29 E18.44815
G1 X126.793 Y85.592 E18.47926
G1 X127.382 Y85.956 E18.5115
G1 X127.919 Y86.375 E18.54322
G1 X128.592 Y87.047 E18.5875
G1 X128.736 Y87.219 E18.59795
G1 X129.229 Y87.914 E18.63763
G1 X129.404 Y88.209 E18.6536
G1 X129.701 Y88.787 E18.68386
G1 X129.925 Y89.386 E18.71363
G1 X130.091 Y89.984 E18.74253
G1 X130.133 Y90.178 E18.75178
G1 X130.232 Y90.82 E18.78202
G1 X130.252 Y91.182 E18.79891
G1 X130.28 Y92.556 E18.8629
G1 X130.28 Y117.851 E20.04074
G1 X130.273 Y118.384 E20.06556
G1 X130.257 Y118.731 E20.08173
G1 X130.217 Y119.237 E20.10537
G1 X130.126 Y119.88 E20.13561
G1 X129.935 Y120.588 E20.16975
G1 X129.709 Y121.197 E20.2
G1 X129.423 Y121.766 E20.22966
G1 X129.086 Y122.322 E20.25993
G1 X128.707 Y122.817 E20.28896
G1 X128.273 Y123.3 E20.3192
G1 X127.803 Y123.718 E20.34848
G1 X127.113 Y124.211 E20.38797
G1 X126.811 Y124.392 E20.40437
G1 X126.235 Y124.691 E20.43459
G1 X125.614 Y124.925 E20.46549
G1 X125 Y125.095 E20.49515
G1 X124.803 Y125.137 E20.50453
G1 X124.16 Y125.233 E20.5348
G1 X123.814 Y125.252 E20.55094
G1 X122.425 Y125.28 E20.61563
G1 X87.136 Y125.28 E22.25883
G1 X86.614 Y125.273 E22.28314
G1 X86.269 Y125.257 E22.29923
G1 X85.763 Y125.217 E22.32286
G1 X85.12 Y125.126 E22.3531
G1 X84.412 Y124.935 E22.38725
G1 X83.803 Y124.71 E22.41748
G1 X83.199 Y124.404 E22.449
G1 X82.41 Y123.886 E22.49295
G1 X82.18 Y123.704 E22.50661
G1 X81.696 Y123.271 E22.53685
G1 X81.264 Y122.781 E22.56727
G1 X80.774 Y122.09 E22.60671
G1 X80.598 Y121.794 E22.62275
G1 X80.301 Y121.217 E22.65297
G1 X80.07 Y120.599 E22.68369
G1 X79.909 Y120.016 E22.71185
G1 X79.867 Y119.822 E22.72109
G1 X79.768 Y119.18 E22.75134
G1 X79.748 Y118.814 E22.76841
G1 X79.72 Y117.403 E22.83412
G1 X79.721 Y92.106 E24.01206
G1 X79.743 Y91.269 E24.05105
G1 X79.783 Y90.763 E24.07468
G1 X79.874 Y90.12 E24.10492
G1 X80.065 Y89.412 E24.13907
G1 X80.29 Y88.803 E24.1693
G1 X80.543 Y88.295 E24.19572
G1 X80.996 Y87.576 E24.23529
G1 X81.208 Y87.293 E24.25176
G1 X81.629 Y86.798 E24.28202
G1 X82.027 Y86.426 E24.30738
M204 S3000
M205 X10 Y10
G1 F2400 E18.30738
;MESH:KitchenaidAccessoryHolder2.stl
G0 F3000 X86.078 Y89.374
G0 X86.575 Y90.859
G0 X123.568 Y91.467
M204 S1800
M205 X8 Y8
;TYPE:WALL-INNER
G1 F2400 E24.30738
G1 F1500 X123.6 Y91.63 E24.31512
G1 X123.6 Y118.37 E25.56025
G1 X123.533 Y118.568 E25.56998
G1 X123.37 Y118.6 E25.57771
G1 X86.63 Y118.6 E27.28848
G1 X86.432 Y118.533 E27.29822
G1 X86.4 Y118.37 E27.30595
G1 X86.4 Y91.63 E28.55108
G1 X86.467 Y91.432 E28.56081
G1 X86.63 Y91.4 E28.56854
G1 X123.37 Y91.4 E30.27931
G1 X123.568 Y91.467 E30.28905
M204 S3000
M205 X10 Y10
G0 F3000 X123.749 Y90.903
M204 S1800
M205 X8 Y8
G1 F1500 X123.958 Y91.042 E30.30073
G1 X124.097 Y91.251 E30.31242
G1 X124.16 Y91.574 E30.32775
G1 X124.16 Y118.426 E31.57809
G1 X124.097 Y118.749 E31.59341
G1 X123.958 Y118.958 E31.6051
G1 X123.749 Y119.097 E31.61679
G1 X123.426 Y119.16 E31.63211
G1 X86.574 Y119.16 E33.34809
G1 X86.251 Y119.097 E33.36342
G1 X86.042 Y118.958 E33.3751
G1 X85.903 Y118.749 E33.38679
G1 X85.84 Y118.426 E33.40212
G1 X85.84 Y91.574 E34.65246
G1 X85.903 Y91.251 E34.66778
G1 X86.042 Y91.042 E34.67947
G1 X86.251 Y90.903 E34.69116
G1 X86.574 Y90.84 E34.70648
G1 X123.426 Y90.84 E36.42246
G1 X123.749 Y90.903 E36.43779
M204 S3000
M205 X10 Y10
G0 F3000 X123.966 Y90.374
M204 S1800
M205 X8 Y8
;TYPE:WALL-OUTER
G1 F1500 X124.362 Y90.638 E36.45995
G1 X124.626 Y91.034 E36.48211
G1 X124.72 Y91.518 E36.50507
G1 X124.72 Y118.482 E37.76062
G1 X124.626 Y118.966 E37.78358
G1 X124.362 Y119.362 E37.80574
G1 X123.966 Y119.626 E37.82791
G1 X123.482 Y119.72 E37.85086
G1 X86.518 Y119.72 E39.57206
G1 X86.034 Y119.626 E39.59502
G1 X85.638 Y119.362 E39.61718
G1 X85.374 Y118.966 E39.63934
G1 X85.28 Y118.482 E39.6623
G1 X85.28 Y91.518 E40.91786
G1 X85.374 Y91.034 E40.94082
G1 X85.638 Y90.638 E40.96298
G1 X86.034 Y90.374 E40.98514
G1 X86.518 Y90.28 E41.0081
G1 X123.482 Y90.28 E42.7293
G1 X123.966 Y90.374 E42.75225
M204 S3000
M205 X10 Y10
G0 F3000 X124.132 Y90.485
G0 X123.766 Y91.034
G0 X123.05 Y91.95
M204 S1800
M205 X8 Y8
;TYPE:SKIN
G1 F1500 X123.05 Y118.05 E43.96758
G1 X86.95 Y118.05 E45.64855
G1 X86.95 Y91.95 E46.86387
G1 X123.05 Y91.95 E48.54484
M204 S3000
M205 X10 Y10
G0 F3000 X122.789 Y92.694
M204 S1800
M205 X8 Y8
G1 F1500 X122.304 Y92.209 E48.57678
M204 S3000
M205 X10 Y10
G0 F3000 X121.512 Y92.209
M204 S1800
M205 X8 Y8
G1 F1500 X122.789 Y93.486 E48.66087
M204 S3000
M205 X10 Y10
G0 F3000 X122.789 Y94.278
M204 S1800
M205 X8 Y8
G1 F1500 X120.72 Y92.209 E48.79712
M204 S3000
M205 X10 Y10
G0 F3000 X119.928 Y92.209
M204 S1800
M205 X8 Y8
G1 F1500 X122.789 Y95.07 E48.98552
M204 S3000
M205 X10 Y10
G0 F3000 X122.789 Y95.862
M204 S1800
M205 X8 Y8
G1 F1500 X119.136 Y92.209 E49.22608
M204 S3000
M205 X10 Y10
G0 F3000 X118.344 Y92.209
M204 S1800
M205 X8 Y8
G1 F1500 X122.789 Y96.654 E49.51879
M204 S3000
M205 X10 Y10
G0 F3000 X122.789 Y97.446
M204 S1800
M205 X8 Y8
G1 F1500 X117.552 Y92.209 E49.86365
M204 S3000
M205 X10 Y10
G0 F3000 X116.76 Y92.209
M204 S1800
M205 X8 Y8
G1 F1500 X122.789 Y98.238 E50.26067
M204 S3000
M205 X10 Y10
G0 F3000 X122.789 Y99.03
M204 S1800
M205 X8 Y8
G1 F1500 X115.968 Y92.209 E50.70985
M204 S3000
M205 X10 Y10
G0 F3000 X115.176 Y92.209
M204 S1800
M205 X8 Y8
G1 F1500 X122.789 Y99.822 E51.21118
M204 S3000
M205 X10 Y10
G0 F3000 X122.789 Y100.614
M204 S1800
M205 X8 Y8
G1 F1500 X114.384 Y92.209 E51.76466
M204 S3000
M205 X10 Y10
G0 F3000 X113.592 Y92.209
M204 S1800
M205 X8 Y8
G1 F1500 X122.789 Y101.406 E52.3703
M204 S3000
M205 X10 Y10
G0 F3000 X122.789 Y102.198
M204 S1800
M205 X8 Y8
G1 F1500 X112.8 Y92.209 E53.02809
M204 S3000
M205 X10 Y10
G0 F3000 X112.008 Y92.209
M204 S1800
M205 X8 Y8
G1 F1500 X122.789 Y102.99 E53.73804
M204 S3000
M205 X10 Y10
G0 F3000 X122.789 Y103.782
M204 S1800
M205 X8 Y8
G1 F1500 X111.216 Y92.209 E54.50014
M204 S3000
M205 X10 Y10
G0 F3000 X110.424 Y92.209
M204 S1800
M205 X8 Y8
G1 F1500 X122.789 Y104.574 E55.3144
M204 S3000
M205 X10 Y10
G0 F3000 X122.789 Y105.365
M204 S1800
M205 X8 Y8
G1 F1500 X109.632 Y92.209 E56.18077
M204 S3000
M205 X10 Y10
G0 F3000 X108.84 Y92.209
M204 S1800
M205 X8 Y8
G1 F1500 X122.789 Y106.157 E57.09931
M204 S3000
M205 X10 Y10
G0 F3000 X122.789 Y106.949
M204 S1800
M205 X8 Y8
G1 F1500 X108.048 Y92.209 E58.06999
M204 S3000
M205 X10 Y10
G0 F3000 X107.256 Y92.209
M204 S1800
M205 X8 Y8
G1 F1500 X122.789 Y107.741 E59.09283
M204 S3000
M205 X10 Y10
G0 F3000 X122.789 Y108.533
M204 S1800
M205 X8 Y8
G1 F1500 X106.464 Y92.209 E60.16783
M204 S3000
M205 X10 Y10
G0 F3000 X105.672 Y92.209
M204 S1800
M205 X8 Y8
G1 F1500 X122.789 Y109.325 E61.29498
M204 S3000
M205 X10 Y10
G0 F3000 X122.789 Y110.117
M204 S1800
M205 X8 Y8
G1 F1500 X104.88 Y92.209 E62.47429
M204 S3000
M205 X10 Y10
G0 F3000 X104.088 Y92.209
M204 S1800
M205 X8 Y8
G1 F1500 X122.789 Y110.909 E63.70575
M204 S3000
M205 X10 Y10
G0 F3000 X122.789 Y111.701
M204 S1800
M205 X8 Y8
G1 F1500 X103.296 Y92.209 E64.98936
M204 S3000
M205 X10 Y10
G0 F3000 X102.505 Y92.209
M204 S1800
M205 X8 Y8
G1 F1500 X122.789 Y112.493 E66.3251
M204 S3000
M205 X10 Y10
G0 F3000 X122.789 Y113.285
M204 S1800
M205 X8 Y8
G1 F1500 X101.713 Y92.209 E67.71299
M204 S3000
M205 X10 Y10
G0 F3000 X100.921 Y92.209
M204 S1800
M205 X8 Y8
G1 F1500 X122.789 Y114.077 E69.15303
M204 S3000
M205 X10 Y10
G0 F3000 X122.789 Y114.869
M204 S1800
M205 X8 Y8
G1 F1500 X100.129 Y92.209 E70.64523
M204 S3000
M205 X10 Y10
G0 F3000 X99.337 Y92.209
M204 S1800
M205 X8 Y8
G1 F1500 X122.789 Y115.661 E72.18959
M204 S3000
M205 X10 Y10
G0 F3000 X122.789 Y116.453
M204 S1800
M205 X8 Y8
G1 F1500 X98.545 Y92.209 E73.7861
M204 S3000
M205 X10 Y10
G0 F3000 X97.753 Y92.209
M204 S1800
M205 X8 Y8
G1 F1500 X122.789 Y117.245 E75.43476
M204 S3000
M205 X10 Y10
G0 F3000 X122.54 Y117.789
M204 S1800
