;FLAVOR:Marlin
;TIME:1145
;Filament used: 1.08579m
;Layer height: 0.2
;MINX:8.6
;MINY:8.1
;MINZ:0.2
;MAXX:201.4
;MAXY:201.9
;MAXZ:0.4
;Generated with Cura_SteamEngine 4.8.0
M140 S55
M105
M190 S55
M104 S200
M105
M109 S200
M82 ;absolute extrusion mode
; Script based on an original created by tjjfvi (https://github.com/tjjfvi)
; An up-to-date version of the tjjfvi's original script can be found
; here:  https://csi.t6.fyi/
; Note - This script will only work in Cura V4.2 and above!
; --- Global Settings
; layer_height = 0.2
; smooth_spiralized_contours = True
; magic_mesh_surface_mode = normal
; machine_extruder_count = 1
; --- Single Extruder Settings
; speed_z_hop = 10
; retraction_amount = 6
; retraction_hop = 0.075
; retraction_hop_enabled = True
; retraction_enable = True
; retraction_speed = 40
; retraction_retract_speed = 40
; retraction_prime_speed = 40
; speed_travel = 100


G21 ;metric values
G90 ;absolute positioning
M82 ;set extruder to absolute mode
M107 ;start with the fan off
G28 X0 Y0 ;move X/Y to min endstops
G28 Z0 ;move Z to min endstops
G1 Z15.0 F100 ;move the platform down 15mm
G92 E0 ;zero the extruded length
G1 F200 E3 ;extrude 3mm of feed stock
G92 E0 ;zero the extruded length again
G1 F100
G0 Y20 F100
M117 Printing...
G5
G92 E0
G92 E0
G1 F2400 E-6
;LAYER_COUNT:2
;LAYER:0
M106 S255
M204 S3000
M205 X10 Y10
G1 F600 Z0.275
G0 F3000 X10.533 Y9.935 Z0.275
M204 S1800
M205 X8 Y8
;TYPE:SKIRT
G1 F600 Z0.2
G1 F2400 E0
G1 X11.071 Y9.464 E0.0333
G1 X11.659 Y9.056 E0.06662
G1 X12.288 Y8.716 E0.09991
G1 X12.952 Y8.449 E0.13324
G1 X13.641 Y8.257 E0.16654
G1 X14.347 Y8.143 E0.19984
G1 X15.151 Y8.103 E0.23733
G1 X15.33 Y8.1 E0.24566
G1 X44.293 Y8.1 E1.5943
G1 X45.098 Y8.112 E1.63179
G1 X45.811 Y8.163 E1.66508
G1 X46.515 Y8.293 E1.69841
G1 X47.199 Y8.501 E1.7317
G1 X47.856 Y8.784 E1.76501
G1 X48.477 Y9.139 E1.79832
G1 X48.801 Y9.363 E1.81666
G1 X49.359 Y9.775 E1.84896
G1 X51.521 Y11.327 E1.97288
G1 X53.734 Y12.821 E2.09721
G1 X55.968 Y14.239 E2.22043
G1 X58.207 Y15.572 E2.34176
G1 X60.543 Y16.877 E2.46636
G1 X62.877 Y18.095 E2.58895
G1 X65.28 Y19.263 E2.71336
G1 X67.675 Y20.344 E2.83571
G1 X70.148 Y21.378 E2.96053
G1 X72.63 Y22.335 E3.08439
G1 X75.052 Y23.189 E3.20398
G1 X77.636 Y24.019 E3.33035
G1 X80.147 Y24.749 E3.45212
G1 X82.721 Y25.418 E3.57595
G1 X85.279 Y26.007 E3.69818
G1 X87.92 Y26.538 E3.82362
G1 X90.508 Y26.98 E3.94587
G1 X93.127 Y27.353 E4.06905
G1 X95.75 Y27.651 E4.19198
G1 X98.377 Y27.873 E4.31474
G1 X101.058 Y28.025 E4.43978
G1 X103.664 Y28.099 E4.56117
G1 X106.342 Y28.099 E4.68587
G1 X108.949 Y28.025 E4.80731
G1 X111.621 Y27.874 E4.93193
G1 X114.261 Y27.649 E5.05531
G1 X116.879 Y27.352 E5.17799
G1 X119.507 Y26.977 E5.3016
G1 X122.106 Y26.532 E5.42438
G1 X124.708 Y26.011 E5.54795
G1 X127.265 Y25.422 E5.67013
G1 X129.876 Y24.742 E5.79577
G1 X132.362 Y24.019 E5.91632
G1 X134.923 Y23.195 E6.04159
G1 X137.417 Y22.315 E6.16474
G1 X139.835 Y21.383 E6.28541
G1 X142.323 Y20.343 E6.41097
G1 X144.738 Y19.253 E6.53435
G1 X147.128 Y18.091 E6.65809
G1 X149.467 Y16.871 E6.78093
G1 X151.769 Y15.585 E6.90372
G1 X154.05 Y14.225 E7.02737
G1 X156.28 Y12.81 E7.15035
G1 X158.478 Y11.326 E7.27384
G1 X160.662 Y9.76 E7.39898
G1 X161.28 Y9.305 E7.43472
G1 X161.884 Y8.922 E7.46802
G1 X162.527 Y8.609 E7.50132
G1 X163.201 Y8.369 E7.53463
G1 X163.897 Y8.206 E7.56792
G1 X164.808 Y8.113 E7.61056
G1 X165.33 Y8.1 E7.63487
G1 X194.376 Y8.101 E8.98738
G1 X195.074 Y8.11 E9.01988
G1 X195.787 Y8.159 E9.05316
G1 X196.491 Y8.287 E9.08648
G1 X197.176 Y8.493 E9.11979
G1 X197.833 Y8.775 E9.15308
G1 X198.455 Y9.128 E9.18638
G1 X199.034 Y9.548 E9.21969
G1 X199.563 Y10.03 E9.25301
G1 X200.034 Y10.568 E9.28631
G1 X200.442 Y11.155 E9.31959
G1 X200.782 Y11.785 E9.35293
G1 X201.05 Y12.448 E9.38623
G1 X201.242 Y13.137 E9.41953
G1 X201.356 Y13.843 E9.45283
G1 X201.397 Y14.651 E9.4905
G1 X201.4 Y14.83 E9.49884
G1 X201.399 Y43.863 E10.85074
G1 X201.389 Y44.586 E10.88441
G1 X201.34 Y45.299 E10.91769
G1 X201.21 Y46.003 E10.95102
G1 X201.004 Y46.687 E10.98429
G1 X200.722 Y47.345 E11.01762
G1 X200.368 Y47.966 E11.0509
G1 X200.136 Y48.302 E11.06992
G1 X199.513 Y49.143 E11.11865
G1 X199.467 Y49.203 E11.12217
G1 X197.887 Y51.385 E11.24762
G1 X196.417 Y53.544 E11.36924
G1 X194.977 Y55.789 E11.49343
G1 X193.62 Y58.045 E11.61602
G1 X192.303 Y60.38 E11.74085
G1 X191.081 Y62.7 E11.86295
G1 X189.917 Y65.068 E11.98581
G1 X188.812 Y67.489 E12.10973
G1 X187.779 Y69.929 E12.23311
G1 X186.806 Y72.42 E12.35764
G1 X185.935 Y74.859 E12.47823
G1 X185.105 Y77.404 E12.60288
G1 X184.352 Y79.954 E12.72669
G1 X183.68 Y82.495 E12.84907
G1 X183.076 Y85.068 E12.97214
G1 X182.535 Y87.701 E13.09731
G1 X182.087 Y90.26 E13.21828
G1 X181.701 Y92.893 E13.34219
G1 X181.392 Y95.513 E13.46503
G1 X181.155 Y98.175 E13.58948
G1 X180.996 Y100.783 E13.71114
G1 X180.909 Y103.46 E13.83586
G1 X180.897 Y106.103 E13.95893
G1 X180.961 Y108.745 E14.08199
G1 X181.099 Y111.383 E14.20499
G1 X181.313 Y114.024 E14.32837
G1 X181.599 Y116.643 E14.45105
G1 X181.966 Y119.302 E14.57604
G1 X182.396 Y121.877 E14.6976
G1 X182.906 Y124.475 E14.82088
G1 X183.491 Y127.066 E14.94457
G1 X184.153 Y129.655 E15.069
G1 X184.877 Y132.186 E15.19158
G1 X185.673 Y134.695 E15.31415
G1 X186.55 Y137.214 E15.43835
G1 X187.466 Y139.621 E15.55827
G1 X188.5 Y142.128 E15.68455
G1 X189.582 Y144.55 E15.80807
G1 X190.722 Y146.921 E15.93057
G1 X191.947 Y149.292 E16.05484
G1 X193.21 Y151.578 E16.17645
G1 X194.569 Y153.881 E16.30097
G1 X195.982 Y156.128 E16.42457
G1 X197.45 Y158.322 E16.54749
G1 X198.497 Y159.808 E16.63213
G1 X199.184 Y160.762 E16.68687
G1 X199.568 Y161.365 E16.72016
G1 X199.884 Y162.007 E16.75348
G1 X200.125 Y162.68 E16.78677
G1 X200.29 Y163.376 E16.82007
G1 X200.387 Y164.307 E16.86366
G1 X200.4 Y164.83 E16.88802
G1 X200.399 Y193.852 E18.23941
G1 X200.389 Y194.579 E18.27326
G1 X200.34 Y195.293 E18.30659
G1 X200.211 Y195.996 E18.33987
G1 X200.004 Y196.681 E18.37319
G1 X199.722 Y197.338 E18.40648
G1 X199.368 Y197.96 E18.43981
G1 X198.948 Y198.538 E18.47308
G1 X198.465 Y199.066 E18.5064
G1 X197.927 Y199.537 E18.53969
G1 X197.339 Y199.945 E18.57302
G1 X196.709 Y200.285 E18.60635
G1 X196.046 Y200.552 E18.63963
G1 X195.357 Y200.743 E18.67293
G1 X194.651 Y200.857 E18.70623
G1 X193.85 Y200.897 E18.74357
G1 X193.67 Y200.9 E18.75195
G1 X164.616 Y200.899 E20.10483
G1 X163.913 Y200.889 E20.13757
G1 X163.199 Y200.839 E20.1709
G1 X162.496 Y200.71 E20.20418
G1 X161.811 Y200.503 E20.2375
G1 X161.154 Y200.22 E20.27081
G1 X160.348 Y199.743 E20.31442
G1 X159.671 Y199.271 E20.35285
G1 X158.632 Y198.526 E20.41238
G1 X156.439 Y197.047 E20.53555
G1 X154.154 Y195.597 E20.66156
G1 X151.933 Y194.275 E20.78191
G1 X149.615 Y192.983 E20.90548
G1 X147.269 Y191.759 E21.0287
G1 X144.864 Y190.591 E21.15319
G1 X142.451 Y189.502 E21.27647
G1 X139.984 Y188.47 E21.40099
G1 X137.586 Y187.55 E21.52058
G1 X135.023 Y186.646 E21.64713
G1 X132.559 Y185.854 E21.76765
G1 X129.963 Y185.101 E21.89351
G1 X127.421 Y184.441 E22.0158
G1 X124.858 Y183.85 E22.13828
G1 X122.225 Y183.325 E22.26329
G1 X119.645 Y182.884 E22.38517
G1 X117.014 Y182.51 E22.50891
G1 X114.404 Y182.215 E22.63122
G1 X111.76 Y181.99 E22.75478
G1 X109.122 Y181.842 E22.87781
G1 X106.447 Y181.767 E23.00242
G1 X103.805 Y181.769 E23.12544
G1 X101.191 Y181.844 E23.24721
G1 X98.528 Y181.995 E23.37141
G1 X95.896 Y182.22 E23.49441
G1 X93.246 Y182.523 E23.61861
G1 X90.619 Y182.897 E23.74217
G1 X88.058 Y183.337 E23.86317
G1 X85.43 Y183.865 E23.98798
G1 X82.876 Y184.453 E24.11002
G1 X80.273 Y185.131 E24.23527
G1 X77.77 Y185.86 E24.35666
G1 X75.223 Y186.68 E24.48126
G1 X72.729 Y187.562 E24.60444
G1 X70.268 Y188.511 E24.72726
G1 X67.812 Y189.539 E24.85123
G1 X65.424 Y190.618 E24.97325
G1 X63.02 Y191.788 E25.09775
G1 X60.685 Y193.007 E25.2204
G1 X58.37 Y194.302 E25.34391
G1 X56.117 Y195.645 E25.46605
G1 X53.846 Y197.087 E25.59131
G1 X51.691 Y198.544 E25.71244
G1 X49.489 Y200.125 E25.83866
G1 X48.898 Y200.567 E25.87303
G1 X48.731 Y200.687 E25.8826
G1 X48.127 Y201.072 E25.91596
G1 X47.485 Y201.386 E25.94924
G1 X46.812 Y201.627 E25.98252
G1 X46.115 Y201.791 E26.01586
G1 X45.192 Y201.887 E26.05907
G1 X44.67 Y201.9 E26.08339
G1 X15.624 Y201.899 E27.43589
G1 X14.926 Y201.89 E27.4684
G1 X14.213 Y201.841 E27.50167
G1 X13.509 Y201.713 E27.53499
G1 X12.824 Y201.507 E27.5683
G1 X12.167 Y201.225 E27.60159
G1 X11.545 Y200.872 E27.63489
G1 X10.966 Y200.452 E27.6682
G1 X10.437 Y199.97 E27.70153
G1 X9.966 Y199.432 E27.73482
G1 X9.558 Y198.845 E27.76811
G1 X9.218 Y198.215 E27.80144
G1 X8.95 Y197.552 E27.83474
G1 X8.758 Y196.863 E27.86805
G1 X8.644 Y196.157 E27.90135
G1 X8.602 Y195.331 E27.93986
G1 X8.6 Y195.158 E27.94791
G1 X8.601 Y166.116 E29.30023
G1 X8.611 Y165.413 E29.33297
G1 X8.661 Y164.699 E29.3663
G1 X8.79 Y163.996 E29.39958
G1 X8.997 Y163.311 E29.4329
G1 X9.28 Y162.654 E29.46621
G1 X9.633 Y162.033 E29.49947
G1 X9.863 Y161.7 E29.51832
G1 X10.632 Y160.66 E29.57854
G1 X12.204 Y158.469 E29.70411
G1 X13.668 Y156.302 E29.82588
G1 X15.096 Y154.053 E29.94993
G1 X16.457 Y151.768 E30.07378
G1 X17.751 Y149.452 E30.19731
G1 X18.958 Y147.142 E30.31867
G1 X20.131 Y144.729 E30.4436
G1 X21.215 Y142.328 E30.56627
G1 X22.236 Y139.888 E30.68943
G1 X23.214 Y137.356 E30.81582
G1 X24.063 Y134.944 E30.93489
G1 X24.886 Y132.384 E31.0601
G1 X25.62 Y129.863 E31.18237
G1 X26.294 Y127.27 E31.30712
G1 X26.881 Y124.727 E31.42864
G1 X27.408 Y122.109 E31.553
G1 X27.853 Y119.502 E31.67614
G1 X28.225 Y116.889 E31.79904
G1 X28.525 Y114.257 E31.92239
G1 X28.749 Y111.626 E32.04535
G1 X28.9 Y108.954 E32.16996
G1 X28.975 Y106.344 E32.29155
G1 X28.975 Y103.7 E32.41466
G1 X28.9 Y101.027 E32.53918
G1 X28.75 Y98.381 E32.66259
G1 X28.528 Y95.753 E32.78539
G1 X28.228 Y93.116 E32.90897
G1 X27.86 Y90.521 E33.03102
G1 X27.41 Y87.899 E33.15489
G1 X26.894 Y85.319 E33.27741
G1 X26.296 Y82.725 E33.40136
G1 X25.625 Y80.146 E33.52545
G1 X24.886 Y77.601 E33.64885
G1 X24.08 Y75.092 E33.77156
G1 X23.21 Y72.625 E33.89337
G1 X22.257 Y70.155 E34.01665
G1 X21.224 Y67.678 E34.14161
G1 X20.143 Y65.283 E34.26397
G1 X18.975 Y62.879 E34.38842
G1 X17.762 Y60.553 E34.51057
G1 X16.455 Y58.212 E34.63542
G1 X15.121 Y55.973 E34.75678
G1 X13.69 Y53.718 E34.88114
G1 X12.222 Y51.544 E35.00329
G1 X10.638 Y49.334 E35.1299
G1 X9.891 Y48.338 E35.18787
G1 X9.494 Y47.743 E35.22117
G1 X9.166 Y47.107 E35.2545
G1 X8.912 Y46.438 E35.28782
G1 X8.733 Y45.746 E35.3211
G1 X8.613 Y44.693 E35.37045
G1 X8.6 Y44.17 E35.39481
G1 X8.601 Y15.087 E36.74904
G1 X8.61 Y14.422 E36.78
G1 X8.659 Y13.709 E36.81328
G1 X8.788 Y13.005 E36.84661
G1 X8.995 Y12.321 E36.87989
G1 X9.277 Y11.663 E36.91322
G1 X9.63 Y11.041 E36.94652
G1 X10.05 Y10.463 E36.97979
G1 X10.533 Y9.935 E37.01311
M204 S3000
M205 X10 Y10
G0 F3000 X11.08 Y10.188
M204 S1800
M205 X8 Y8
G1 F2400 X11.612 Y9.759 E37.04494
G1 X12.19 Y9.394 E37.07677
G1 X12.807 Y9.1 E37.10859
G1 X13.453 Y8.88 E37.14037
G1 X14.121 Y8.737 E37.17218
G1 X14.845 Y8.671 E37.20603
G1 X15.33 Y8.66 E37.22862
G1 X44.293 Y8.66 E38.57726
G1 X45.089 Y8.672 E38.61433
G1 X45.77 Y8.722 E38.64612
G1 X46.441 Y8.852 E38.67795
G1 X47.092 Y9.059 E38.70976
G1 X47.715 Y9.341 E38.7416
G1 X48.468 Y9.814 E38.78301
G1 X48.977 Y10.19 E38.81247
G1 X51.216 Y11.797 E38.94081
G1 X53.423 Y13.287 E39.0648
G1 X55.659 Y14.707 E39.18814
G1 X57.941 Y16.065 E39.31179
G1 X60.274 Y17.369 E39.43624
G1 X62.639 Y18.602 E39.56044
G1 X65.026 Y19.762 E39.68401
G1 X67.466 Y20.864 E39.80868
G1 X69.92 Y21.89 E39.93253
G1 X72.438 Y22.862 E40.05822
G1 X74.914 Y23.734 E40.18045
G1 X77.443 Y24.546 E40.30413
G1 X79.994 Y25.288 E40.42784
G1 X82.59 Y25.963 E40.55274
G1 X85.188 Y26.561 E40.67688
G1 X87.785 Y27.083 E40.80022
G1 X90.409 Y27.531 E40.92417
G1 X93.055 Y27.908 E41.04863
G1 X95.709 Y28.209 E41.173
G1 X98.336 Y28.432 E41.29577
G1 X101.01 Y28.583 E41.42048
G1 X103.683 Y28.659 E41.54499
G1 X106.323 Y28.659 E41.66792
G1 X108.997 Y28.583 E41.79248
G1 X111.663 Y28.432 E41.91682
G1 X114.302 Y28.208 E42.04015
G1 X116.951 Y27.907 E42.16429
G1 X119.606 Y27.529 E42.28917
G1 X122.207 Y27.083 E42.41205
G1 X124.8 Y26.564 E42.53518
G1 X127.429 Y25.958 E42.66081
G1 X129.996 Y25.289 E42.78433
G1 X132.587 Y24.536 E42.90997
G1 X135.061 Y23.74 E43.03099
G1 X137.627 Y22.834 E43.1577
G1 X140.044 Y21.903 E43.27831
G1 X142.562 Y20.851 E43.40538
G1 X144.963 Y19.766 E43.52806
G1 X147.366 Y18.598 E43.65247
G1 X149.735 Y17.363 E43.77687
G1 X152.051 Y16.069 E43.90041
G1 X154.344 Y14.702 E44.02471
G1 X156.592 Y13.276 E44.14867
G1 X158.8 Y11.784 E44.27276
G1 X160.975 Y10.225 E44.39737
G1 X161.381 Y9.922 E44.42096
G1 X161.606 Y9.761 E44.43384
G1 X162.184 Y9.396 E44.46567
G1 X162.8 Y9.102 E44.49745
G1 X163.447 Y8.881 E44.52929
G1 X164.115 Y8.738 E44.5611
G1 X164.825 Y8.673 E44.5943
G1 X165.33 Y8.66 E44.61782
G1 X194.368 Y8.66 E45.96995
G1 X195.066 Y8.669 E46.00246
G1 X195.748 Y8.718 E46.0343
G1 X196.419 Y8.846 E46.0661
G1 X197.07 Y9.052 E46.0979
G1 X197.694 Y9.332 E46.12975
G1 X198.28 Y9.683 E46.16155
G1 X198.821 Y10.1 E46.19336
G1 X199.31 Y10.578 E46.2252
G1 X199.739 Y11.109 E46.25699
G1 X200.104 Y11.687 E46.28882
G1 X200.398 Y12.303 E46.3206
G1 X200.619 Y12.95 E46.35244
G1 X200.763 Y13.618 E46.38426
G1 X200.829 Y14.345 E46.41825
G1 X200.84 Y14.83 E46.44084
G1 X200.839 Y43.855 E47.79236
G1 X200.829 Y44.578 E47.82603
G1 X200.78 Y45.259 E47.85782
G1 X200.651 Y45.93 E47.88964
G1 X200.445 Y46.582 E47.92148
G1 X200.164 Y47.204 E47.95326
G1 X199.686 Y47.969 E47.99526
G1 X199.068 Y48.803 E48.0436
G1 X199.003 Y48.888 E48.04858
G1 X197.442 Y51.044 E48.17253
G1 X195.942 Y53.246 E48.29659
G1 X194.502 Y55.491 E48.42078
G1 X193.138 Y57.759 E48.54402
G1 X191.821 Y60.095 E48.66889
G1 X190.585 Y62.442 E48.7924
G1 X189.406 Y64.838 E48.91675
G1 X188.294 Y67.276 E49.04152
G1 X187.269 Y69.697 E49.16394
G1 X186.277 Y72.236 E49.29087
G1 X185.395 Y74.706 E49.413
G1 X184.58 Y77.206 E49.53544
G1 X183.815 Y79.797 E49.66123
G1 X183.135 Y82.368 E49.78507
G1 X182.531 Y84.937 E49.90795
G1 X181.986 Y87.589 E50.03402
G1 X181.53 Y90.198 E50.15735
G1 X181.146 Y92.815 E50.28051
G1 X180.833 Y95.467 E50.40486
G1 X180.597 Y98.126 E50.52916
G1 X180.436 Y100.765 E50.65227
G1 X180.349 Y103.44 E50.77689
G1 X180.337 Y106.114 E50.90141
G1 X180.401 Y108.752 E51.02428
G1 X180.541 Y111.423 E51.14882
G1 X180.754 Y114.06 E51.27201
G1 X181.047 Y116.746 E51.39783
G1 X181.409 Y119.368 E51.52108
G1 X181.844 Y121.968 E51.64382
G1 X182.361 Y124.604 E51.76891
G1 X182.952 Y127.218 E51.8937
G1 X183.604 Y129.77 E52.01635
G1 X184.337 Y132.333 E52.14048
G1 X185.153 Y134.904 E52.26608
G1 X186.018 Y137.389 E52.3886
G1 X186.957 Y139.857 E52.51156
G1 X187.985 Y142.35 E52.63712
G1 X189.066 Y144.77 E52.76054
G1 X190.227 Y147.184 E52.88527
G1 X191.445 Y149.542 E53.00885
G1 X192.739 Y151.883 E53.1334
G1 X194.073 Y154.144 E53.25564
G1 X195.519 Y156.443 E53.38211
G1 X196.993 Y158.646 E53.50553
G1 X198.042 Y160.135 E53.59034
G1 X198.729 Y161.089 E53.64509
G1 X199.095 Y161.666 E53.6769
G1 X199.391 Y162.282 E53.70873
G1 X199.614 Y162.928 E53.74055
G1 X199.759 Y163.595 E53.77233
G1 X199.827 Y164.324 E53.80643
G1 X199.84 Y164.83 E53.82999
G1 X199.839 Y193.844 E55.18101
G1 X199.829 Y194.571 E55.21486
G1 X199.78 Y195.253 E55.2467
G1 X199.652 Y195.924 E55.27851
G1 X199.445 Y196.575 E55.31032
G1 X199.165 Y197.198 E55.34212
G1 X198.813 Y197.784 E55.37395
G1 X198.396 Y198.325 E55.40576
G1 X197.918 Y198.813 E55.43757
G1 X197.386 Y199.242 E55.46939
G1 X196.808 Y199.606 E55.5012
G1 X196.191 Y199.9 E55.53302
G1 X195.544 Y200.12 E55.56484
G1 X194.876 Y200.263 E55.59665
G1 X194.154 Y200.329 E55.63041
G1 X193.67 Y200.34 E55.65296
G1 X164.624 Y200.339 E57.00546
G1 X163.921 Y200.329 E57.0382
