;FLAVOR:Marlin
;TIME:7064
;Filament used: 5.47471m
;Layer height: 0.2
;MINX:69.4
;MINY:60.749
;MINZ:0.2
;MAXX:140.6
;MAXY:149.25
;MAXZ:4.8
;Generated with Cura_SteamEngine 4.8.0
M140 S55
M105
M190 S55
M104 S200
M105
M109 S200
M82 ;absolute extrusion mode
; Script based on an original created by tjjfvi (https://github.com/tjjfvi)
; An up-to-date version of the tjjfvi's original script can be found
; here:  https://csi.t6.fyi/
; Note - This script will only work in Cura V4.2 and above!
; --- Global Settings
; layer_height = 0.2
; smooth_spiralized_contours = True
; magic_mesh_surface_mode = normal
; machine_extruder_count = 1
; --- Single Extruder Settings
; speed_z_hop = 10
; retraction_amount = 6
; retraction_hop = 0.075
; retraction_hop_enabled = True
; retraction_enable = True
; retraction_speed = 40
; retraction_retract_speed = 40
; retraction_prime_speed = 40
; speed_travel = 100


G21 ;metric values
G90 ;absolute positioning
M82 ;set extruder to absolute mode
M107 ;start with the fan off
G28 X0 Y0 ;move X/Y to min endstops
G28 Z0 ;move Z to min endstops
G1 Z15.0 F100 ;move the platform down 15mm
G92 E0 ;zero the extruded length
G1 F200 E3 ;extrude 3mm of feed stock
G92 E0 ;zero the extruded length again
G1 F100
G0 Y20 F100
M117 Printing...
G5
G92 E0
G92 E0
G1 F2400 E-6
;LAYER_COUNT:24
;LAYER:0
M106 S255
M204 S3000
M205 X10 Y10
G1 F600 Z0.275
G0 F3000 X70.854 Y63.107 Z0.275
M204 S1800
M205 X8 Y8
;TYPE:SKIRT
G1 F600 Z0.2
G1 F2400 E0
G1 X71.337 Y62.579 E0.03332
G1 X71.876 Y62.109 E0.06662
G1 X72.464 Y61.702 E0.09992
G1 X73.094 Y61.362 E0.13325
G1 X73.758 Y61.096 E0.16656
G1 X74.447 Y60.905 E0.19985
G1 X75.153 Y60.792 E0.23315
G1 X75.949 Y60.752 E0.27026
G1 X76.129 Y60.749 E0.27864
G1 X133.586 Y60.751 E2.95408
G1 X134.283 Y60.761 E2.98654
G1 X134.996 Y60.811 E3.01982
G1 X135.7 Y60.94 E3.05315
G1 X136.384 Y61.148 E3.08644
G1 X137.042 Y61.43 E3.11977
G1 X137.663 Y61.784 E3.15306
G1 X138.241 Y62.205 E3.18635
G1 X138.769 Y62.688 E3.21967
G1 X139.239 Y63.226 E3.25294
G1 X139.647 Y63.814 E3.28626
G1 X139.986 Y64.444 E3.31958
G1 X140.253 Y65.108 E3.3529
G1 X140.444 Y65.797 E3.38619
G1 X140.557 Y66.503 E3.41949
G1 X140.597 Y67.3 E3.45665
G1 X140.6 Y67.48 E3.46503
G1 X140.599 Y141.292 E6.90202
G1 X140.588 Y142.037 E6.93672
G1 X140.538 Y142.751 E6.97005
G1 X140.427 Y143.399 E7.00066
G1 X140.254 Y144.093 E7.03396
G1 X139.975 Y144.829 E7.07062
G1 X139.875 Y145.051 E7.08195
G1 X139.546 Y145.685 E7.11521
G1 X139.147 Y146.279 E7.14853
G1 X138.709 Y146.806 E7.18044
G1 X138.209 Y147.318 E7.21376
G1 X137.514 Y147.872 E7.25515
G1 X137.302 Y148.018 E7.26714
G1 X136.691 Y148.39 E7.30045
G1 X136.043 Y148.692 E7.33373
G1 X135.324 Y148.93 E7.369
G1 X134.771 Y149.067 E7.39553
G1 X134.067 Y149.194 E7.42884
G1 X133.487 Y149.238 E7.45592
G1 X132.998 Y149.25 E7.4787
G1 X77.324 Y149.249 E10.07112
G1 X76.627 Y149.239 E10.10357
G1 X75.824 Y149.177 E10.14108
G1 X75.284 Y149.084 E10.16659
G1 X75.057 Y149.035 E10.17741
G1 X74.367 Y148.845 E10.21073
G1 X73.558 Y148.51 E10.2515
G1 X73.379 Y148.421 E10.26081
G1 X72.757 Y148.067 E10.29414
G1 X72.021 Y147.513 E10.33703
G1 X71.841 Y147.356 E10.34815
G1 X71.329 Y146.857 E10.38144
G1 X70.773 Y146.158 E10.42303
G1 X70.628 Y145.947 E10.43495
G1 X70.257 Y145.336 E10.46824
G1 X69.956 Y144.687 E10.50155
G1 X69.721 Y143.979 E10.53629
G1 X69.579 Y143.409 E10.56364
G1 X69.455 Y142.705 E10.59693
G1 X69.412 Y142.135 E10.62354
G1 X69.4 Y141.644 E10.64641
G1 X69.4 Y67.754 E14.08704
G1 X69.41 Y67.065 E14.11913
G1 X69.46 Y66.352 E14.15241
G1 X69.59 Y65.648 E14.18574
G1 X69.797 Y64.964 E14.21902
G1 X70.079 Y64.307 E14.25231
G1 X70.433 Y63.685 E14.28564
G1 X70.854 Y63.107 E14.31893
M204 S3000
M205 X10 Y10
G0 F3000 X71.406 Y63.321
M204 S1800
M205 X8 Y8
G1 F2400 X71.885 Y62.833 E14.35077
G1 X72.417 Y62.404 E14.3826
G1 X72.995 Y62.041 E14.41438
G1 X73.612 Y61.747 E14.4462
G1 X74.259 Y61.527 E14.47803
G1 X74.927 Y61.385 E14.50983
G1 X75.645 Y61.32 E14.5434
G1 X76.129 Y61.309 E14.56594
G1 X133.578 Y61.311 E17.241
G1 X134.275 Y61.321 E17.27346
G1 X134.956 Y61.37 E17.30525
G1 X135.627 Y61.499 E17.33707
G1 X136.278 Y61.706 E17.36888
G1 X136.901 Y61.987 E17.4007
G1 X137.487 Y62.339 E17.43254
G1 X138.027 Y62.757 E17.46433
G1 X138.515 Y63.235 E17.49614
G1 X138.944 Y63.767 E17.52796
G1 X139.308 Y64.345 E17.55977
G1 X139.602 Y64.962 E17.5916
G1 X139.821 Y65.609 E17.6234
G1 X139.964 Y66.277 E17.65521
G1 X140.029 Y66.996 E17.68883
G1 X140.04 Y67.48 E17.71137
G1 X140.039 Y141.284 E21.14799
G1 X140.028 Y142.029 E21.18269
G1 X139.926 Y143.037 E21.22986
G1 X139.877 Y143.294 E21.24205
G1 X139.71 Y143.956 E21.27384
G1 X139.465 Y144.599 E21.30588
G1 X139.365 Y144.821 E21.31722
G1 X139.048 Y145.426 E21.34902
G1 X138.663 Y145.99 E21.38082
G1 X138.287 Y146.438 E21.40805
G1 X137.808 Y146.926 E21.43989
G1 X137.196 Y147.411 E21.47625
G1 X136.984 Y147.557 E21.48824
G1 X136.4 Y147.911 E21.52004
G1 X135.778 Y148.194 E21.55186
G1 X135.18 Y148.389 E21.58115
G1 X134.642 Y148.523 E21.60696
G1 X133.969 Y148.642 E21.63879
G1 X133.47 Y148.678 E21.66208
G1 X132.998 Y148.69 E21.68407
G1 X77.332 Y148.689 E24.27611
G1 X76.635 Y148.679 E24.30857
G1 X75.903 Y148.623 E24.34275
G1 X75.402 Y148.537 E24.36642
G1 X75.175 Y148.488 E24.37724
G1 X74.516 Y148.305 E24.40909
G1 X73.807 Y148.008 E24.44488
G1 X73.628 Y147.919 E24.45419
G1 X73.035 Y147.58 E24.48599
G1 X72.389 Y147.091 E24.52372
G1 X72.209 Y146.934 E24.53484
G1 X71.722 Y146.456 E24.56662
G1 X71.235 Y145.841 E24.60314
G1 X71.09 Y145.63 E24.61507
G1 X70.737 Y145.045 E24.64688
G1 X70.454 Y144.423 E24.6787
G1 X70.262 Y143.834 E24.70755
G1 X70.125 Y143.281 E24.73408
G1 X70.007 Y142.608 E24.76589
G1 X69.963 Y141.82 E24.80264
G1 X69.96 Y141.644 E24.81084
G1 X69.96 Y67.762 E28.25109
G1 X69.97 Y67.073 E28.28318
G1 X70.019 Y66.392 E28.31497
G1 X70.149 Y65.721 E28.3468
G1 X70.355 Y65.07 E28.37859
G1 X70.636 Y64.447 E28.41042
G1 X70.988 Y63.861 E28.44225
G1 X71.406 Y63.321 E28.47404
M204 S3000
M205 X10 Y10
G0 F3000 X71.543 Y64.047
M204 S1800
M205 X8 Y8
G1 F2400 X71.957 Y63.547 E28.50427
G1 X72.43 Y63.101 E28.53454
G1 X72.954 Y62.717 E28.56479
G1 X73.521 Y62.4 E28.59504
G1 X74.122 Y62.155 E28.62526
G1 X74.749 Y61.985 E28.65551
G1 X75.661 Y61.88 E28.69826
G1 X76.129 Y61.869 E28.72006
G1 X133.57 Y61.871 E31.39475
G1 X134.267 Y61.881 E31.42721
G1 X134.914 Y61.93 E31.45742
G1 X135.551 Y62.058 E31.48768
G1 X136.167 Y62.264 E31.51792
G1 X136.754 Y62.544 E31.54821
G1 X137.301 Y62.893 E31.57842
G1 X137.802 Y63.308 E31.60871
G1 X138.247 Y63.78 E31.63892
G1 X138.632 Y64.304 E31.6692
G1 X138.949 Y64.871 E31.69944
G1 X139.194 Y65.472 E31.72966
G1 X139.363 Y66.099 E31.7599
G1 X139.469 Y67.012 E31.8027
G1 X139.48 Y67.48 E31.8245
G1 X139.479 Y141.276 E35.26075
G1 X139.468 Y142.021 E35.29544
G1 X139.376 Y142.932 E35.33808
G1 X139.327 Y143.189 E35.35026
G1 X139.166 Y143.818 E35.3805
G1 X138.954 Y144.369 E35.40799
G1 X138.854 Y144.591 E35.41932
G1 X138.551 Y145.165 E35.44955
G1 X138.02 Y145.891 E35.49143
G1 X137.864 Y146.07 E35.50249
G1 X137.408 Y146.533 E35.53275
G1 X136.879 Y146.95 E35.56411
G1 X136.667 Y147.096 E35.5761
G1 X136.11 Y147.43 E35.60634
G1 X135.517 Y147.694 E35.63656
G1 X135.035 Y147.848 E35.66013
G1 X134.512 Y147.978 E35.68522
G1 X133.872 Y148.089 E35.71547
G1 X133.16 Y148.128 E35.74867
G1 X132.998 Y148.13 E35.75621
G1 X77.34 Y148.129 E38.34788
G1 X76.643 Y148.119 E38.38034
G1 X75.981 Y148.068 E38.41126
G1 X75.293 Y147.94 E38.44384
G1 X74.668 Y147.764 E38.47408
G1 X74.056 Y147.507 E38.50499
G1 X73.877 Y147.418 E38.5143
G1 X73.314 Y147.093 E38.54457
G1 X72.757 Y146.669 E38.57716
G1 X72.577 Y146.512 E38.58828
G1 X72.115 Y146.056 E38.61851
G1 X71.696 Y145.523 E38.65008
G1 X71.551 Y145.312 E38.662
G1 X71.217 Y144.755 E38.69224
G1 X70.954 Y144.162 E38.72245
G1 X70.766 Y143.551 E38.75222
G1 X70.67 Y143.153 E38.77128
G1 X70.56 Y142.512 E38.80156
G1 X70.522 Y141.803 E38.83462
G1 X70.52 Y141.644 E38.84203
G1 X70.52 Y67.77 E42.28191
G1 X70.53 Y67.081 E42.314
G1 X70.579 Y66.434 E42.34421
G1 X70.707 Y65.797 E42.37447
G1 X70.913 Y65.181 E42.40471
G1 X71.193 Y64.594 E42.43499
G1 X71.543 Y64.047 E42.46523
M204 S3000
M205 X10 Y10
G1 F2400 E36.46523
;MESH:Mounting_Plate.stl
G0 F3000 X75.134 Y68.003
G0 X76.653 Y68.003
G0 X77.479 Y68.549
M204 S1800
M205 X8 Y8
;TYPE:WALL-INNER
G1 F2400 E42.46523
G1 F1500 X132.8 Y68.55 E45.04121
G1 X132.8 Y141.171 E48.42275
G1 X132.8 Y141.451 E48.43579
G1 X132.52 Y141.451 E48.44423
G1 X77.199 Y141.45 E51.0202
G1 X77.199 Y68.829 E54.40174
G1 X77.199 Y68.549 E54.41478
G1 X77.479 Y68.549 E54.42322
M204 S3000
M205 X10 Y10
G0 F3000 X106.786 Y93.992
M204 S1800
M205 X8 Y8
G1 F1500 X106.017 Y93.687 E54.46174
G1 X105.199 Y93.591 E54.50009
G1 X104.385 Y93.709 E54.53839
G1 X103.627 Y94.035 E54.57681
G1 X102.979 Y94.546 E54.61524
G1 X102.486 Y95.206 E54.6536
G1 X102.184 Y95.963 E54.69155
G1 X102.092 Y96.658 E54.72419
G1 X102.092 Y102.85 E55.01252
G1 X102.201 Y103.607 E55.04813
G1 X102.528 Y104.365 E55.08657
G1 X103.037 Y105.011 E55.12487
G1 X103.697 Y105.507 E55.16331
G1 X104.465 Y105.813 E55.20181
G1 X105.285 Y105.909 E55.24025
G1 X106.099 Y105.791 E55.27855
G1 X106.857 Y105.467 E55.31693
G1 X107.506 Y104.954 E55.35546
G1 X107.999 Y104.294 E55.39381
G1 X108.301 Y103.535 E55.43185
G1 X108.392 Y102.84 E55.46449
G1 X108.392 Y96.65 E55.75272
G1 X108.284 Y95.894 E55.78828
G1 X107.957 Y95.135 E55.82677
G1 X107.449 Y94.489 E55.86503
G1 X106.786 Y93.992 E55.90362
M204 S3000
M205 X10 Y10
G0 F3000 X107.778 Y96.037
G0 X107.871 Y102.194
G0 X106.786 Y124.492
M204 S1800
M205 X8 Y8
G1 F1500 X106.017 Y124.187 E55.94214
G1 X105.199 Y124.091 E55.98049
G1 X104.385 Y124.209 E56.01879
G1 X103.627 Y124.535 E56.05721
G1 X102.979 Y125.046 E56.09564
G1 X102.486 Y125.706 E56.134
G1 X102.184 Y126.463 E56.17195
G1 X102.092 Y127.158 E56.20459
G1 X102.092 Y133.35 E56.49292
G1 X102.201 Y134.107 E56.52853
G1 X102.528 Y134.865 E56.56697
G1 X103.037 Y135.511 E56.60526
G1 X103.697 Y136.007 E56.64371
G1 X104.465 Y136.313 E56.6822
G1 X105.285 Y136.409 E56.72065
G1 X106.099 Y136.291 E56.75895
G1 X106.857 Y135.967 E56.79733
G1 X107.506 Y135.454 E56.83585
G1 X107.999 Y134.794 E56.87421
G1 X108.301 Y134.035 E56.91225
G1 X108.392 Y133.34 E56.94489
G1 X108.392 Y127.15 E57.23312
G1 X108.284 Y126.394 E57.26868
G1 X107.957 Y125.635 E57.30716
G1 X107.449 Y124.989 E57.34543
G1 X106.786 Y124.492 E57.38401
M204 S3000
M205 X10 Y10
G0 F3000 X106.51 Y124.985
M204 S1800
M205 X8 Y8
G1 F1500 X105.879 Y124.735 E57.41562
G1 X105.207 Y124.656 E57.44712
G1 X104.538 Y124.753 E57.4786
G1 X103.916 Y125.02 E57.51012
G1 X103.384 Y125.44 E57.54168
G1 X102.979 Y125.982 E57.57319
G1 X102.73 Y126.606 E57.60447
G1 X102.652 Y127.195 E57.63214
G1 X102.652 Y133.31 E57.91688
G1 X102.745 Y133.954 E57.94717
G1 X103.013 Y134.576 E57.97871
G1 X103.432 Y135.107 E58.01021
G1 X103.974 Y135.514 E58.04177
G1 X104.604 Y135.765 E58.07335
G1 X105.277 Y135.844 E58.1049
G1 X105.946 Y135.747 E58.13638
G1 X106.568 Y135.481 E58.16788
G1 X107.101 Y135.06 E58.1995
G1 X107.506 Y134.518 E58.23101
G1 X107.755 Y133.893 E58.26234
G1 X107.832 Y133.304 E58.29
G1 X107.832 Y127.19 E58.57469
G1 X107.74 Y126.547 E58.60493
G1 X107.472 Y125.924 E58.63651
G1 X107.054 Y125.393 E58.66798
G1 X106.51 Y124.985 E58.69965
M204 S3000
M205 X10 Y10
G0 F3000 X106.558 Y124.898
G0 X107.871 Y102.806
G0 X107.871 Y96.688
G0 X107.506 Y95.404
G0 X106.558 Y94.398
G0 X106.51 Y94.485
M204 S1800
M205 X8 Y8
G1 F1500 X105.879 Y94.235 E58.73125
G1 X105.207 Y94.156 E58.76276
G1 X104.538 Y94.253 E58.79423
G1 X103.916 Y94.52 E58.82575
G1 X103.384 Y94.94 E58.85731
G1 X102.979 Y95.482 E58.88882
G1 X102.73 Y96.106 E58.9201
G1 X102.652 Y96.695 E58.94777
G1 X102.652 Y102.81 E59.23251
G1 X102.745 Y103.454 E59.26281
G1 X103.013 Y104.076 E59.29434
G1 X103.432 Y104.607 E59.32584
G1 X103.974 Y105.014 E59.3574
G1 X104.604 Y105.265 E59.38898
G1 X105.277 Y105.344 E59.42053
G1 X105.946 Y105.247 E59.45201
G1 X106.568 Y104.981 E59.48351
G1 X107.101 Y104.56 E59.51514
G1 X107.506 Y104.018 E59.54664
G1 X107.755 Y103.393 E59.57797
G1 X107.832 Y102.804 E59.60563
G1 X107.832 Y96.69 E59.89032
G1 X107.74 Y96.047 E59.92057
G1 X107.472 Y95.424 E59.95215
G1 X107.054 Y94.893 E59.98362
G1 X106.51 Y94.485 E60.01528
M204 S3000
M205 X10 Y10
G0 F3000 X106.558 Y94.398
G0 X76.918 Y68.089
G0 X76.919 Y67.989
M204 S1800
M205 X8 Y8
G1 F1500 X133.36 Y67.99 E62.64341
G1 X133.36 Y141.677 E66.07458
G1 X133.36 Y141.856 E66.08292
G1 X133.318 Y141.97 E66.08858
G1 X133.23 Y142.011 E66.0931
G1 X133.051 Y142.011 E66.10143
G1 X76.794 Y142.01 E68.72099
G1 X76.68 Y141.968 E68.72665
G1 X76.639 Y141.88 E68.73117
G1 X76.639 Y68.269 E72.15881
G1 X76.639 Y67.989 E72.17184
G1 X76.919 Y67.989 E72.18028
M204 S3000
M205 X10 Y10
G0 F3000 X76.359 Y67.429
M204 S1800
M205 X8 Y8
;TYPE:WALL-OUTER
G1 F1500 X133.92 Y67.43 E74.86057
G1 X133.92 Y141.913 E78.32881
G1 X133.874 Y142.148 E78.33996
G1 X133.694 Y142.412 E78.35484
G1 X133.394 Y142.553 E78.37027
G1 X133.271 Y142.571 E78.37606
G1 X76.737 Y142.57 E81.00852
G1 X76.502 Y142.524 E81.01967
G1 X76.238 Y142.344 E81.03455
G1 X76.097 Y142.044 E81.04998
G1 X76.079 Y141.921 E81.05577
G1 X76.079 Y67.709 E84.51139
G1 X76.079 Y67.429 E84.52443
G1 X76.359 Y67.429 E84.53287
M204 S3000
M205 X10 Y10
G0 F3000 X76.559 Y67.429
G0 X76.709 Y68.059
G0 X106.477 Y94.365
G0 X106.234 Y94.978
M204 S1800
M205 X8 Y8
G1 F1500 X105.741 Y94.783 E84.55756
G1 X105.215 Y94.721 E84.58222
G1 X104.691 Y94.797 E84.60687
G1 X104.205 Y95.005 E84.63149
G1 X103.789 Y95.334 E84.65619
G1 X103.472 Y95.758 E84.68084
G1 X103.276 Y96.249 E84.70545
G1 X103.212 Y96.732 E84.72814
G1 X103.212 Y102.77 E85.0093
G1 X103.289 Y103.301 E85.03428
G1 X103.498 Y103.787 E85.05891
G1 X103.826 Y104.203 E85.08358
G1 X104.25 Y104.521 E85.10826
G1 X104.743 Y104.717 E85.13297
G1 X105.269 Y104.779 E85.15763
G1 X105.793 Y104.703 E85.18228
G1 X106.279 Y104.495 E85.2069
G1 X106.696 Y104.166 E85.23163
G1 X107.013 Y103.742 E85.25628
G1 X107.209 Y103.251 E85.2809
G1 X107.272 Y102.768 E85.30358
G1 X107.272 Y96.73 E85.58474
G1 X107.196 Y96.2 E85.60967
G1 X106.987 Y95.713 E85.63434
G1 X106.659 Y95.297 E85.65901
G1 X106.234 Y94.978 E85.68376
M204 S3000
M205 X10 Y10
G0 F3000 X106.048 Y94.905
G0 X106.291 Y94.291
G0 X107.081 Y94.865
G0 X107.778 Y96.037
G0 X107.871 Y102.194
G0 X106.477 Y124.865
G0 X106.234 Y125.478
M204 S1800
M205 X8 Y8
G1 F1500 X105.741 Y125.283 E85.70844
G1 X105.215 Y125.221 E85.7331
G1 X104.691 Y125.297 E85.75776
G1 X104.205 Y125.505 E85.78237
G1 X103.789 Y125.834 E85.80707
G1 X103.472 Y126.258 E85.83172
G1 X103.276 Y126.749 E85.85634
G1 X103.212 Y127.232 E85.87903
G1 X103.212 Y133.27 E86.16018
G1 X103.289 Y133.801 E86.18517
G1 X103.498 Y134.287 E86.2098
G1 X103.826 Y134.703 E86.23447
G1 X104.25 Y135.021 E86.25915
G1 X104.743 Y135.217 E86.28385
G1 X105.269 Y135.279 E86.30851
G1 X105.793 Y135.203 E86.33317
G1 X106.279 Y134.995 E86.35778
G1 X106.696 Y134.666 E86.38252
G1 X107.013 Y134.242 E86.40717
G1 X107.209 Y133.751 E86.43178
G1 X107.272 Y133.268 E86.45447
G1 X107.272 Y127.23 E86.73562
G1 X107.196 Y126.7 E86.76055
G1 X106.987 Y126.213 E86.78523
G1 X106.659 Y125.797 E86.8099
G1 X106.234 Y125.478 E86.83464
M204 S3000
M205 X10 Y10
G0 F3000 X106.048 Y125.405
G0 X106.291 Y124.791
G0 X107.057 Y124.008
M204 S1800
M205 X8 Y8
;TYPE:SKIN
G1 F1500 X106.153 Y123.649 E86.87993
G1 X105.191 Y123.537 E86.92503
G1 X104.234 Y123.675 E86.97005
G1 X103.344 Y124.058 E87.01517
G1 X102.582 Y124.659 E87.06036
G1 X102.002 Y125.435 E87.10547
G1 X101.648 Y126.323 E87.14998
G1 X101.542 Y127.122 E87.18751
G1 X101.542 Y133.389 E87.47933
G1 X101.667 Y134.258 E87.52021
