;FLAVOR:Marlin
;TIME:12769
;Filament used: 9.83274m
;Layer height: 0.2
;MINX:13.452
;MINY:24.581
;MINZ:0.2
;MAXX:196.548
;MAXY:185.419
;MAXZ:25.8
;Generated with Cura_SteamEngine 4.8.0
M140 S55
M105
M190 S55
M104 S200
M105
M109 S200
M82 ;absolute extrusion mode
; Script based on an original created by tjjfvi (https://github.com/tjjfvi)
; An up-to-date version of the tjjfvi's original script can be found
; here:  https://csi.t6.fyi/
; Note - This script will only work in Cura V4.2 and above!
; --- Global Settings
; layer_height = 0.2
; smooth_spiralized_contours = True
; magic_mesh_surface_mode = normal
; machine_extruder_count = 1
; --- Single Extruder Settings
; speed_z_hop = 10
; retraction_amount = 6
; retraction_hop = 0.075
; retraction_hop_enabled = True
; retraction_enable = True
; retraction_speed = 40
; retraction_retract_speed = 40
; retraction_prime_speed = 40
; speed_travel = 100


G21 ;metric values
G90 ;absolute positioning
M82 ;set extruder to absolute mode
M107 ;start with the fan off
G28 X0 Y0 ;move X/Y to min endstops
G28 Z0 ;move Z to min endstops
G1 Z15.0 F100 ;move the platform down 15mm
G92 E0 ;zero the extruded length
G1 F200 E3 ;extrude 3mm of feed stock
G92 E0 ;zero the extruded length again
G1 F100
G0 Y20 F100
M117 Printing...
G5
G92 E0
G92 E0
G1 F2400 E-6
;LAYER_COUNT:129
;LAYER:0
M106 S255
M204 S3000
M205 X10 Y10
G1 F600 Z0.275
G0 F3000 X20.822 Y26.158 Z0.275
M204 S1800
M205 X8 Y8
;TYPE:SKIRT
G1 F600 Z0.2
G1 F2400 E0
G1 X20.876 Y26.118 E0.00313
G1 X21.473 Y25.725 E0.03641
G1 X22.15 Y25.385 E0.07169
G1 X22.743 Y25.135 E0.10165
G1 X23.421 Y24.904 E0.13501
G1 X24.185 Y24.741 E0.17138
G1 X24.889 Y24.639 E0.2045
G1 X24.978 Y24.629 E0.20867
G1 X25.487 Y24.592 E0.23244
G1 X25.942 Y24.581 E0.25363
G1 X183.616 Y24.581 E7.59559
G1 X184.406 Y24.592 E7.63238
G1 X184.909 Y24.619 E7.65584
G1 X185.418 Y24.676 E7.67969
G1 X185.763 Y24.728 E7.69593
G1 X186.463 Y24.874 E7.72923
G1 X187.167 Y25.107 E7.76376
G1 X187.654 Y25.3 E7.78815
G1 X188.303 Y25.6 E7.82145
G1 X189.126 Y26.123 E7.86685
G1 X189.619 Y26.495 E7.89561
G1 X189.703 Y26.562 E7.90061
G1 X190.236 Y27.038 E7.93389
G1 X190.722 Y27.582 E7.96785
G1 X191.062 Y28.015 E7.99349
G1 X191.168 Y28.157 E8.00174
G1 X191.48 Y28.615 E8.02755
G1 X191.806 Y29.153 E8.05684
G1 X195.138 Y34.927 E8.36725
G1 X195.456 Y35.496 E8.39761
G1 X195.739 Y36.062 E8.42707
G1 X196.022 Y36.741 E8.46133
G1 X196.249 Y37.419 E8.49462
G1 X196.407 Y38.174 E8.53054
G1 X196.491 Y38.757 E8.55796
G1 X196.504 Y38.867 E8.56312
G1 X196.548 Y39.581 E8.59643
G1 X196.508 Y40.336 E8.63164
G1 X196.44 Y40.915 E8.65878
G1 X196.429 Y40.995 E8.66254
G1 X196.292 Y41.697 E8.69585
G1 X196.044 Y42.468 E8.73356
G1 X195.781 Y43.12 E8.7663
G1 X195.736 Y43.222 E8.77149
G1 X195.513 Y43.678 E8.79512
G1 X195.247 Y44.167 E8.82105
G1 X116.437 Y180.67 E16.1605
G1 X116.078 Y181.274 E16.19321
G1 X115.764 Y181.751 E16.2198
G1 X115.319 Y182.34 E16.25418
G1 X114.847 Y182.878 E16.2875
G1 X114.246 Y183.418 E16.32513
G1 X113.846 Y183.734 E16.34886
G1 X113.596 Y183.923 E16.36346
G1 X112.994 Y184.309 E16.39676
G1 X112.378 Y184.616 E16.4288
G1 X111.796 Y184.861 E16.45821
G1 X111.119 Y185.093 E16.49153
G1 X110.344 Y185.259 E16.52844
G1 X109.64 Y185.361 E16.56156
G1 X109.551 Y185.371 E16.56573
G1 X109.042 Y185.408 E16.58949
G1 X108.588 Y185.419 E16.61064
G1 X101.756 Y185.418 E16.92877
G1 X101.07 Y185.408 E16.96071
G1 X100.421 Y185.368 E16.99099
G1 X99.699 Y185.27 E17.02492
G1 X98.999 Y185.123 E17.05823
G1 X98.3 Y184.891 E17.09252
G1 X97.809 Y184.696 E17.11712
G1 X97.16 Y184.395 E17.15043
G1 X96.349 Y183.881 E17.19514
G1 X95.864 Y183.516 E17.22341
G1 X95.786 Y183.454 E17.22805
G1 X95.251 Y182.978 E17.26139
G1 X94.755 Y182.422 E17.29608
G1 X94.353 Y181.911 E17.32636
G1 X94.29 Y181.826 E17.33129
G1 X93.996 Y181.393 E17.35566
G1 X93.733 Y180.964 E17.37909
G1 X14.856 Y44.341 E24.72494
G1 X14.521 Y43.74 E24.75698
G1 X14.279 Y43.259 E24.78205
G1 X13.976 Y42.535 E24.81859
G1 X13.75 Y41.856 E24.85192
G1 X13.595 Y41.116 E24.88712
G1 X13.5 Y40.454 E24.91826
G1 X13.492 Y40.383 E24.92159
G1 X13.452 Y39.668 E24.95494
G1 X13.494 Y38.933 E24.98922
G1 X13.553 Y38.421 E25.01321
G1 X13.675 Y37.716 E25.04653
G1 X13.96 Y36.798 E25.09129
G1 X14.202 Y36.2 E25.12133
G1 X14.473 Y35.627 E25.15084
G1 X14.764 Y35.094 E25.17912
G1 X18.147 Y29.238 E25.49403
G1 X18.489 Y28.669 E25.52494
G1 X18.784 Y28.221 E25.54992
G1 X19.245 Y27.618 E25.58526
G1 X19.72 Y27.084 E25.61854
G1 X20.285 Y26.579 E25.65383
G1 X20.822 Y26.158 E25.6856
M204 S3000
M205 X10 Y10
G0 F3000 X21.155 Y26.608
M204 S1800
M205 X8 Y8
G1 F2400 X21.209 Y26.568 E25.68873
G1 X21.781 Y26.194 E25.72055
G1 X22.372 Y25.899 E25.75131
G1 X22.953 Y25.654 E25.78067
G1 X23.601 Y25.436 E25.81251
G1 X24.269 Y25.294 E25.84431
G1 X24.952 Y25.196 E25.87644
G1 X25.505 Y25.152 E25.90227
G1 X25.942 Y25.141 E25.92262
G1 X183.616 Y25.141 E33.26458
G1 X184.398 Y25.152 E33.301
G1 X185.007 Y25.19 E33.32941
G1 X185.679 Y25.282 E33.361
G1 X186.348 Y25.423 E33.39283
G1 X186.961 Y25.628 E33.42293
G1 X187.448 Y25.821 E33.44732
G1 X188.067 Y26.109 E33.47911
G1 X188.791 Y26.571 E33.51911
G1 X189.27 Y26.932 E33.54703
G1 X189.354 Y26.999 E33.55204
G1 X189.862 Y27.456 E33.58386
G1 X190.283 Y27.931 E33.61341
G1 X190.613 Y28.35 E33.63825
G1 X190.719 Y28.492 E33.6465
G1 X191.004 Y28.91 E33.67005
G1 X191.324 Y29.438 E33.6988
G1 X194.649 Y35.2 E34.00857
G1 X194.967 Y35.769 E34.03893
G1 X195.233 Y36.3 E34.06658
G1 X195.502 Y36.948 E34.09925
G1 X195.717 Y37.596 E34.13104
G1 X195.853 Y38.256 E34.16242
G1 X195.935 Y38.823 E34.1891
G1 X195.948 Y38.933 E34.19425
G1 X195.988 Y39.615 E34.22606
G1 X195.951 Y40.273 E34.25675
G1 X195.886 Y40.839 E34.28328
G1 X195.875 Y40.919 E34.28704
G1 X195.742 Y41.589 E34.31885
G1 X195.523 Y42.262 E34.3518
G1 X195.269 Y42.894 E34.38352
G1 X195.02 Y43.412 E34.41028
G1 X194.762 Y43.887 E34.43545
G1 X115.955 Y180.384 E41.77459
G1 X115.596 Y180.988 E41.80731
G1 X115.31 Y181.423 E41.83155
G1 X114.878 Y181.995 E41.86493
G1 X114.426 Y182.508 E41.89676
G1 X113.899 Y182.979 E41.92968
G1 X113.499 Y183.295 E41.95341
G1 X113.267 Y183.469 E41.96692
G1 X112.691 Y183.837 E41.99874
G1 X112.156 Y184.102 E42.02654
G1 X111.585 Y184.342 E42.05538
G1 X110.938 Y184.562 E42.08721
G1 X110.26 Y184.706 E42.11948
G1 X109.577 Y184.804 E42.15161
G1 X109.024 Y184.848 E42.17744
G1 X108.588 Y184.859 E42.19775
G1 X101.764 Y184.858 E42.5155
G1 X101.078 Y184.848 E42.54745
G1 X100.471 Y184.81 E42.57577
G1 X99.783 Y184.716 E42.6081
G1 X99.115 Y184.574 E42.6399
G1 X98.506 Y184.371 E42.66979
G1 X98.015 Y184.176 E42.69439
G1 X97.396 Y183.887 E42.7262
G1 X96.683 Y183.432 E42.76559
G1 X96.212 Y183.078 E42.79302
G1 X96.134 Y183.016 E42.79766
G1 X95.625 Y182.56 E42.82949
G1 X95.193 Y182.074 E42.85976
G1 X94.803 Y181.577 E42.88918
G1 X94.472 Y181.098 E42.91629
G1 X94.218 Y180.684 E42.93891
G1 X15.345 Y44.068 E50.28438
G1 X15.01 Y43.467 E50.31642
G1 X14.728 Y42.894 E50.34616
G1 X14.497 Y42.328 E50.37463
G1 X14.282 Y41.679 E50.40646
G1 X14.149 Y41.033 E50.43717
G1 X14.057 Y40.391 E50.46737
G1 X14.049 Y40.32 E50.4707
G1 X14.012 Y39.638 E50.5025
G1 X14.05 Y38.997 E50.5324
G1 X14.109 Y38.485 E50.5564
G1 X14.227 Y37.812 E50.58822
G1 X14.481 Y37.004 E50.62766
G1 X14.715 Y36.424 E50.65678
G1 X14.967 Y35.89 E50.68427
G1 X15.252 Y35.369 E50.71193
G1 X18.627 Y29.526 E51.02613
G1 X18.969 Y28.957 E51.05704
G1 X19.322 Y28.433 E51.08646
G1 X19.684 Y27.966 E51.11397
G1 X20.139 Y27.457 E51.14576
G1 X20.633 Y27.018 E51.17654
G1 X21.155 Y26.608 E51.20744
M204 S3000
M205 X10 Y10
G0 F3000 X21.488 Y27.058
M204 S1800
M205 X8 Y8
G1 F2400 X21.542 Y27.018 E51.21057
G1 X22.087 Y26.664 E51.24083
G1 X22.593 Y26.413 E51.26713
G1 X23.163 Y26.173 E51.29593
G1 X23.779 Y25.967 E51.32618
G1 X24.352 Y25.848 E51.35343
G1 X25.014 Y25.752 E51.38458
G1 X25.523 Y25.712 E51.40835
G1 X25.942 Y25.701 E51.42787
G1 X183.616 Y25.701 E58.76983
G1 X184.39 Y25.712 E58.80587
G1 X184.955 Y25.748 E58.83224
G1 X185.596 Y25.836 E58.86236
G1 X186.231 Y25.972 E58.8926
G1 X186.754 Y26.148 E58.9183
G1 X187.241 Y26.341 E58.94269
G1 X187.829 Y26.617 E58.97294
G1 X188.456 Y27.02 E59.00764
G1 X188.92 Y27.37 E59.03471
G1 X189.004 Y27.437 E59.03971
G1 X189.486 Y27.873 E59.06997
G1 X189.845 Y28.279 E59.09521
G1 X190.164 Y28.685 E59.11925
G1 X190.528 Y29.205 E59.14881
G1 X190.842 Y29.723 E59.17701
G1 X194.16 Y35.473 E59.48614
G1 X194.478 Y36.042 E59.51649
G1 X194.726 Y36.539 E59.54235
G1 X194.981 Y37.155 E59.5734
G1 X195.184 Y37.772 E59.60364
G1 X195.299 Y38.338 E59.63053
G1 X195.379 Y38.888 E59.65641
G1 X195.392 Y38.998 E59.66157
G1 X195.428 Y39.647 E59.69184
G1 X195.395 Y40.211 E59.71815
G1 X195.331 Y40.762 E59.74397
G1 X195.32 Y40.842 E59.74774
G1 X195.192 Y41.479 E59.77799
G1 X195.002 Y42.057 E59.80632
G1 X194.757 Y42.668 E59.83697
G1 X194.528 Y43.146 E59.86165
G1 X194.277 Y43.607 E59.88609
G1 X115.474 Y180.098 E67.2249
G1 X115.115 Y180.702 E67.25762
G1 X114.739 Y181.257 E67.28883
G1 X114.437 Y181.65 E67.31191
G1 X114.006 Y182.136 E67.34216
G1 X113.552 Y182.539 E67.37043
G1 X113.152 Y182.855 E67.39416
G1 X112.938 Y183.016 E67.40663
G1 X112.39 Y183.364 E67.43686
G1 X111.934 Y183.588 E67.46052
G1 X111.375 Y183.823 E67.48875
G1 X110.759 Y184.03 E67.51901
G1 X110.177 Y184.152 E67.5467
G1 X109.515 Y184.248 E67.57785
G1 X109.006 Y184.288 E67.60162
G1 X108.588 Y184.299 E67.62109
G1 X101.772 Y184.298 E67.93848
G1 X101.086 Y184.288 E67.97042
G1 X100.522 Y184.253 E67.99673
G1 X99.867 Y184.163 E68.02752
G1 X99.232 Y184.026 E68.05777
G1 X98.713 Y183.85 E68.08329
G1 X98.222 Y183.655 E68.10789
G1 X97.634 Y183.379 E68.13813
G1 X97.018 Y182.983 E68.17223
G1 X96.561 Y182.639 E68.19887
G1 X96.483 Y182.577 E68.20351
G1 X96 Y182.143 E68.23374
G1 X95.632 Y181.726 E68.25964
G1 X95.253 Y181.244 E68.28819
G1 X94.948 Y180.802 E68.3132
G1 X94.703 Y180.404 E68.33496
G1 X15.834 Y43.796 E75.68002
G1 X15.499 Y43.195 E75.71206
G1 X15.238 Y42.663 E75.73965
G1 X15.017 Y42.122 E75.76686
G1 X14.815 Y41.504 E75.79714
G1 X14.702 Y40.951 E75.82342
G1 X14.613 Y40.328 E75.85272
G1 X14.605 Y40.257 E75.85605
G1 X14.572 Y39.608 E75.88631
G1 X14.607 Y39.062 E75.91179
G1 X14.666 Y38.55 E75.93578
G1 X14.78 Y37.91 E75.96605
G1 X15.002 Y37.21 E76.00025
G1 X15.228 Y36.649 E76.02841
G1 X15.462 Y36.153 E76.05395
G1 X15.74 Y35.644 E76.08095
G1 X19.107 Y29.815 E76.3944
G1 X19.449 Y29.246 E76.42532
G1 X19.776 Y28.761 E76.45255
G1 X20.123 Y28.314 E76.4789
G1 X20.557 Y27.831 E76.50914
G1 X20.981 Y27.457 E76.53547
G1 X21.488 Y27.058 E76.56551
M204 S3000
M205 X10 Y10
G1 F2400 E70.56551
;MESH:1.stl
G0 F3000 X25.542 Y30.329
G0 X25.741 Y31.839
G0 X184.229 Y32.381
M204 S1800
M205 X8 Y8
;TYPE:WALL-INNER
G1 F2400 E76.56551
G1 F1500 X184.614 Y32.473 E76.58394
G1 X184.884 Y32.765 E76.60246
G1 X188.636 Y39.265 E76.95193
G1 X188.75 Y39.639 E76.97014
G1 X188.632 Y40.024 E76.98889
G1 X109.41 Y177.243 E84.3668
G1 X109.267 Y177.429 E84.37773
G1 X108.997 Y177.589 E84.39234
G1 X108.756 Y177.62 E84.40366
G1 X101.242 Y177.619 E84.75354
G1 X100.857 Y177.527 E84.77197
G1 X100.59 Y177.242 E84.79016
G1 X21.369 Y40.026 E92.16793
G1 X21.25 Y39.641 E92.18669
G1 X21.368 Y39.256 E92.20544
G1 X25.12 Y32.756 E92.55491
G1 X25.263 Y32.569 E92.56588
G1 X25.535 Y32.411 E92.58052
G1 X25.774 Y32.38 E92.59175
G1 X184.229 Y32.381 E99.97007
M204 S3000
M205 X10 Y10
G0 F3000 X184.264 Y31.821
M204 S1800
M205 X8 Y8
G1 F1500 X184.619 Y31.868 E99.98675
G1 X184.896 Y31.984 E100.00073
G1 X185.128 Y32.163 E100.01438
G1 X185.349 Y32.45 E100.03124
G1 X189.141 Y39.02 E100.38447
G1 X189.276 Y39.347 E100.40094
G1 X189.314 Y39.64 E100.4147
G1 X189.275 Y39.938 E100.42869
G1 X189.136 Y40.271 E100.4455
G1 X109.877 Y177.554 E107.82686
G1 X109.664 Y177.831 E107.84313
G1 X109.415 Y178.02 E107.85768
G1 X109.143 Y178.134 E107.87142
G1 X108.789 Y178.18 E107.88804
G1 X101.207 Y178.179 E108.24109
G1 X100.852 Y178.132 E108.25776
G1 X100.575 Y178.016 E108.27175
G1 X100.338 Y177.835 E108.28563
G1 X100.123 Y177.553 E108.30214
G1 X20.864 Y40.271 E115.68346
G1 X20.724 Y39.932 E115.70054
G1 X20.686 Y39.64 E115.71425
G1 X20.725 Y39.342 E115.72825
G1 X20.864 Y39.009 E115.74505
G1 X24.653 Y32.445 E116.09796
G1 X24.866 Y32.168 E116.11423
G1 X25.113 Y31.98 E116.12869
G1 X25.386 Y31.866 E116.14246
G1 X25.74 Y31.82 E116.15909
G1 X184.264 Y31.821 E123.54063
M204 S3000
M205 X10 Y10
G0 F3000 X184.3 Y31.261
M204 S1800
M205 X8 Y8
;TYPE:WALL-OUTER
G1 F1500 X184.768 Y31.323 E123.56261
G1 X185.178 Y31.494 E123.58329
G1 X185.53 Y31.766 E123.60401
G1 X185.814 Y32.135 E123.62569
G1 X189.645 Y38.773 E123.98257
G1 X189.821 Y39.2 E124.00407
G1 X189.878 Y39.64 E124.02473
G1 X189.82 Y40.085 E124.04563
G1 X189.639 Y40.52 E124.06757
G1 X110.344 Y177.865 E131.45226
G1 X110.061 Y178.233 E131.47388
G1 X109.698 Y178.509 E131.49511
G1 X109.29 Y178.679 E131.5157
G1 X108.824 Y178.74 E131.53758
G1 X101.171 Y178.739 E131.89394
G1 X100.703 Y178.677 E131.91592
G1 X100.293 Y178.506 E131.9366
G1 X99.938 Y178.233 E131.95746
G1 X99.656 Y177.864 E131.97908
G1 X20.359 Y40.516 E139.36395
G1 X20.179 Y40.08 E139.38591
G1 X20.122 Y39.64 E139.40657
G1 X20.18 Y39.195 E139.42747
G1 X20.361 Y38.76 E139.4494
G1 X24.185 Y32.135 E139.80559
G1 X24.469 Y31.767 E139.82724
G1 X24.831 Y31.491 E139.84843
G1 X25.239 Y31.321 E139.86902
G1 X25.705 Y31.26 E139.8909
G1 X184.3 Y31.261 E147.27575
M204 S3000
M205 X10 Y10
G0 F3000 X184.498 Y31.287
G0 X184.411 Y31.941
G0 X184.163 Y32.931
M204 S1800
M205 X8 Y8
;TYPE:SKIN
G1 F1500 X184.323 Y32.969 E147.28341
G1 X184.441 Y33.096 E147.29148
G1 X188.127 Y39.484 E147.6349
G1 X188.175 Y39.638 E147.64241
G1 X188.123 Y39.805 E147.65055
G1 X108.955 Y176.932 E155.0235
G1 X108.815 Y177.057 E155.03224
G1 X108.716 Y177.07 E155.03689
G1 X101.308 Y177.069 E155.38184
G1 X101.144 Y177.03 E155.38969
G1 X101.034 Y176.912 E155.3972
G1 X21.878 Y39.808 E162.76894
G1 X21.826 Y39.639 E162.77717
G1 X21.877 Y39.475 E162.78517
G1 X25.58 Y33.059 E163.13011
G1 X25.714 Y32.943 E163.13837
G1 X25.815 Y32.93 E163.14311
G1 X184.163 Y32.931 E170.51646
M204 S3000
M205 X10 Y10
G0 F3000 X183.663 Y33.19
M204 S1800
M205 X8 Y8
G1 F1500 X184.916 Y34.444 E170.599
G1 X184.986 Y34.514
M204 S3000
M205 X10 Y10
G0 F3000 X185.997 Y36.317
M204 S1800
M205 X8 Y8
G1 F1500 X182.871 Y33.19 E170.80489
M204 S3000
M205 X10 Y10
G0 F3000 X182.079 Y33.19
M204 S1800
M205 X8 Y8
G1 F1500 X187.077 Y38.189 E171.13405
G1 X187.147 Y38.259
M204 S3000
M205 X10 Y10
G0 F3000 X187.851 Y39.754
M204 S1800
M205 X8 Y8
G1 F1500 X181.287 Y33.19 E171.5663
M204 S3000
M205 X10 Y10
G0 F3000 X180.495 Y33.19
M204 S1800
M205 X8 Y8
G1 F1500 X187.561 Y40.257 E172.03164
M204 S3000
M205 X10 Y10
G0 F3000 X187.271 Y40.759
M204 S1800
M205 X8 Y8
G1 F1500 X179.703 Y33.19 E172.53004
M204 S3000
M205 X10 Y10
G0 F3000 X178.911 Y33.19
M204 S1800
M205 X8 Y8
G1 F1500 X186.981 Y41.261 E173.06149
M204 S3000
M205 X10 Y10
G0 F3000 X186.691 Y41.763
M204 S1800
M205 X8 Y8
G1 F1500 X178.119 Y33.19 E173.62601
M204 S3000
M205 X10 Y10
G0 F3000 X177.327 Y33.19
M204 S1800
M205 X8 Y8
G1 F1500 X186.401 Y42.265 E174.22358
M204 S3000
M205 X10 Y10
G0 F3000 X186.111 Y42.767
M204 S1800
M205 X8 Y8
G1 F1500 X176.535 Y33.19 E174.85421
M204 S3000
M205 X10 Y10
G0 F3000 X175.743 Y33.19
M204 S1800
M205 X8 Y8
G1 F1500 X185.822 Y43.269 E175.51793
M204 S3000
M205 X10 Y10
G0 F3000 X185.532 Y43.771
M204 S1800
M205 X8 Y8
G1 F1500 X174.951 Y33.19 E176.2147
M204 S3000
M205 X10 Y10
G0 F3000 X174.159 Y33.19
M204 S1800
M205 X8 Y8
G1 F1500 X185.242 Y44.273 E176.94454
M204 S3000
M205 X10 Y10
G0 F3000 X184.952 Y44.775
M204 S1800
M205 X8 Y8
G1 F1500 X173.367 Y33.19 E177.70743
M204 S3000
