;FLAVOR:Marlin
;TIME:2778
;Filament used: 2.11089m
;Layer height: 0.2
;MINX:62.194
;MINY:74.89
;MINZ:0.2
;MAXX:147.786
;MAXY:135.106
;MAXZ:3.4
;Generated with Cura_SteamEngine 4.8.0
M140 S60
M105
M190 S60
M104 S200
M105
M109 S200
M82 ;absolute extrusion mode
G21 ;metric values
G90 ;absolute positioning
M82 ;set extruder to absolute mode
M107 ;start with the fan off
G28 X0 Y0 ;move X/Y to min endstops
G28 Z0 ;move Z to min endstops
G1 Z15.0 F100 ;move the platform down 15mm
G92 E0 ;zero the extruded length
G1 F200 E3 ;extrude 3mm of feed stock
G92 E0 ;zero the extruded length again
G1 F100
G0 Y20 F100
M117 Printing...
G5
G92 E0
G92 E0
G1 F2400 E-6
;LAYER_COUNT:17
;LAYER:0
M106 S255
M204 S3000
M205 X10 Y10
G1 F600 Z0.275
G0 F3000 X67.363 Y78.251 Z0.275
M204 S1800
M205 X8 Y8
;TYPE:SKIRT
G1 F600 Z0.2
G1 F2400 E0
G1 X67.858 Y77.854 E0.02955
G1 X68.083 Y77.687 E0.04259
G1 X68.531 Y77.37 E0.06815
G1 X69.131 Y76.986 E0.10132
G1 X69.34 Y76.863 E0.11261
G1 X69.821 Y76.593 E0.1383
G1 X70.419 Y76.291 E0.16949
G1 X70.675 Y76.174 E0.1826
G1 X71.211 Y75.943 E0.20978
G1 X71.873 Y75.694 E0.24271
G1 X72.105 Y75.617 E0.25409
G1 X72.651 Y75.448 E0.28071
G1 X73.241 Y75.291 E0.30913
G1 X73.531 Y75.227 E0.32296
G1 X74.127 Y75.109 E0.35125
G1 X74.742 Y75.013 E0.38024
G1 X75.045 Y74.978 E0.39444
G1 X75.63 Y74.925 E0.42179
G1 X76.325 Y74.894 E0.45419
G1 X76.58 Y74.893 E0.46606
G1 X77.122 Y74.901 E0.4913
G1 X77.801 Y74.94 E0.52297
G1 X78.068 Y74.966 E0.53546
G1 X78.637 Y75.033 E0.56214
G1 X79.318 Y75.145 E0.59428
G1 X79.565 Y75.197 E0.60603
G1 X80.311 Y75.369 E0.64168
G1 X81.561 Y75.69 E0.70177
G1 X82.194 Y75.854 E0.73222
G1 X84.76 Y76.462 E0.85501
G1 X87.357 Y76.996 E0.97847
G1 X89.963 Y77.458 E1.10171
G1 X92.581 Y77.847 E1.22495
G1 X95.204 Y78.16 E1.34795
G1 X97.852 Y78.402 E1.47177
G1 X100.511 Y78.568 E1.59583
G1 X103.123 Y78.657 E1.71752
G1 X105.797 Y78.674 E1.84204
G1 X108.408 Y78.614 E1.96365
G1 X111.081 Y78.479 E2.08827
G1 X113.714 Y78.271 E2.21126
G1 X116.352 Y77.987 E2.3348
G1 X118.962 Y77.631 E2.45746
G1 X121.583 Y77.198 E2.58116
G1 X124.17 Y76.695 E2.70388
G1 X126.737 Y76.12 E2.82637
G1 X129.352 Y75.457 E2.95199
G1 X130.107 Y75.264 E2.98828
G1 X130.786 Y75.124 E3.02056
G1 X131.041 Y75.081 E3.0326
G1 X131.599 Y75 E3.05885
G1 X132.349 Y74.928 E3.09394
G1 X132.584 Y74.915 E3.1049
G1 X133.122 Y74.894 E3.12997
G1 X133.503 Y74.89 E3.14771
G1 X134.044 Y74.908 E3.17292
G1 X134.655 Y74.949 E3.20143
G1 X135.322 Y75.024 E3.23268
G1 X135.553 Y75.06 E3.24357
G1 X136.132 Y75.159 E3.27092
G1 X136.873 Y75.324 E3.30627
G1 X137.086 Y75.381 E3.31654
G1 X137.582 Y75.522 E3.34055
G1 X138.206 Y75.728 E3.37115
G1 X138.469 Y75.826 E3.38422
G1 X139.004 Y76.039 E3.41103
G1 X139.762 Y76.389 E3.44991
G1 X140.373 Y76.709 E3.48202
G1 X140.927 Y77.032 E3.51188
G1 X141.164 Y77.183 E3.52497
G1 X141.65 Y77.508 E3.55219
G1 X142.232 Y77.939 E3.58592
G1 X142.414 Y78.085 E3.59678
G1 X142.81 Y78.415 E3.62078
G1 X143.284 Y78.844 E3.65055
G1 X143.504 Y79.059 E3.66488
G1 X143.918 Y79.484 E3.6925
G1 X144.32 Y79.932 E3.72053
G1 X144.901 Y80.658 E3.76383
G1 X145.243 Y81.13 E3.79097
G1 X145.418 Y81.395 E3.80576
G1 X145.733 Y81.897 E3.83335
G1 X146.032 Y82.416 E3.86124
G1 X146.176 Y82.692 E3.87574
G1 X146.44 Y83.227 E3.90352
G1 X146.738 Y83.912 E3.9383
G1 X146.825 Y84.134 E3.94941
G1 X147.004 Y84.62 E3.97352
G1 X147.21 Y85.267 E4.00514
G1 X147.279 Y85.518 E4.01726
G1 X147.419 Y86.07 E4.04378
G1 X147.563 Y86.775 E4.07728
G1 X147.605 Y87.03 E4.08932
G1 X147.682 Y87.566 E4.11453
G1 X147.746 Y88.193 E4.14388
G1 X147.764 Y88.483 E4.15741
G1 X147.786 Y89.042 E4.18346
G1 X147.782 Y89.742 E4.21605
G1 X147.77 Y90.011 E4.22859
G1 X147.733 Y90.575 E4.25491
G1 X147.692 Y90.996 E4.27461
G1 X147.294 Y94.001 E4.41576
G1 X147.018 Y96.647 E4.53963
G1 X146.82 Y99.28 E4.66258
G1 X146.695 Y101.919 E4.7856
G1 X146.645 Y104.539 E4.90762
G1 X146.67 Y107.208 E5.03191
G1 X146.77 Y109.88 E5.15642
G1 X146.943 Y112.489 E5.27817
G1 X147.193 Y115.134 E5.40188
G1 X147.6 Y118.365 E5.55352
G1 X147.682 Y118.934 E5.58029
G1 X147.743 Y119.518 E5.60763
G1 X147.763 Y119.831 E5.62223
G1 X147.786 Y120.419 E5.64963
G1 X147.783 Y121.085 E5.68064
G1 X147.771 Y121.367 E5.69379
G1 X147.733 Y121.944 E5.72071
G1 X147.67 Y122.546 E5.7489
G1 X147.626 Y122.842 E5.76283
G1 X147.529 Y123.412 E5.78976
G1 X147.376 Y124.111 E5.82307
G1 X147.315 Y124.347 E5.83442
G1 X147.169 Y124.867 E5.85957
G1 X146.962 Y125.497 E5.89045
G1 X146.862 Y125.766 E5.90382
G1 X146.64 Y126.323 E5.93174
G1 X146.352 Y126.959 E5.96425
G1 X146.241 Y127.181 E5.9758
G1 X145.998 Y127.644 E6.00015
G1 X145.648 Y128.245 E6.03254
G1 X145.496 Y128.484 E6.04572
G1 X145.197 Y128.932 E6.0708
G1 X144.824 Y129.445 E6.10034
G1 X144.634 Y129.685 E6.11459
G1 X144.248 Y130.15 E6.14273
G1 X143.737 Y130.708 E6.17796
G1 X143.564 Y130.883 E6.18942
G1 X143.204 Y131.233 E6.2128
G1 X142.672 Y131.705 E6.24592
G1 X142.474 Y131.867 E6.25783
G1 X142.03 Y132.216 E6.28413
G1 X141.551 Y132.563 E6.31167
G1 X141.294 Y132.733 E6.32602
G1 X140.794 Y133.047 E6.35351
G1 X140.257 Y133.355 E6.38234
G1 X139.99 Y133.495 E6.39638
G1 X139.445 Y133.764 E6.42468
G1 X138.723 Y134.075 E6.46128
G1 X138.12 Y134.301 E6.49127
G1 X137.484 Y134.508 E6.52241
G1 X137.181 Y134.593 E6.53706
G1 X136.626 Y134.735 E6.56374
G1 X135.992 Y134.868 E6.5939
G1 X135.106 Y135.003 E6.63564
G1 X134.422 Y135.07 E6.66764
G1 X134.169 Y135.084 E6.67944
G1 X133.617 Y135.105 E6.70516
G1 X133.023 Y135.105 E6.73282
G1 X132.715 Y135.093 E6.74717
G1 X132.125 Y135.055 E6.7747
G1 X131.407 Y134.975 E6.80834
G1 X131.154 Y134.937 E6.82025
G1 X130.601 Y134.842 E6.84638
G1 X129.899 Y134.688 E6.87985
G1 X129.087 Y134.484 E6.91883
G1 X127.837 Y134.149 E6.97909
G1 X125.234 Y133.531 E7.10367
G1 X122.675 Y133.004 E7.22532
G1 X120.063 Y132.539 E7.34886
G1 X117.441 Y132.149 E7.4723
G1 X114.852 Y131.839 E7.59371
G1 X112.153 Y131.593 E7.71991
G1 X109.542 Y131.428 E7.84173
G1 X106.907 Y131.338 E7.9645
G1 X104.228 Y131.32 E8.08925
G1 X101.617 Y131.379 E8.21086
G1 X98.945 Y131.513 E8.33543
G1 X96.315 Y131.72 E8.45828
G1 X93.709 Y132 E8.58032
G1 X91.037 Y132.363 E8.70588
G1 X88.473 Y132.787 E8.8269
G1 X85.857 Y133.295 E8.95098
G1 X83.276 Y133.872 E9.07413
G1 X79.872 Y134.737 E9.23767
G1 X79.245 Y134.868 E9.2675
G1 X78.359 Y135.003 E9.30923
G1 X77.673 Y135.071 E9.34133
G1 X77.393 Y135.087 E9.35439
G1 X76.867 Y135.106 E9.3789
G1 X76.281 Y135.105 E9.40619
G1 X75.972 Y135.093 E9.42059
G1 X75.379 Y135.055 E9.44826
G1 X74.659 Y134.975 E9.48199
G1 X74.406 Y134.937 E9.4939
G1 X73.853 Y134.842 E9.52003
G1 X73.189 Y134.696 E9.55169
G1 X72.952 Y134.634 E9.56309
G1 X72.409 Y134.481 E9.58936
G1 X71.831 Y134.293 E9.61766
G1 X71.546 Y134.187 E9.63182
G1 X70.955 Y133.951 E9.66145
G1 X70.29 Y133.647 E9.6955
G1 X70.093 Y133.547 E9.70579
G1 X69.634 Y133.305 E9.72995
G1 X69.126 Y133.013 E9.75723
G1 X68.837 Y132.83 E9.77316
G1 X68.347 Y132.502 E9.80062
G1 X67.812 Y132.11 E9.8315
G1 X67.601 Y131.942 E9.84406
G1 X67.177 Y131.59 E9.86972
G1 X66.765 Y131.221 E9.89548
G1 X66.433 Y130.898 E9.91704
G1 X66.044 Y130.497 E9.94306
G1 X65.564 Y129.952 E9.97688
G1 X65.419 Y129.774 E9.98757
G1 X65.083 Y129.346 E10.0129
G1 X64.738 Y128.87 E10.04028
G1 X64.569 Y128.614 E10.05456
G1 X64.241 Y128.092 E10.08327
G1 X63.938 Y127.563 E10.11165
G1 X63.797 Y127.293 E10.12584
G1 X63.53 Y126.749 E10.15406
G1 X63.242 Y126.086 E10.18771
G1 X63.157 Y125.869 E10.19857
G1 X62.977 Y125.381 E10.22279
G1 X62.767 Y124.716 E10.25526
G1 X62.702 Y124.479 E10.2667
G1 X62.562 Y123.926 E10.29326
G1 X62.419 Y123.233 E10.32621
G1 X62.375 Y122.963 E10.33895
G1 X62.297 Y122.416 E10.36468
G1 X62.239 Y121.855 E10.39094
G1 X62.215 Y121.469 E10.40895
G1 X62.194 Y120.908 E10.43509
G1 X62.202 Y120.178 E10.46908
G1 X62.213 Y119.951 E10.47967
G1 X62.247 Y119.437 E10.50365
G1 X62.319 Y118.765 E10.53512
G1 X62.681 Y116.043 E10.66299
G1 X62.957 Y113.392 E10.7871
G1 X63.158 Y110.751 E10.91043
G1 X63.283 Y108.112 E11.03345
G1 X63.333 Y105.468 E11.15659
G1 X63.309 Y102.826 E11.27961
G1 X63.209 Y100.149 E11.40435
G1 X63.037 Y97.549 E11.52568
G1 X62.787 Y94.903 E11.64944
G1 X62.402 Y91.823 E11.79398
G1 X62.315 Y91.2 E11.82327
G1 X62.279 Y90.895 E11.83757
G1 X62.228 Y90.336 E11.86371
G1 X62.198 Y89.746 E11.89121
G1 X62.194 Y89.454 E11.90481
G1 X62.201 Y88.817 E11.93447
G1 X62.24 Y88.135 E11.96628
G1 X62.264 Y87.886 E11.97793
G1 X62.329 Y87.329 E12.00404
G1 X62.437 Y86.662 E12.03551
G1 X62.491 Y86.4 E12.04796
G1 X62.617 Y85.841 E12.07465
G1 X62.78 Y85.237 E12.10378
G1 X62.895 Y84.876 E12.12142
G1 X63.068 Y84.369 E12.14636
G1 X63.288 Y83.798 E12.17486
G1 X63.408 Y83.521 E12.18891
G1 X63.644 Y83.008 E12.21521
G1 X63.876 Y82.55 E12.23911
G1 X64.136 Y82.09 E12.26372
G1 X64.57 Y81.382 E12.30239
G1 X64.922 Y80.874 E12.33116
G1 X65.248 Y80.438 E12.35651
G1 X65.691 Y79.897 E12.38907
G1 X65.87 Y79.696 E12.40161
G1 X66.242 Y79.294 E12.42711
G1 X66.774 Y78.772 E12.46181
G1 X66.95 Y78.612 E12.47289
G1 X67.363 Y78.251 E12.49843
M204 S3000
M205 X10 Y10
G0 F3000 X67.732 Y78.673
M204 S1800
M205 X8 Y8
G1 F2400 X68.201 Y78.296 E12.52645
G1 X68.407 Y78.144 E12.53837
G1 X68.855 Y77.827 E12.56393
G1 X69.424 Y77.463 E12.59538
G1 X69.614 Y77.351 E12.60565
G1 X70.095 Y77.081 E12.63134
G1 X70.663 Y76.795 E12.66095
G1 X70.897 Y76.688 E12.67293
G1 X71.433 Y76.457 E12.70011
G1 X72.059 Y76.222 E12.73124
G1 X72.27 Y76.152 E12.74159
G1 X72.816 Y75.983 E12.76821
G1 X73.375 Y75.835 E12.79513
G1 X73.64 Y75.776 E12.80777
G1 X74.236 Y75.658 E12.83607
G1 X74.819 Y75.568 E12.86353
G1 X75.095 Y75.536 E12.87647
G1 X75.68 Y75.483 E12.90382
G1 X76.34 Y75.454 E12.93459
G1 X76.572 Y75.453 E12.94539
G1 X77.114 Y75.461 E12.97063
G1 X77.759 Y75.499 E13.00072
G1 X78.003 Y75.522 E13.01213
G1 X78.572 Y75.589 E13.03881
G1 X79.215 Y75.696 E13.06916
G1 X79.44 Y75.743 E13.07986
G1 X80.172 Y75.912 E13.11484
G1 X81.476 Y76.247 E13.17753
G1 X82.031 Y76.39 E13.20422
G1 X84.685 Y77.019 E13.33123
G1 X87.25 Y77.546 E13.45316
G1 X89.858 Y78.009 E13.5765
G1 X92.502 Y78.401 E13.70096
G1 X95.16 Y78.719 E13.82561
G1 X97.801 Y78.96 E13.94909
G1 X100.457 Y79.126 E14.07301
G1 X103.135 Y79.218 E14.19778
G1 X105.772 Y79.233 E14.32057
G1 X108.45 Y79.173 E14.4453
G1 X111.119 Y79.038 E14.56974
G1 X113.78 Y78.827 E14.69404
G1 X116.383 Y78.547 E14.81595
G1 X119.06 Y78.182 E14.94175
G1 X121.672 Y77.75 E15.06503
G1 X124.289 Y77.242 E15.18916
G1 X126.887 Y76.659 E15.31314
G1 X129.503 Y75.997 E15.4388
G1 X130.246 Y75.807 E15.47451
G1 X130.889 Y75.674 E15.50508
G1 X131.121 Y75.636 E15.51603
G1 X131.679 Y75.555 E15.54228
G1 X132.392 Y75.487 E15.57563
G1 X132.606 Y75.474 E15.58562
G1 X133.144 Y75.453 E15.61069
G1 X133.492 Y75.45 E15.62689
G1 X134.007 Y75.467 E15.65089
G1 X134.618 Y75.508 E15.6794
G1 X135.247 Y75.579 E15.70888
G1 X135.458 Y75.612 E15.71882
G1 X136.037 Y75.711 E15.74617
G1 X136.738 Y75.868 E15.77962
G1 X136.933 Y75.92 E15.78902
G1 X137.429 Y76.061 E15.81303
G1 X138.022 Y76.257 E15.84211
G1 X138.262 Y76.346 E15.85403
G1 X138.797 Y76.559 E15.88085
G1 X139.516 Y76.892 E15.91774
G1 X140.111 Y77.204 E15.94903
G1 X140.637 Y77.511 E15.97738
G1 X140.852 Y77.648 E15.98926
G1 X141.338 Y77.973 E16.01648
G1 X141.89 Y78.382 E16.04847
G1 X142.056 Y78.516 E16.0584
G1 X142.452 Y78.846 E16.08241
G1 X142.903 Y79.254 E16.11072
G1 X143.103 Y79.45 E16.12376
G1 X143.517 Y79.875 E16.15139
G1 X143.889 Y80.29 E16.17734
G1 X144.46 Y81.003 E16.21988
G1 X144.784 Y81.451 E16.24562
G1 X144.944 Y81.693 E16.25913
G1 X145.259 Y82.195 E16.28673
G1 X145.542 Y82.688 E16.3132
G1 X145.674 Y82.94 E16.32644
G1 X145.938 Y83.475 E16.35422
G1 X146.22 Y84.125 E16.38721
G1 X146.299 Y84.328 E16.39736
G1 X146.478 Y84.814 E16.42147
G1 X146.673 Y85.427 E16.45143
G1 X146.736 Y85.655 E16.46244
G1 X146.876 Y86.207 E16.48896
G1 X147.012 Y86.877 E16.52079
G1 X147.051 Y87.11 E16.53179
G1 X147.128 Y87.646 E16.55701
G1 X147.188 Y88.241 E16.58485
G1 X147.204 Y88.505 E16.59717
G1 X147.226 Y89.064 E16.62322
G1 X147.222 Y89.729 E16.65419
G1 X147.211 Y89.974 E16.6656
G1 X147.174 Y90.538 E16.69192
G1 X147.136 Y90.923 E16.70994
G1 X146.741 Y93.908 E16.85014
G1 X146.459 Y96.616 E16.97692
G1 X146.263 Y99.211 E17.0981
G1 X146.135 Y101.918 E17.22429
G1 X146.085 Y104.539 E17.34636
G1 X146.11 Y107.234 E17.47185
G1 X146.21 Y109.903 E17.59622
G1 X146.385 Y112.544 E17.71947
G1 X146.636 Y115.192 E17.84332
G1 X147.036 Y118.372 E17.99256
G1 X147.128 Y119.013 E18.02271
G1 X147.185 Y119.568 E18.04869
G1 X147.204 Y119.853 E18.06199
G1 X147.227 Y120.441 E18.08939
G1 X147.224 Y121.072 E18.11878
G1 X147.212 Y121.33 E18.1308
G1 X147.174 Y121.907 E18.15773
G1 X147.114 Y122.478 E18.18446
G1 X147.074 Y122.748 E18.19717
G1 X146.977 Y123.318 E18.2241
G1 X146.832 Y123.981 E18.2557
G1 X146.776 Y124.196 E18.26604
G1 X146.63 Y124.716 E18.29119
G1 X146.433 Y125.313 E18.32047
G1 X146.342 Y125.558 E18.33264
G1 X146.12 Y126.115 E18.36056
G1 X145.846 Y126.719 E18.39144
G1 X145.745 Y126.921 E18.40196
G1 X145.502 Y127.384 E18.4263
G1 X145.169 Y127.955 E18.45708
G1 X145.031 Y128.173 E18.4691
G1 X144.732 Y128.621 E18.49418
G1 X144.377 Y129.108 E18.52224
G1 X144.204 Y129.327 E18.53524
G1 X143.818 Y129.792 E18.56338
G1 X143.332 Y130.322 E18.59686
G1 X143.174 Y130.481 E18.6073
G1 X142.814 Y130.831 E18.63068
G1 X142.308 Y131.279 E18.66215
G1 X142.128 Y131.426 E18.67297
G1 X141.684 Y131.775 E18.69926
G1 X141.23 Y132.103 E18.72534
G1 X140.996 Y132.259 E18.73844
G1 X140.496 Y132.573 E18.76593
G1 X139.986 Y132.865 E18.7933
G1 X139.742 Y132.993 E18.80613
G1 X139.197 Y133.262 E18.83443
G1 X138.513 Y133.555 E18.86908
G1 X137.926 Y133.776 E18.89828
G1 X137.319 Y133.973 E18.928
G1 X137.043 Y134.051 E18.94135
G1 X136.488 Y134.193 E18.96803
G1 X135.899 Y134.316 E18.99605
G1 X135.027 Y134.449 E19.03712
G1 X134.379 Y134.511 E19.06743
G1 X134.148 Y134.525 E19.07821
G1 X133.596 Y134.546 E19.10393
G1 X133.032 Y134.545 E19.13019
G1 X132.751 Y134.534 E19.14329
G1 X132.161 Y134.496 E19.17082
G1 X131.48 Y134.42 E19.20272
G1 X131.249 Y134.385 E19.2136
G1 X130.696 Y134.29 E19.23973
G1 X130.041 Y134.147 E19.27095
G1 X129.232 Y133.943 E19.3098
G1 X127.975 Y133.606 E19.3704
G1 X125.373 Y132.988 E19.49493
G1 X122.776 Y132.453 E19.61839
G1 X120.135 Y131.984 E19.74329
G1 X117.525 Y131.596 E19.86616
G1 X114.896 Y131.28 E19.98946
G1 X112.202 Y131.034 E20.11543
G1 X109.597 Y130.87 E20.23697
G1 X106.895 Y130.777 E20.36286
G1 X104.254 Y130.761 E20.48583
G1 X101.577 Y130.82 E20.61052
G1 X98.908 Y130.954 E20.73495
G1 X96.281 Y131.161 E20.85766
G1 X93.613 Y131.448 E20.98261
G1 X90.974 Y131.807 E21.10662
G1 X88.35 Y132.24 E21.23046
G1 X85.724 Y132.75 E21.35502
G1 X83.159 Y133.323 E21.4774
G1 X79.734 Y134.194 E21.64196
G1 X79.152 Y134.316 E21.66965
G1 X78.28 Y134.449 E21.71072
G1 X77.629 Y134.512 E21.74118
G1 X77.373 Y134.527 E21.75312
G1 X76.847 Y134.546 E21.77763
G1 X76.289 Y134.545 E21.80361
G1 X76.008 Y134.534 E21.8167
G1 X75.415 Y134.496 E21.84437
G1 X74.732 Y134.42 E21.87637
G1 X74.501 Y134.385 E21.88725
G1 X73.948 Y134.29 E21.91338
G1 X73.32 Y134.151 E21.94333
G1 X73.104 Y134.095 E21.95372
G1 X72.561 Y133.942 E21.97999
G1 X72.014 Y133.763 E22.00679
G1 X71.753 Y133.667 E22.01974
G1 X71.162 Y133.431 E22.04937
G1 X70.534 Y133.143 E22.08154
G1 X70.354 Y133.052 E22.09093
G1 X69.895 Y132.81 E22.11509
G1 X69.412 Y132.532 E22.14104
G1 X69.148 Y132.365 E22.15559
G1 X68.658 Y132.037 E22.18305
G1 X68.151 Y131.664 E22.21236
G1 X67.959 Y131.511 E22.22379
G1 X67.535 Y131.159 E22.24945
G1 X67.146 Y130.811 E22.27375
G1 X66.835 Y130.508 E22.29397
G1 X66.446 Y130.107 E22.31998
G1 X65.992 Y129.591 E22.35199
G1 X65.859 Y129.428 E22.36178
G1 X65.523 Y129 E22.38712
G1 X65.198 Y128.549 E22.41301
G1 X65.043 Y128.316 E22.42604
G1 X64.715 Y127.794 E22.45474
G1 X64.428 Y127.293 E22.48163
G1 X64.299 Y127.046 E22.4946
G1 X64.032 Y126.502 E22.52282
G1 X63.76 Y125.874 E22.55469
G1 X63.683 Y125.675 E22.56462
G1 X63.503 Y125.187 E22.58884
G1 X63.304 Y124.558 E22.61956
G1 X63.245 Y124.341 E22.63004
G1 X63.105 Y123.788 E22.6566
G1 X62.97 Y123.13 E22.68788
G1 X62.929 Y122.884 E22.69949
G1 X62.851 Y122.337 E22.72522
G1 X62.797 Y121.808 E22.74998
G1 X62.775 Y121.448 E22.76677
G1 X62.754 Y120.887 E22.79291
G1 X62.762 Y120.196 E22.82509
