;FLAVOR:Marlin
;TIME:12725
;Filament used: 10.1788m
;Layer height: 0.2
;MINX:31.1
;MINY:38.6
;MINZ:0.2
;MAXX:175.331
;MAXY:171.4
;MAXZ:18
;Generated with Cura_SteamEngine 4.8.0
M140 S60
M105
M190 S60
M104 S200
M105
M109 S200
M82 ;absolute extrusion mode
; Script based on an original created by tjjfvi (https://github.com/tjjfvi)
; An up-to-date version of the tjjfvi's original script can be found
; here:  https://csi.t6.fyi/
; Note - This script will only work in Cura V4.2 and above!
; --- Global Settings
; layer_height = 0.2
; smooth_spiralized_contours = True
; magic_mesh_surface_mode = normal
; machine_extruder_count = 1
; --- Single Extruder Settings
; speed_z_hop = 10
; retraction_amount = 6
; retraction_hop = 0.075
; retraction_hop_enabled = True
; retraction_enable = True
; retraction_speed = 40
; retraction_retract_speed = 40
; retraction_prime_speed = 40
; speed_travel = 100


G21 ;metric values
G90 ;absolute positioning
M82 ;set extruder to absolute mode
M107 ;start with the fan off
G28 X0 Y0 ;move X/Y to min endstops
G28 Z0 ;move Z to min endstops
G1 Z15.0 F100 ;move the platform down 15mm
G92 E0 ;zero the extruded length
G1 F200 E3 ;extrude 3mm of feed stock
G92 E0 ;zero the extruded length again
G1 F100
G0 Y20 F100
M117 Printing...
G5
G92 E0
G92 E0
G1 F2400 E-6
;LAYER_COUNT:90
;LAYER:0
M106 S255
M204 S3000
M205 X10 Y10
G1 F600 Z0.275
G0 F3000 X34.396 Y40.868 Z0.275
M204 S1800
M205 X8 Y8
;TYPE:SKIRT
G1 F600 Z0.2
G1 F2400 E0
G1 X34.996 Y40.398 E0.03549
G1 X35.705 Y39.931 E0.07502
G1 X36.36 Y39.578 E0.10967
G1 X36.984 Y39.297 E0.14153
G1 X37.772 Y39.02 E0.18043
G1 X38.499 Y38.829 E0.21543
G1 X39.272 Y38.696 E0.25195
G1 X40.015 Y38.626 E0.2867
G1 X40.587 Y38.607 E0.31335
G1 X41.186 Y38.6 E0.34125
G1 X153.797 Y38.6 E5.58489
G1 X154.595 Y38.611 E5.62205
G1 X155.208 Y38.643 E5.65063
G1 X155.621 Y38.682 E5.66995
G1 X156.311 Y38.789 E5.70246
G1 X156.819 Y38.908 E5.72676
G1 X157.171 Y39.004 E5.74374
G1 X157.935 Y39.265 E5.78134
G1 X158.585 Y39.55 E5.81439
G1 X159.296 Y39.93 E5.85193
G1 X159.944 Y40.355 E5.88801
G1 X160.538 Y40.812 E5.92291
G1 X161.097 Y41.325 E5.95824
G1 X161.722 Y42.007 E6.00131
G1 X161.896 Y42.226 E6.01434
G1 X163.96 Y44.868 E6.17045
G1 X164.457 Y45.484 E6.2073
G1 X164.875 Y46.065 E6.24063
G1 X165.225 Y46.689 E6.27395
G1 X165.503 Y47.348 E6.30725
G1 X165.706 Y48.034 E6.34056
G1 X165.844 Y48.852 E6.37919
G1 X165.887 Y49.435 E6.40641
G1 X165.9 Y49.988 E6.43217
G1 X165.9 Y61.745 E6.97962
G1 X165.938 Y64.387 E7.10266
G1 X166.05 Y67.027 E7.2257
G1 X166.237 Y69.672 E7.34917
G1 X166.501 Y72.329 E7.4735
G1 X166.835 Y74.944 E7.59625
G1 X167.243 Y77.54 E7.71862
G1 X167.728 Y80.147 E7.84209
G1 X168.289 Y82.755 E7.96631
G1 X168.906 Y85.276 E8.08716
G1 X169.618 Y87.863 E8.21211
G1 X170.401 Y90.419 E8.33658
G1 X171.233 Y92.886 E8.45781
G1 X172.163 Y95.408 E8.58298
G1 X173.139 Y97.837 E8.70487
G1 X174.499 Y100.934 E8.86237
G1 X174.732 Y101.44 E8.88831
G1 X174.994 Y102.105 E8.92159
G1 X175.181 Y102.796 E8.95493
G1 X175.311 Y103.79 E9.00161
G1 X175.331 Y104.638 E9.0411
G1 X175.331 Y105.272 E9.07063
G1 X175.321 Y105.973 E9.10327
G1 X175.271 Y106.687 E9.1366
G1 X175.142 Y107.39 E9.16988
G1 X174.935 Y108.075 E9.2032
G1 X174.755 Y108.515 E9.22534
G1 X173.646 Y110.972 E9.35086
G1 X172.61 Y113.452 E9.47601
G1 X171.673 Y115.893 E9.59776
G1 X170.795 Y118.386 E9.72083
G1 X169.989 Y120.895 E9.84354
G1 X169.249 Y123.448 E9.96731
G1 X168.578 Y126.03 E10.09154
G1 X167.984 Y128.61 E10.21482
G1 X167.469 Y131.195 E10.33755
G1 X167.021 Y133.822 E10.46164
G1 X166.65 Y136.431 E10.58435
G1 X166.354 Y139.045 E10.70684
G1 X166.131 Y141.682 E10.83007
G1 X165.985 Y144.3 E10.95217
G1 X165.9 Y148.341 E11.14037
G1 X165.899 Y159.884 E11.67786
G1 X165.889 Y160.587 E11.7106
G1 X165.839 Y161.301 E11.74393
G1 X165.71 Y162.004 E11.77721
G1 X165.503 Y162.689 E11.81053
G1 X165.22 Y163.346 E11.84384
G1 X164.867 Y163.967 E11.8771
G1 X164.527 Y164.445 E11.90442
G1 X164.188 Y164.876 E11.92995
G1 X163.05 Y166.286 E12.01432
G1 X162.208 Y167.376 E12.07846
G1 X161.688 Y168.038 E12.11766
G1 X161.178 Y168.594 E12.15279
G1 X160.62 Y169.119 E12.18846
G1 X159.965 Y169.63 E12.22715
G1 X159.235 Y170.104 E12.26768
G1 X158.64 Y170.422 E12.29909
G1 X158.013 Y170.705 E12.33112
G1 X157.537 Y170.879 E12.35472
G1 X157.217 Y170.983 E12.37039
G1 X156.546 Y171.161 E12.40271
G1 X155.728 Y171.303 E12.44137
G1 X155.004 Y171.372 E12.47524
G1 X154.382 Y171.394 E12.50422
G1 X153.806 Y171.4 E12.53104
G1 X41.114 Y171.399 E17.77845
G1 X40.405 Y171.389 E17.81147
G1 X39.792 Y171.357 E17.84005
G1 X39.379 Y171.318 E17.85937
G1 X38.689 Y171.211 E17.89188
G1 X38.181 Y171.092 E17.91618
G1 X37.829 Y170.996 E17.93317
G1 X37.065 Y170.735 E17.97076
G1 X36.411 Y170.448 E18.00402
G1 X35.695 Y170.064 E18.04185
G1 X35.109 Y169.683 E18.0744
G1 X34.611 Y169.311 E18.10334
G1 X34.161 Y168.92 E18.1311
G1 X33.893 Y168.666 E18.14829
G1 X33.348 Y168.081 E18.18552
G1 X32.872 Y167.466 E18.22173
G1 X32.446 Y166.82 E18.25777
G1 X32.091 Y166.166 E18.29242
G1 X31.774 Y165.459 E18.3285
G1 X31.518 Y164.719 E18.36496
G1 X31.336 Y164.033 E18.39801
G1 X31.244 Y163.541 E18.42131
G1 X31.195 Y163.217 E18.43657
G1 X31.128 Y162.502 E18.47001
G1 X31.106 Y161.878 E18.49908
G1 X31.1 Y161.306 E18.52572
G1 X31.101 Y48.614 E23.77313
G1 X31.111 Y47.905 E23.80615
G1 X31.143 Y47.292 E23.83473
G1 X31.182 Y46.879 E23.85405
G1 X31.289 Y46.189 E23.88656
G1 X31.408 Y45.681 E23.91086
G1 X31.504 Y45.329 E23.92785
G1 X31.765 Y44.565 E23.96544
G1 X32.048 Y43.918 E23.99832
G1 X32.425 Y43.212 E24.03559
G1 X32.859 Y42.551 E24.07241
G1 X33.246 Y42.039 E24.1023
G1 X33.586 Y41.653 E24.12625
G1 X33.843 Y41.383 E24.1436
G1 X34.396 Y40.868 E24.17879
M204 S3000
M205 X10 Y10
G0 F3000 X34.753 Y41.299
M204 S1800
M205 X8 Y8
G1 F2400 X35.334 Y40.844 E24.21315
G1 X35.981 Y40.419 E24.2492
G1 X36.617 Y40.075 E24.28287
G1 X37.186 Y39.819 E24.31192
G1 X37.947 Y39.553 E24.34946
G1 X38.61 Y39.378 E24.38139
G1 X39.357 Y39.25 E24.41668
G1 X40.035 Y39.186 E24.44839
G1 X40.594 Y39.167 E24.47443
G1 X41.193 Y39.16 E24.50233
G1 X153.797 Y39.16 E29.74564
G1 X154.587 Y39.171 E29.78243
G1 X155.169 Y39.202 E29.80957
G1 X155.565 Y39.239 E29.82809
G1 X156.195 Y39.337 E29.85778
G1 X157.024 Y39.544 E29.89757
G1 X157.721 Y39.782 E29.93186
G1 X158.353 Y40.06 E29.96401
G1 X159.002 Y40.407 E29.99828
G1 X159.629 Y40.818 E30.03319
G1 X160.171 Y41.235 E30.06503
G1 X160.713 Y41.732 E30.09927
G1 X161.283 Y42.355 E30.13859
G1 X161.454 Y42.571 E30.15142
G1 X163.507 Y45.2 E30.30674
G1 X164.021 Y45.836 E30.34482
G1 X164.419 Y46.392 E30.37666
G1 X164.748 Y46.99 E30.40844
G1 X165.006 Y47.623 E30.44027
G1 X165.188 Y48.282 E30.4721
G1 X165.287 Y48.909 E30.50166
G1 X165.327 Y49.452 E30.52701
G1 X165.34 Y49.995 E30.55231
G1 X165.34 Y61.745 E31.09943
G1 X165.377 Y64.384 E31.22233
G1 X165.492 Y67.091 E31.34849
G1 X165.677 Y69.694 E31.47
G1 X165.944 Y72.386 E31.59597
G1 X166.283 Y75.033 E31.72023
G1 X166.69 Y77.626 E31.84245
G1 X167.184 Y80.284 E31.96834
G1 X167.742 Y82.877 E32.09184
G1 X168.363 Y85.414 E32.21346
G1 X169.084 Y88.031 E32.33986
G1 X169.856 Y90.553 E32.46268
G1 X170.72 Y93.114 E32.58853
G1 X171.638 Y95.603 E32.71206
G1 X172.619 Y98.047 E32.83469
G1 X173.989 Y101.166 E32.99332
G1 X174.223 Y101.674 E33.01936
G1 X174.472 Y102.311 E33.05121
G1 X174.645 Y102.972 E33.08302
G1 X174.751 Y103.819 E33.12277
G1 X174.771 Y104.643 E33.16115
G1 X174.771 Y105.264 E33.19007
G1 X174.761 Y105.965 E33.22271
G1 X174.712 Y106.647 E33.25455
G1 X174.583 Y107.318 E33.28637
G1 X174.245 Y108.284 E33.33402
G1 X173.126 Y110.763 E33.46067
G1 X172.094 Y113.232 E33.58528
G1 X171.149 Y115.695 E33.70811
G1 X170.264 Y118.206 E33.83209
G1 X169.45 Y120.745 E33.95624
G1 X168.71 Y123.295 E34.07988
G1 X168.031 Y125.908 E34.20559
G1 X167.432 Y128.51 E34.32992
G1 X166.924 Y131.06 E34.45099
G1 X166.47 Y133.723 E34.57678
G1 X166.095 Y136.359 E34.70076
G1 X165.795 Y139.008 E34.8249
G1 X165.573 Y141.636 E34.9477
G1 X165.425 Y144.286 E35.07129
G1 X165.34 Y148.33 E35.25964
G1 X165.339 Y159.876 E35.79727
G1 X165.329 Y160.579 E35.83001
G1 X165.28 Y161.26 E35.8618
G1 X165.151 Y161.931 E35.89362
G1 X164.944 Y162.583 E35.92547
G1 X164.663 Y163.206 E35.95729
G1 X164.312 Y163.791 E35.98906
G1 X163.803 Y164.46 E36.0282
G1 X162.613 Y165.936 E36.11649
G1 X161.793 Y166.997 E36.17893
G1 X161.265 Y167.671 E36.21879
G1 X160.771 Y168.21 E36.25284
G1 X160.262 Y168.688 E36.28535
G1 X159.629 Y169.182 E36.32274
G1 X158.963 Y169.614 E36.35971
G1 X158.383 Y169.925 E36.39035
G1 X157.81 Y170.183 E36.41961
G1 X157.044 Y170.45 E36.45738
G1 X156.432 Y170.613 E36.48688
G1 X155.643 Y170.75 E36.52416
G1 X154.983 Y170.813 E36.55504
G1 X154.376 Y170.834 E36.58332
G1 X153.8 Y170.84 E36.61014
G1 X41.122 Y170.839 E41.8569
G1 X40.413 Y170.829 E41.88992
G1 X39.831 Y170.798 E41.91706
G1 X39.435 Y170.761 E41.93558
G1 X38.805 Y170.663 E41.96526
G1 X37.976 Y170.456 E42.00505
G1 X37.279 Y170.218 E42.03935
G1 X36.644 Y169.939 E42.07164
G1 X35.99 Y169.588 E42.1062
G1 X35.422 Y169.218 E42.13777
G1 X34.968 Y168.879 E42.16415
G1 X34.547 Y168.514 E42.1901
G1 X34.279 Y168.26 E42.20729
G1 X33.781 Y167.725 E42.24133
G1 X33.32 Y167.13 E42.27637
G1 X32.932 Y166.541 E42.30922
G1 X32.587 Y165.907 E42.34283
G1 X32.298 Y165.262 E42.37574
G1 X32.051 Y164.546 E42.411
G1 X31.885 Y163.92 E42.44116
G1 X31.749 Y163.133 E42.47835
G1 X31.687 Y162.481 E42.50885
G1 X31.666 Y161.872 E42.53722
G1 X31.66 Y161.3 E42.56386
G1 X31.661 Y48.622 E47.81062
G1 X31.671 Y47.913 E47.84363
G1 X31.702 Y47.331 E47.87077
G1 X31.739 Y46.935 E47.88929
G1 X31.837 Y46.305 E47.91898
G1 X32.044 Y45.476 E47.95877
G1 X32.282 Y44.779 E47.99306
G1 X32.558 Y44.151 E48.02501
G1 X32.902 Y43.506 E48.05904
G1 X33.322 Y42.866 E48.09469
G1 X33.675 Y42.399 E48.12195
G1 X34.249 Y41.77 E48.1616
G1 X34.753 Y41.299 E48.19372
M204 S3000
M205 X10 Y10
G0 F3000 X35.11 Y41.73
M204 S1800
M205 X8 Y8
G1 F2400 X35.673 Y41.291 E48.22696
G1 X36.257 Y40.906 E48.25953
G1 X36.874 Y40.573 E48.29218
G1 X37.389 Y40.341 E48.31848
G1 X38.121 Y40.085 E48.35459
G1 X38.721 Y39.927 E48.38348
G1 X39.442 Y39.803 E48.41755
G1 X40.055 Y39.745 E48.44622
G1 X40.6 Y39.727 E48.47161
G1 X41.199 Y39.72 E48.49951
G1 X153.797 Y39.72 E53.74254
G1 X154.58 Y39.731 E53.779
G1 X155.13 Y39.761 E53.80465
G1 X155.509 Y39.796 E53.82238
G1 X156.079 Y39.885 E53.84924
G1 X156.876 Y40.084 E53.88749
G1 X157.507 Y40.3 E53.91855
G1 X158.12 Y40.569 E53.94972
G1 X158.707 Y40.883 E53.98071
G1 X159.315 Y41.282 E54.01458
G1 X159.804 Y41.658 E54.0433
G1 X160.329 Y42.14 E54.07649
G1 X160.844 Y42.702 E54.11198
G1 X163.042 Y45.514 E54.27817
G1 X163.586 Y46.188 E54.31851
G1 X163.962 Y46.717 E54.34873
G1 X164.27 Y47.289 E54.37898
G1 X164.506 Y47.895 E54.40926
G1 X164.665 Y48.524 E54.43947
G1 X164.743 Y49.093 E54.46621
G1 X164.776 Y49.73 E54.49591
G1 X164.78 Y50.001 E54.50853
G1 X164.78 Y61.745 E55.05538
G1 X164.818 Y64.416 E55.17977
G1 X164.931 Y67.082 E55.30402
G1 X165.123 Y69.789 E55.43039
G1 X165.386 Y72.442 E55.55453
G1 X165.724 Y75.082 E55.67846
G1 X166.142 Y77.746 E55.80402
G1 X166.63 Y80.367 E55.92817
G1 X167.2 Y83.018 E56.05443
G1 X167.82 Y85.551 E56.17586
G1 X168.543 Y88.176 E56.30264
G1 X169.331 Y90.751 E56.42803
G1 X170.184 Y93.278 E56.55222
G1 X171.113 Y95.797 E56.67724
G1 X172.111 Y98.283 E56.80198
G1 X173.463 Y101.362 E56.95856
G1 X173.715 Y101.909 E56.98661
G1 X173.95 Y102.514 E57.01683
G1 X174.108 Y103.144 E57.04707
G1 X174.192 Y103.848 E57.08009
G1 X174.211 Y104.648 E57.11735
G1 X174.211 Y105.256 E57.14566
G1 X174.201 Y105.957 E57.1783
G1 X174.152 Y106.605 E57.20856
G1 X174.024 Y107.242 E57.23882
G1 X173.735 Y108.054 E57.27895
G1 X172.614 Y110.537 E57.40581
G1 X171.563 Y113.052 E57.53273
G1 X170.629 Y115.485 E57.65408
G1 X169.734 Y118.025 E57.77948
G1 X168.91 Y120.595 E57.90515
G1 X168.171 Y123.142 E58.02864
G1 X167.487 Y125.778 E58.15545
G1 X166.888 Y128.379 E58.27974
G1 X166.371 Y130.972 E58.40285
G1 X165.913 Y133.653 E58.5295
G1 X165.544 Y136.248 E58.65155
G1 X165.236 Y138.972 E58.7792
G1 X165.015 Y141.593 E58.90168
G1 X164.865 Y144.272 E59.02662
G1 X164.78 Y148.318 E59.21506
G1 X164.779 Y159.868 E59.75287
G1 X164.769 Y160.571 E59.78561
G1 X164.72 Y161.219 E59.81587
G1 X164.592 Y161.856 E59.84613
G1 X164.386 Y162.472 E59.87637
G1 X164.107 Y163.058 E59.90659
G1 X163.645 Y163.754 E59.94549
G1 X163.316 Y164.172 E59.97026
G1 X162.203 Y165.551 E60.05278
G1 X161.322 Y166.691 E60.11987
G1 X160.842 Y167.304 E60.15612
G1 X160.363 Y167.826 E60.18911
G1 X159.903 Y168.258 E60.21849
G1 X159.292 Y168.734 E60.25456
G1 X158.69 Y169.125 E60.28798
G1 X158.126 Y169.427 E60.31777
G1 X157.608 Y169.661 E60.34424
G1 X156.871 Y169.917 E60.38057
G1 X156.317 Y170.065 E60.40727
G1 X155.558 Y170.196 E60.44314
G1 X154.962 Y170.253 E60.47101
G1 X154.37 Y170.274 E60.4986
G1 X153.794 Y170.28 E60.52542
G1 X41.13 Y170.279 E65.77153
G1 X40.421 Y170.269 E65.80455
G1 X39.87 Y170.239 E65.83024
G1 X39.491 Y170.204 E65.84796
G1 X38.921 Y170.115 E65.87483
G1 X38.124 Y169.916 E65.91308
G1 X37.493 Y169.7 E65.94413
G1 X36.877 Y169.429 E65.97547
G1 X36.285 Y169.113 E66.00672
G1 X35.735 Y168.754 E66.0373
G1 X35.324 Y168.447 E66.06119
G1 X34.932 Y168.107 E66.08535
G1 X34.664 Y167.853 E66.10254
G1 X34.214 Y167.37 E66.13328
G1 X33.768 Y166.795 E66.16717
G1 X33.417 Y166.261 E66.19692
G1 X33.083 Y165.648 E66.22943
G1 X32.823 Y165.064 E66.2592
G1 X32.583 Y164.373 E66.29326
G1 X32.433 Y163.807 E66.32052
G1 X32.302 Y163.05 E66.35629
G1 X32.247 Y162.46 E66.38389
G1 X32.226 Y161.866 E66.41156
G1 X32.22 Y161.294 E66.4382
G1 X32.221 Y48.63 E71.68431
G1 X32.231 Y47.921 E71.71732
G1 X32.261 Y47.37 E71.74302
G1 X32.296 Y46.991 E71.76074
G1 X32.385 Y46.421 E71.78761
G1 X32.584 Y45.624 E71.82586
G1 X32.8 Y44.993 E71.85691
G1 X33.068 Y44.383 E71.88794
G1 X33.379 Y43.8 E71.9187
G1 X33.785 Y43.181 E71.95317
G1 X34.104 Y42.759 E71.97781
G1 X34.655 Y42.156 E72.01584
G1 X35.11 Y41.73 E72.04487
M204 S3000
M205 X10 Y10
G1 F2400 E66.04487
G0 F3000 X154.538 Y44.336
G0 X155.706 Y44.539
G0 X156.764 Y45.117
G0 X160.161 Y49.39
G0 X167.719 Y104.2
M204 S1800
M205 X8 Y8
;TYPE:SUPPORT-INTERFACE
G1 F2400 E72.04487
G1 F1500 X168.729 Y104.2 E72.0919
G1 X168.731 Y104.202 E72.09203
G1 X168.732 Y105.8 E72.16644
G1 X167.72 Y105.8 E72.21356
G1 X167.719 Y104.2 E72.28806
M204 S3000
M205 X10 Y10
G0 F3000 X168.252 Y105.32
M204 S1800
M205 X8 Y8
G1 F1500 X168.2 Y105.32 E72.29048
G1 X168.199 Y104.68 E72.32029
G1 X168.251 Y104.68 E72.32271
G1 X168.252 Y105.32 E72.35251
M204 S3000
M205 X10 Y10
G1 F2400 E66.35251
;MESH:Drawer_1_compartment.stl
G0 F3000 X166.789 Y106.661
G0 X160.165 Y110.354
G0 X158.646 Y110.354
G0 X156.1 Y159.1
M204 S1800
M205 X8 Y8
;TYPE:WALL-INNER
G1 F2400 E72.35251
G1 F1500 X156.1 Y161.945 E72.48498
G1 X156.009 Y162.515 E72.51186
G1 X155.757 Y162.983 E72.53661
G1 X155.38 Y163.331 E72.5605
G1 X154.881 Y163.548 E72.58584
G1 X154.257 Y163.6 E72.615
G1 X40.555 Y163.6 E77.90944
G1 X39.985 Y163.509 E77.93631
G1 X39.517 Y163.257 E77.96107
G1 X39.164 Y162.872 E77.98539
G1 X38.952 Y162.381 E78.01029
G1 X38.9 Y161.789 E78.03796
G1 X38.9 Y48.055 E83.33389
G1 X38.991 Y47.485 E83.36077
G1 X39.243 Y47.017 E83.38552
G1 X39.62 Y46.669 E83.40941
G1 X40.114 Y46.453 E83.43452
G1 X40.743 Y46.4 E83.46391
G1 X154.445 Y46.4 E88.75835
G1 X155.015 Y46.491 E88.78523
G1 X155.483 Y46.743 E88.80998
G1 X155.836 Y47.128 E88.8343
G1 X156.038 Y47.589 E88.85774
G1 X156.1 Y48.084 E88.88097
G1 X156.1 Y50.9 E89.01209
G1 X158.1 Y50.9 E89.10522
G1 X158.1 Y99.1 E91.34962
G1 X156.1 Y99.1 E91.44274
G1 X156.1 Y110.9 E91.9922
G1 X158.1 Y110.9 E92.08533
G1 X158.1 Y159.1 E94.32972
G1 X156.1 Y159.1 E94.42285
M204 S3000
M205 X10 Y10
G0 F3000 X156.59 Y50.41
G0 X156.66 Y50.34
M204 S1800
M205 X8 Y8
G1 F1500 X158.66 Y50.34 E94.51598
G1 X158.66 Y99.66 E96.81253
G1 X156.66 Y99.66 E96.90565
G1 X156.66 Y104.84 E97.14686
G1 X165.838 Y104.84 E97.57422
G1 X165.839 Y105.16 E97.58912
G1 X156.66 Y105.16 E97.83337
G1 X156.66 Y110.34 E98.07457
G1 X158.66 Y110.34 E98.1677
G1 X158.66 Y159.66 E100.46425
G1 X156.66 Y159.66 E100.55737
G1 X156.66 Y161.968 E100.66484
G1 X156.627 Y162.359 E100.68312
G1 X156.539 Y162.702 E100.6996
G1 X156.394 Y163.033 E100.71643
G1 X156.203 Y163.325 E100.73268
