;FLAVOR:Marlin
;TIME:14360
;Filament used: 11.6111m
;Layer height: 0.2
;MINX:31.1
;MINY:38.6
;MINZ:0.2
;MAXX:175.331
;MAXY:171.4
;MAXZ:18
;Generated with Cura_SteamEngine 4.8.0
M140 S60
M105
M190 S60
M104 S200
M105
M109 S200
M82 ;absolute extrusion mode
; Script based on an original created by tjjfvi (https://github.com/tjjfvi)
; An up-to-date version of the tjjfvi's original script can be found
; here:  https://csi.t6.fyi/
; Note - This script will only work in Cura V4.2 and above!
; --- Global Settings
; layer_height = 0.2
; smooth_spiralized_contours = True
; magic_mesh_surface_mode = normal
; machine_extruder_count = 1
; --- Single Extruder Settings
; speed_z_hop = 10
; retraction_amount = 6
; retraction_hop = 0.075
; retraction_hop_enabled = True
; retraction_enable = True
; retraction_speed = 40
; retraction_retract_speed = 40
; retraction_prime_speed = 40
; speed_travel = 100


G21 ;metric values
G90 ;absolute positioning
M82 ;set extruder to absolute mode
M107 ;start with the fan off
G28 X0 Y0 ;move X/Y to min endstops
G28 Z0 ;move Z to min endstops
G1 Z15.0 F100 ;move the platform down 15mm
G92 E0 ;zero the extruded length
G1 F200 E3 ;extrude 3mm of feed stock
G92 E0 ;zero the extruded length again
G1 F100
G0 Y20 F100
M117 Printing...
G5
G92 E0
G92 E0
G1 F2400 E-6
;LAYER_COUNT:90
;LAYER:0
M106 S255
M204 S3000
M205 X10 Y10
G1 F600 Z0.275
G0 F3000 X34.396 Y40.868 Z0.275
M204 S1800
M205 X8 Y8
;TYPE:SKIRT
G1 F600 Z0.2
G1 F2400 E0
G1 X34.996 Y40.398 E0.03549
G1 X35.705 Y39.931 E0.07502
G1 X36.36 Y39.578 E0.10967
G1 X36.984 Y39.297 E0.14153
G1 X37.772 Y39.02 E0.18043
G1 X38.499 Y38.829 E0.21543
G1 X39.272 Y38.696 E0.25195
G1 X40.015 Y38.626 E0.2867
G1 X40.587 Y38.607 E0.31335
G1 X41.186 Y38.6 E0.34125
G1 X153.797 Y38.6 E5.58489
G1 X154.595 Y38.611 E5.62205
G1 X155.208 Y38.643 E5.65063
G1 X155.621 Y38.682 E5.66995
G1 X156.311 Y38.789 E5.70246
G1 X156.819 Y38.908 E5.72676
G1 X157.171 Y39.004 E5.74374
G1 X157.935 Y39.265 E5.78134
G1 X158.585 Y39.55 E5.81439
G1 X159.296 Y39.93 E5.85193
G1 X159.944 Y40.355 E5.88801
G1 X160.538 Y40.812 E5.92291
G1 X161.099 Y41.328 E5.9584
G1 X161.577 Y41.832 E5.99074
G1 X161.968 Y42.312 E6.01957
G1 X163.752 Y44.594 E6.15445
G1 X164.472 Y45.487 E6.20786
G1 X164.889 Y46.068 E6.24116
G1 X165.239 Y46.692 E6.27448
G1 X165.517 Y47.351 E6.30778
G1 X165.719 Y48.037 E6.34108
G1 X165.844 Y48.742 E6.37442
G1 X165.887 Y49.308 E6.40085
G1 X165.9 Y49.83 E6.42517
G1 X165.9 Y61.745 E6.97998
G1 X165.938 Y64.389 E7.10311
G1 X166.05 Y67.027 E7.22605
G1 X166.237 Y69.673 E7.34957
G1 X166.501 Y72.328 E7.47381
G1 X166.835 Y74.939 E7.59638
G1 X167.245 Y77.551 E7.71949
G1 X167.725 Y80.133 E7.84178
G1 X168.286 Y82.738 E7.96586
G1 X168.913 Y85.299 E8.08864
G1 X169.621 Y87.872 E8.2129
G1 X170.398 Y90.409 E8.33645
G1 X171.237 Y92.897 E8.45871
G1 X172.159 Y95.397 E8.58278
G1 X173.139 Y97.837 E8.70522
G1 X174.499 Y100.934 E8.86272
G1 X174.732 Y101.44 E8.88866
G1 X174.994 Y102.105 E8.92194
G1 X175.181 Y102.796 E8.95528
G1 X175.311 Y103.79 E9.00196
G1 X175.331 Y104.638 E9.04145
G1 X175.331 Y105.272 E9.07098
G1 X175.321 Y105.973 E9.10362
G1 X175.271 Y106.687 E9.13695
G1 X175.142 Y107.39 E9.17023
G1 X174.935 Y108.075 E9.20355
G1 X174.755 Y108.515 E9.22569
G1 X173.646 Y110.972 E9.35121
G1 X172.61 Y113.452 E9.47636
G1 X171.673 Y115.893 E9.59811
G1 X170.795 Y118.386 E9.72118
G1 X169.989 Y120.895 E9.84389
G1 X169.249 Y123.448 E9.96766
G1 X168.578 Y126.03 E10.09189
G1 X167.984 Y128.61 E10.21517
G1 X167.469 Y131.195 E10.3379
G1 X167.021 Y133.822 E10.46199
G1 X166.65 Y136.431 E10.5847
G1 X166.354 Y139.045 E10.70719
G1 X166.131 Y141.682 E10.83042
G1 X165.985 Y144.3 E10.95252
G1 X165.9 Y148.341 E11.14072
G1 X165.899 Y159.884 E11.67821
G1 X165.889 Y160.587 E11.71095
G1 X165.839 Y161.301 E11.74428
G1 X165.71 Y162.004 E11.77756
G1 X165.503 Y162.689 E11.81088
G1 X165.22 Y163.346 E11.84419
G1 X164.867 Y163.967 E11.87745
G1 X164.531 Y164.439 E11.90443
G1 X164.178 Y164.889 E11.93106
G1 X163.058 Y166.276 E12.01408
G1 X162.208 Y167.376 E12.07881
G1 X161.692 Y168.033 E12.11771
G1 X161.177 Y168.595 E12.1532
G1 X160.62 Y169.119 E12.18881
G1 X159.965 Y169.63 E12.2275
G1 X159.235 Y170.104 E12.26802
G1 X158.64 Y170.422 E12.29944
G1 X158.013 Y170.705 E12.33147
G1 X157.537 Y170.879 E12.35507
G1 X157.217 Y170.983 E12.37074
G1 X156.546 Y171.161 E12.40306
G1 X155.728 Y171.303 E12.44172
G1 X155.004 Y171.372 E12.47559
G1 X154.382 Y171.394 E12.50457
G1 X153.806 Y171.4 E12.53139
G1 X41.114 Y171.399 E17.7788
G1 X40.405 Y171.389 E17.81182
G1 X39.792 Y171.357 E17.8404
G1 X39.379 Y171.318 E17.85972
G1 X38.689 Y171.211 E17.89223
G1 X38.181 Y171.092 E17.91653
G1 X37.829 Y170.996 E17.93352
G1 X37.065 Y170.735 E17.97111
G1 X36.411 Y170.448 E18.00437
G1 X35.695 Y170.064 E18.0422
G1 X35.109 Y169.683 E18.07474
G1 X34.587 Y169.291 E18.10514
G1 X34.171 Y168.928 E18.13085
G1 X33.903 Y168.675 E18.14801
G1 X33.348 Y168.081 E18.18587
G1 X32.89 Y167.492 E18.22061
G1 X32.463 Y166.848 E18.25659
G1 X32.095 Y166.175 E18.2923
G1 X31.793 Y165.509 E18.32636
G1 X31.521 Y164.728 E18.36486
G1 X31.332 Y164.015 E18.39921
G1 X31.195 Y163.217 E18.43691
G1 X31.126 Y162.485 E18.47115
G1 X31.107 Y161.913 E18.4978
G1 X31.1 Y161.314 E18.52569
G1 X31.101 Y48.606 E23.77385
G1 X31.112 Y47.886 E23.80738
G1 X31.143 Y47.299 E23.83475
G1 X31.182 Y46.876 E23.85453
G1 X31.289 Y46.189 E23.88691
G1 X31.408 Y45.681 E23.9112
G1 X31.504 Y45.329 E23.92819
G1 X31.765 Y44.565 E23.96578
G1 X32.048 Y43.918 E23.99867
G1 X32.415 Y43.23 E24.03498
G1 X32.865 Y42.542 E24.07326
G1 X33.246 Y42.039 E24.10264
G1 X33.586 Y41.653 E24.12659
G1 X33.843 Y41.383 E24.14395
G1 X34.396 Y40.868 E24.17914
M204 S3000
M205 X10 Y10
G0 F3000 X34.753 Y41.299
M204 S1800
M205 X8 Y8
G1 F2400 X35.334 Y40.844 E24.2135
G1 X35.981 Y40.419 E24.24954
G1 X36.617 Y40.075 E24.28321
G1 X37.186 Y39.819 E24.31227
G1 X37.947 Y39.553 E24.3498
G1 X38.61 Y39.378 E24.38173
G1 X39.357 Y39.25 E24.41702
G1 X40.035 Y39.186 E24.44873
G1 X40.594 Y39.167 E24.47478
G1 X41.193 Y39.16 E24.50267
G1 X153.797 Y39.16 E29.74599
G1 X154.587 Y39.171 E29.78278
G1 X155.169 Y39.202 E29.80991
G1 X155.565 Y39.239 E29.82843
G1 X156.195 Y39.337 E29.85812
G1 X157.024 Y39.544 E29.89791
G1 X157.721 Y39.782 E29.9322
G1 X158.353 Y40.06 E29.96435
G1 X159.002 Y40.407 E29.99862
G1 X159.629 Y40.818 E30.03353
G1 X160.171 Y41.235 E30.06537
G1 X160.714 Y41.734 E30.09971
G1 X161.15 Y42.194 E30.12923
G1 X161.53 Y42.66 E30.15723
G1 X163.299 Y44.925 E30.29105
G1 X164.036 Y45.839 E30.34572
G1 X164.433 Y46.395 E30.37753
G1 X164.762 Y46.994 E30.40935
G1 X165.02 Y47.627 E30.44118
G1 X165.201 Y48.285 E30.47296
G1 X165.305 Y48.961 E30.50481
G1 X165.337 Y49.65 E30.53693
G1 X165.34 Y49.83 E30.54531
G1 X165.34 Y61.745 E31.10012
G1 X165.377 Y64.384 E31.22302
G1 X165.492 Y67.092 E31.34923
G1 X165.677 Y69.695 E31.47074
G1 X165.944 Y72.385 E31.59661
G1 X166.282 Y75.027 E31.72064
G1 X166.691 Y77.631 E31.84338
G1 X167.184 Y80.284 E31.96903
G1 X167.735 Y82.845 E32.09101
G1 X168.373 Y85.446 E32.21571
G1 X169.086 Y88.04 E32.34098
G1 X169.862 Y90.575 E32.46442
G1 X170.712 Y93.093 E32.58817
G1 X171.633 Y95.592 E32.71219
G1 X172.619 Y98.047 E32.83538
G1 X173.989 Y101.166 E32.994
G1 X174.223 Y101.674 E33.02005
G1 X174.472 Y102.311 E33.05189
G1 X174.645 Y102.972 E33.08371
G1 X174.751 Y103.819 E33.12346
G1 X174.771 Y104.643 E33.16184
G1 X174.771 Y105.264 E33.19075
G1 X174.761 Y105.965 E33.2234
G1 X174.712 Y106.647 E33.25524
G1 X174.583 Y107.318 E33.28705
G1 X174.245 Y108.284 E33.33471
G1 X173.126 Y110.763 E33.46136
G1 X172.094 Y113.232 E33.58596
G1 X171.149 Y115.695 E33.7088
G1 X170.264 Y118.206 E33.83277
G1 X169.45 Y120.745 E33.95693
G1 X168.71 Y123.295 E34.08057
G1 X168.031 Y125.908 E34.20628
G1 X167.432 Y128.51 E34.33061
G1 X166.924 Y131.06 E34.45168
G1 X166.47 Y133.723 E34.57747
G1 X166.095 Y136.359 E34.70145
G1 X165.795 Y139.008 E34.82559
G1 X165.573 Y141.636 E34.94839
G1 X165.425 Y144.286 E35.07198
G1 X165.34 Y148.33 E35.26033
G1 X165.339 Y159.876 E35.79796
G1 X165.329 Y160.579 E35.83069
G1 X165.28 Y161.26 E35.86249
G1 X165.151 Y161.931 E35.8943
G1 X164.944 Y162.583 E35.92616
G1 X164.663 Y163.206 E35.95798
G1 X164.312 Y163.791 E35.98975
G1 X163.799 Y164.466 E36.02923
G1 X162.599 Y165.954 E36.11824
G1 X161.793 Y166.997 E36.17961
G1 X161.268 Y167.667 E36.21925
G1 X160.77 Y168.21 E36.25356
G1 X160.262 Y168.688 E36.28604
G1 X159.629 Y169.182 E36.32343
G1 X158.963 Y169.614 E36.36039
G1 X158.383 Y169.925 E36.39104
G1 X157.81 Y170.183 E36.4203
G1 X157.044 Y170.45 E36.45807
G1 X156.432 Y170.613 E36.48756
G1 X155.643 Y170.75 E36.52485
G1 X154.983 Y170.813 E36.55572
G1 X154.376 Y170.834 E36.584
G1 X153.8 Y170.84 E36.61083
G1 X41.122 Y170.839 E41.85758
G1 X40.413 Y170.829 E41.8906
G1 X39.831 Y170.798 E41.91774
G1 X39.435 Y170.761 E41.93626
G1 X38.805 Y170.663 E41.96595
G1 X37.976 Y170.456 E42.00574
G1 X37.279 Y170.218 E42.04003
G1 X36.644 Y169.939 E42.07233
G1 X35.99 Y169.588 E42.10689
G1 X35.422 Y169.218 E42.13845
G1 X34.945 Y168.86 E42.16622
G1 X34.555 Y168.521 E42.19029
G1 X34.287 Y168.268 E42.20745
G1 X33.781 Y167.725 E42.24201
G1 X33.337 Y167.155 E42.27565
G1 X32.948 Y166.567 E42.30848
G1 X32.591 Y165.916 E42.34305
G1 X32.315 Y165.307 E42.37419
G1 X32.053 Y164.554 E42.41131
G1 X31.881 Y163.903 E42.44267
G1 X31.748 Y163.132 E42.4791
G1 X31.686 Y162.465 E42.51029
G1 X31.667 Y161.906 E42.53633
G1 X31.66 Y161.307 E42.56423
G1 X31.661 Y48.615 E47.81164
G1 X31.672 Y47.895 E47.84517
G1 X31.702 Y47.337 E47.87119
G1 X31.739 Y46.932 E47.89013
G1 X31.837 Y46.305 E47.91968
G1 X32.044 Y45.476 E47.95946
G1 X32.282 Y44.779 E47.99376
G1 X32.558 Y44.151 E48.0257
G1 X32.892 Y43.522 E48.05886
G1 X33.328 Y42.858 E48.09585
G1 X33.675 Y42.399 E48.12264
G1 X34.249 Y41.77 E48.1623
G1 X34.753 Y41.299 E48.19442
M204 S3000
M205 X10 Y10
G0 F3000 X35.11 Y41.73
M204 S1800
M205 X8 Y8
G1 F2400 X35.673 Y41.291 E48.22766
G1 X36.257 Y40.906 E48.26023
G1 X36.874 Y40.573 E48.29288
G1 X37.389 Y40.341 E48.31918
G1 X38.121 Y40.085 E48.35529
G1 X38.721 Y39.927 E48.38418
G1 X39.442 Y39.803 E48.41825
G1 X40.055 Y39.745 E48.44692
G1 X40.6 Y39.727 E48.47231
G1 X41.199 Y39.72 E48.5002
G1 X153.797 Y39.72 E53.74324
G1 X154.58 Y39.731 E53.7797
G1 X155.13 Y39.761 E53.80535
G1 X155.509 Y39.796 E53.82307
G1 X156.079 Y39.885 E53.84993
G1 X156.876 Y40.084 E53.88819
G1 X157.507 Y40.3 E53.91924
G1 X158.12 Y40.569 E53.95041
G1 X158.707 Y40.883 E53.98141
G1 X159.315 Y41.282 E54.01527
G1 X159.804 Y41.658 E54.044
G1 X160.329 Y42.141 E54.07721
G1 X160.723 Y42.557 E54.10389
G1 X161.092 Y43.009 E54.13106
G1 X162.878 Y45.296 E54.26618
G1 X163.6 Y46.191 E54.31973
G1 X163.976 Y46.72 E54.34995
G1 X164.284 Y47.292 E54.3802
G1 X164.519 Y47.898 E54.41046
G1 X164.679 Y48.528 E54.44073
G1 X164.768 Y49.343 E54.47891
G1 X164.78 Y49.83 E54.50159
G1 X164.78 Y61.745 E55.0564
G1 X164.818 Y64.416 E55.18079
G1 X164.931 Y67.083 E55.30508
G1 X165.123 Y69.79 E55.43145
G1 X165.386 Y72.441 E55.5555
G1 X165.724 Y75.082 E55.67948
G1 X166.142 Y77.745 E55.805
G1 X166.63 Y80.368 E55.92923
G1 X167.193 Y82.985 E56.05388
G1 X167.83 Y85.583 E56.17843
G1 X168.546 Y88.185 E56.3041
G1 X169.328 Y90.741 E56.42856
G1 X170.184 Y93.277 E56.55319
G1 X171.113 Y95.797 E56.67825
G1 X172.111 Y98.283 E56.80299
G1 X173.463 Y101.362 E56.95958
G1 X173.715 Y101.909 E56.98762
G1 X173.95 Y102.514 E57.01784
G1 X174.108 Y103.144 E57.04809
G1 X174.192 Y103.848 E57.0811
G1 X174.211 Y104.648 E57.11836
G1 X174.211 Y105.256 E57.14667
G1 X174.201 Y105.957 E57.17932
G1 X174.152 Y106.605 E57.20958
G1 X174.024 Y107.242 E57.23983
G1 X173.735 Y108.054 E57.27997
G1 X172.614 Y110.537 E57.40682
G1 X171.563 Y113.052 E57.53374
G1 X170.629 Y115.485 E57.6551
G1 X169.734 Y118.025 E57.7805
G1 X168.91 Y120.595 E57.90617
G1 X168.171 Y123.142 E58.02966
G1 X167.487 Y125.778 E58.15647
G1 X166.888 Y128.379 E58.28075
G1 X166.371 Y130.972 E58.40387
G1 X165.913 Y133.653 E58.53051
G1 X165.544 Y136.248 E58.65256
G1 X165.236 Y138.972 E58.78021
G1 X165.015 Y141.593 E58.90269
G1 X164.865 Y144.272 E59.02763
G1 X164.78 Y148.318 E59.21607
G1 X164.779 Y159.868 E59.75389
G1 X164.769 Y160.571 E59.78663
G1 X164.72 Y161.219 E59.81689
G1 X164.592 Y161.856 E59.84714
G1 X164.386 Y162.472 E59.87738
G1 X164.107 Y163.058 E59.90761
G1 X163.649 Y163.749 E59.94621
G1 X163.307 Y164.185 E59.97201
G1 X162.179 Y165.581 E60.05558
G1 X161.322 Y166.691 E60.12088
G1 X160.845 Y167.301 E60.15694
G1 X160.363 Y167.826 E60.19013
G1 X159.903 Y168.258 E60.21951
G1 X159.292 Y168.734 E60.25557
G1 X158.69 Y169.125 E60.289
G1 X158.126 Y169.427 E60.31879
G1 X157.608 Y169.661 E60.34526
G1 X156.871 Y169.917 E60.38159
G1 X156.317 Y170.065 E60.40829
G1 X155.558 Y170.196 E60.44415
G1 X154.962 Y170.253 E60.47203
G1 X154.37 Y170.274 E60.49961
G1 X153.794 Y170.28 E60.52644
G1 X41.13 Y170.279 E65.77255
G1 X40.421 Y170.269 E65.80556
G1 X39.87 Y170.239 E65.83126
G1 X39.491 Y170.204 E65.84898
G1 X38.921 Y170.115 E65.87584
G1 X38.124 Y169.916 E65.91409
G1 X37.493 Y169.7 E65.94515
G1 X36.877 Y169.429 E65.97649
G1 X36.285 Y169.113 E66.00773
G1 X35.735 Y168.754 E66.03832
G1 X35.304 Y168.43 E66.06342
G1 X34.671 Y167.86 E66.10309
G1 X34.214 Y167.37 E66.13429
G1 X33.785 Y166.818 E66.16684
G1 X33.432 Y166.287 E66.19653
G1 X33.087 Y165.656 E66.23002
G1 X32.838 Y165.106 E66.25813
G1 X32.585 Y164.379 E66.29398
G1 X32.429 Y163.791 E66.3223
G1 X32.302 Y163.048 E66.3574
G1 X32.245 Y162.445 E66.3856
G1 X32.227 Y161.9 E66.411
G1 X32.22 Y161.301 E66.43889
G1 X32.221 Y48.623 E71.68565
G1 X32.232 Y47.903 E71.71918
G1 X32.26 Y47.375 E71.7438
G1 X32.296 Y46.988 E71.7619
G1 X32.385 Y46.421 E71.78862
G1 X32.584 Y45.624 E71.82687
G1 X32.8 Y44.993 E71.85793
G1 X33.068 Y44.383 E71.88895
G1 X33.37 Y43.815 E71.91891
G1 X33.79 Y43.174 E71.95459
G1 X34.104 Y42.759 E71.97883
G1 X34.655 Y42.156 E72.01686
G1 X35.11 Y41.73 E72.04588
M204 S3000
M205 X10 Y10
G1 F2400 E66.04588
G0 F3000 X154.538 Y44.336
G0 X155.706 Y44.539
G0 X156.764 Y45.117
G0 X160.161 Y49.39
G0 X167.719 Y104.2
M204 S1800
M205 X8 Y8
;TYPE:SUPPORT-INTERFACE
G1 F2400 E72.04588
G1 F1500 X168.729 Y104.2 E72.09291
G1 X168.731 Y104.202 E72.09305
G1 X168.732 Y105.8 E72.16746
G1 X167.72 Y105.8 E72.21458
G1 X167.719 Y104.2 E72.28908
M204 S3000
M205 X10 Y10
G0 F3000 X168.252 Y105.32
M204 S1800
M205 X8 Y8
G1 F1500 X168.2 Y105.32 E72.2915
G1 X168.199 Y104.68 E72.3213
G1 X168.251 Y104.68 E72.32372
G1 X168.252 Y105.32 E72.35353
M204 S3000
M205 X10 Y10
G1 F2400 E66.35353
;MESH:Drawer_2_compartments.stl
G0 F3000 X166.789 Y106.661
G0 X160.165 Y110.354
G0 X158.646 Y110.354
G0 X156.1 Y159.1
M204 S1800
M205 X8 Y8
;TYPE:WALL-INNER
G1 F2400 E72.35353
G1 F1500 X156.1 Y161.945 E72.486
G1 X156.009 Y162.515 E72.51288
G1 X155.757 Y162.983 E72.53763
G1 X155.38 Y163.331 E72.56152
G1 X154.881 Y163.548 E72.58686
G1 X154.257 Y163.6 E72.61601
G1 X40.555 Y163.6 E77.91045
G1 X39.985 Y163.509 E77.93733
G1 X39.517 Y163.257 E77.96208
G1 X39.164 Y162.871 E77.98644
G1 X38.952 Y162.383 E78.01121
G1 X38.9 Y161.789 E78.03898
G1 X38.9 Y48.055 E83.33491
G1 X38.991 Y47.485 E83.36179
G1 X39.243 Y47.017 E83.38654
G1 X39.62 Y46.669 E83.41043
G1 X40.114 Y46.453 E83.43553
G1 X40.743 Y46.4 E83.46493
G1 X154.445 Y46.4 E88.75937
G1 X155.015 Y46.491 E88.78625
G1 X155.483 Y46.743 E88.811
G1 X155.836 Y47.129 E88.83535
G1 X156.038 Y47.588 E88.8587
G1 X156.1 Y48.079 E88.88175
G1 X156.1 Y50.9 E89.01311
G1 X158.1 Y50.9 E89.10624
G1 X158.1 Y99.1 E91.35063
G1 X156.1 Y99.1 E91.44376
G1 X156.1 Y110.9 E91.99321
G1 X158.1 Y110.9 E92.08634
G1 X158.1 Y159.1 E94.33074
G1 X156.1 Y159.1 E94.42387
M204 S3000
M205 X10 Y10
G0 F3000 X156.59 Y50.41
G0 X156.66 Y50.34
M204 S1800
M205 X8 Y8
G1 F1500 X158.66 Y50.34 E94.51699
G1 X158.66 Y99.66 E96.81354
G1 X156.66 Y99.66 E96.90667
G1 X156.66 Y104.84 E97.14787
G1 X165.838 Y104.84 E97.57524
G1 X165.839 Y105.16 E97.59014
G1 X156.66 Y105.16 E97.83438
G1 X156.66 Y110.34 E98.07559
G1 X158.66 Y110.34 E98.16871
G1 X158.66 Y159.66 E100.46526
G1 X156.66 Y159.66 E100.55839
G1 X156.66 Y161.968 E100.66586
G1 X156.627 Y162.359 E100.68413
G1 X156.539 Y162.702 E100.70062
G1 X156.394 Y163.033 E100.71745
G1 X156.203 Y163.325 E100.73369
G1 X155.961 Y163.588 E100.75033
G1 X155.686 Y163.802 E100.76656
