;FLAVOR:Marlin
;TIME:16126
;Filament used: 12.7511m
;Layer height: 0.2
;MINX:31.1
;MINY:38.6
;MINZ:0.2
;MAXX:175.331
;MAXY:171.4
;MAXZ:18
;Generated with Cura_SteamEngine 4.8.0
M140 S60
M105
M190 S60
M104 S200
M105
M109 S200
M82 ;absolute extrusion mode
; Script based on an original created by tjjfvi (https://github.com/tjjfvi)
; An up-to-date version of the tjjfvi's original script can be found
; here:  https://csi.t6.fyi/
; Note - This script will only work in Cura V4.2 and above!
; --- Global Settings
; layer_height = 0.2
; smooth_spiralized_contours = True
; magic_mesh_surface_mode = normal
; machine_extruder_count = 1
; --- Single Extruder Settings
; speed_z_hop = 10
; retraction_amount = 6
; retraction_hop = 0.075
; retraction_hop_enabled = True
; retraction_enable = True
; retraction_speed = 40
; retraction_retract_speed = 40
; retraction_prime_speed = 40
; speed_travel = 100


G21 ;metric values
G90 ;absolute positioning
M82 ;set extruder to absolute mode
M107 ;start with the fan off
G28 X0 Y0 ;move X/Y to min endstops
G28 Z0 ;move Z to min endstops
G1 Z15.0 F100 ;move the platform down 15mm
G92 E0 ;zero the extruded length
G1 F200 E3 ;extrude 3mm of feed stock
G92 E0 ;zero the extruded length again
G1 F100
G0 Y20 F100
M117 Printing...
G5
G92 E0
G92 E0
G1 F2400 E-6
;LAYER_COUNT:90
;LAYER:0
M106 S255
M204 S3000
M205 X10 Y10
G1 F600 Z0.275
G0 F3000 X34.396 Y40.868 Z0.275
M204 S1800
M205 X8 Y8
;TYPE:SKIRT
G1 F600 Z0.2
G1 F2400 E0
G1 X34.996 Y40.398 E0.03549
G1 X35.705 Y39.931 E0.07502
G1 X36.36 Y39.578 E0.10967
G1 X36.984 Y39.297 E0.14153
G1 X37.772 Y39.02 E0.18043
G1 X38.499 Y38.829 E0.21543
G1 X39.272 Y38.696 E0.25195
G1 X40.015 Y38.626 E0.2867
G1 X40.587 Y38.607 E0.31335
G1 X41.186 Y38.6 E0.34125
G1 X153.797 Y38.6 E5.58489
G1 X154.595 Y38.611 E5.62205
G1 X155.208 Y38.643 E5.65063
G1 X155.621 Y38.682 E5.66995
G1 X156.311 Y38.789 E5.70246
G1 X156.819 Y38.908 E5.72676
G1 X157.171 Y39.004 E5.74374
G1 X157.935 Y39.265 E5.78134
G1 X158.585 Y39.55 E5.81439
G1 X159.296 Y39.93 E5.85193
G1 X159.944 Y40.355 E5.88801
G1 X160.538 Y40.812 E5.92291
G1 X161.105 Y41.333 E5.95876
G1 X161.663 Y41.935 E5.99698
G1 X161.87 Y42.19 E6.01228
G1 X163.731 Y44.567 E6.15285
G1 X164.472 Y45.486 E6.20782
G1 X164.889 Y46.067 E6.24112
G1 X165.239 Y46.691 E6.27443
G1 X165.517 Y47.35 E6.30774
G1 X165.719 Y48.036 E6.34104
G1 X165.844 Y48.741 E6.37438
G1 X165.887 Y49.308 E6.40085
G1 X165.9 Y49.83 E6.42517
G1 X165.9 Y61.745 E6.97998
G1 X165.938 Y64.389 E7.10311
G1 X166.05 Y67.027 E7.22606
G1 X166.237 Y69.673 E7.34957
G1 X166.501 Y72.328 E7.47381
G1 X166.835 Y74.939 E7.59638
G1 X167.245 Y77.551 E7.7195
G1 X167.725 Y80.133 E7.84178
G1 X168.286 Y82.738 E7.96586
G1 X168.913 Y85.299 E8.08864
G1 X169.621 Y87.872 E8.2129
G1 X170.398 Y90.409 E8.33645
G1 X171.237 Y92.897 E8.45871
G1 X172.159 Y95.397 E8.58279
G1 X173.139 Y97.837 E8.70522
G1 X174.499 Y100.934 E8.86273
G1 X174.732 Y101.44 E8.88866
G1 X174.994 Y102.105 E8.92195
G1 X175.181 Y102.796 E8.95528
G1 X175.311 Y103.79 E9.00196
G1 X175.331 Y104.638 E9.04146
G1 X175.331 Y105.272 E9.07098
G1 X175.321 Y105.973 E9.10362
G1 X175.271 Y106.687 E9.13695
G1 X175.142 Y107.39 E9.17023
G1 X174.935 Y108.075 E9.20355
G1 X174.755 Y108.515 E9.22569
G1 X173.646 Y110.972 E9.35121
G1 X172.61 Y113.452 E9.47636
G1 X171.673 Y115.893 E9.59811
G1 X170.795 Y118.386 E9.72119
G1 X169.989 Y120.895 E9.8439
G1 X169.249 Y123.448 E9.96767
G1 X168.578 Y126.03 E10.09189
G1 X167.984 Y128.61 E10.21517
G1 X167.469 Y131.195 E10.3379
G1 X167.021 Y133.822 E10.46199
G1 X166.65 Y136.431 E10.5847
G1 X166.354 Y139.045 E10.7072
G1 X166.131 Y141.682 E10.83042
G1 X165.985 Y144.3 E10.95252
G1 X165.9 Y148.341 E11.14073
G1 X165.899 Y159.884 E11.67822
G1 X165.889 Y160.587 E11.71095
G1 X165.839 Y161.301 E11.74428
G1 X165.71 Y162.004 E11.77756
G1 X165.503 Y162.689 E11.81089
G1 X165.22 Y163.346 E11.8442
G1 X164.867 Y163.967 E11.87746
G1 X164.531 Y164.439 E11.90444
G1 X164.178 Y164.889 E11.93107
G1 X163.058 Y166.276 E12.01408
G1 X162.208 Y167.376 E12.07881
G1 X161.692 Y168.033 E12.11771
G1 X161.177 Y168.595 E12.1532
G1 X160.62 Y169.119 E12.18881
G1 X159.965 Y169.63 E12.2275
G1 X159.235 Y170.104 E12.26803
G1 X158.64 Y170.422 E12.29944
G1 X158.013 Y170.705 E12.33147
G1 X157.537 Y170.879 E12.35507
G1 X157.217 Y170.983 E12.37074
G1 X156.546 Y171.161 E12.40306
G1 X155.728 Y171.303 E12.44172
G1 X155.004 Y171.372 E12.47559
G1 X154.382 Y171.394 E12.50457
G1 X153.806 Y171.4 E12.53139
G1 X41.114 Y171.399 E17.7788
G1 X40.405 Y171.389 E17.81182
G1 X39.792 Y171.357 E17.8404
G1 X39.379 Y171.318 E17.85972
G1 X38.689 Y171.211 E17.89223
G1 X38.181 Y171.092 E17.91653
G1 X37.829 Y170.996 E17.93352
G1 X37.065 Y170.735 E17.97111
G1 X36.411 Y170.448 E18.00437
G1 X35.694 Y170.064 E18.04224
G1 X35.103 Y169.679 E18.07508
G1 X34.587 Y169.291 E18.10515
G1 X34.171 Y168.928 E18.13086
G1 X33.903 Y168.675 E18.14802
G1 X33.372 Y168.109 E18.18415
G1 X32.894 Y167.499 E18.22024
G1 X32.42 Y166.774 E18.26057
G1 X32.083 Y166.148 E18.29368
G1 X31.798 Y165.52 E18.32579
G1 X31.519 Y164.721 E18.3652
G1 X31.331 Y164.008 E18.39953
G1 X31.196 Y163.228 E18.43639
G1 X31.126 Y162.485 E18.47115
G1 X31.107 Y161.913 E18.49779
G1 X31.1 Y161.314 E18.52569
G1 X31.101 Y48.606 E23.77385
G1 X31.112 Y47.886 E23.80738
G1 X31.143 Y47.299 E23.83475
G1 X31.182 Y46.876 E23.85453
G1 X31.289 Y46.189 E23.8869
G1 X31.408 Y45.681 E23.9112
G1 X31.504 Y45.329 E23.92819
G1 X31.764 Y44.567 E23.96568
G1 X32.051 Y43.914 E23.99889
G1 X32.415 Y43.23 E24.03497
G1 X32.865 Y42.542 E24.07325
G1 X33.246 Y42.039 E24.10263
G1 X33.586 Y41.653 E24.12658
G1 X33.843 Y41.383 E24.14394
G1 X34.396 Y40.868 E24.17913
M204 S3000
M205 X10 Y10
G0 F3000 X34.753 Y41.299
M204 S1800
M205 X8 Y8
G1 F2400 X35.334 Y40.844 E24.21349
G1 X35.981 Y40.419 E24.24954
G1 X36.617 Y40.075 E24.28321
G1 X37.186 Y39.819 E24.31226
G1 X37.947 Y39.553 E24.3498
G1 X38.61 Y39.378 E24.38173
G1 X39.357 Y39.25 E24.41702
G1 X40.035 Y39.186 E24.44873
G1 X40.594 Y39.167 E24.47477
G1 X41.193 Y39.16 E24.50267
G1 X153.797 Y39.16 E29.74598
G1 X154.587 Y39.171 E29.78277
G1 X155.169 Y39.202 E29.80991
G1 X155.565 Y39.239 E29.82843
G1 X156.195 Y39.337 E29.85812
G1 X157.024 Y39.544 E29.8979
G1 X157.721 Y39.782 E29.9322
G1 X158.353 Y40.06 E29.96435
G1 X159.002 Y40.407 E29.99862
G1 X159.629 Y40.818 E30.03352
G1 X160.171 Y41.235 E30.06537
G1 X160.72 Y41.74 E30.1001
G1 X161.229 Y42.289 E30.13496
G1 X161.429 Y42.536 E30.14976
G1 X163.282 Y44.903 E30.28974
G1 X164.036 Y45.838 E30.34567
G1 X164.433 Y46.394 E30.37748
G1 X164.762 Y46.993 E30.4093
G1 X165.02 Y47.626 E30.44113
G1 X165.201 Y48.284 E30.47291
G1 X165.305 Y48.96 E30.50475
G1 X165.337 Y49.651 E30.53696
G1 X165.34 Y49.83 E30.5453
G1 X165.34 Y61.745 E31.10011
G1 X165.377 Y64.384 E31.22301
G1 X165.492 Y67.092 E31.34922
G1 X165.677 Y69.695 E31.47073
G1 X165.944 Y72.385 E31.5966
G1 X166.282 Y75.027 E31.72063
G1 X166.691 Y77.631 E31.84337
G1 X167.184 Y80.284 E31.96902
G1 X167.735 Y82.845 E32.091
G1 X168.373 Y85.446 E32.2157
G1 X169.086 Y88.04 E32.34097
G1 X169.862 Y90.575 E32.46441
G1 X170.712 Y93.093 E32.58816
G1 X171.633 Y95.592 E32.71218
G1 X172.619 Y98.047 E32.83537
G1 X173.989 Y101.166 E32.994
G1 X174.223 Y101.674 E33.02004
G1 X174.472 Y102.311 E33.05189
G1 X174.645 Y102.972 E33.0837
G1 X174.751 Y103.819 E33.12345
G1 X174.771 Y104.643 E33.16183
G1 X174.771 Y105.264 E33.19075
G1 X174.761 Y105.965 E33.22339
G1 X174.712 Y106.647 E33.25523
G1 X174.583 Y107.318 E33.28705
G1 X174.245 Y108.284 E33.3347
G1 X173.126 Y110.763 E33.46135
G1 X172.094 Y113.232 E33.58595
G1 X171.149 Y115.695 E33.70879
G1 X170.264 Y118.206 E33.83277
G1 X169.45 Y120.745 E33.95692
G1 X168.71 Y123.295 E34.08056
G1 X168.031 Y125.908 E34.20627
G1 X167.432 Y128.51 E34.3306
G1 X166.924 Y131.06 E34.45167
G1 X166.47 Y133.723 E34.57746
G1 X166.095 Y136.359 E34.70144
G1 X165.795 Y139.008 E34.82558
G1 X165.573 Y141.636 E34.94838
G1 X165.425 Y144.286 E35.07197
G1 X165.34 Y148.33 E35.26032
G1 X165.339 Y159.876 E35.79795
G1 X165.329 Y160.579 E35.83069
G1 X165.28 Y161.26 E35.86248
G1 X165.151 Y161.931 E35.8943
G1 X164.944 Y162.583 E35.92615
G1 X164.663 Y163.206 E35.95797
G1 X164.312 Y163.791 E35.98974
G1 X163.799 Y164.466 E36.02922
G1 X162.599 Y165.954 E36.11823
G1 X161.793 Y166.997 E36.17961
G1 X161.268 Y167.667 E36.21924
G1 X160.77 Y168.21 E36.25355
G1 X160.262 Y168.688 E36.28603
G1 X159.629 Y169.182 E36.32342
G1 X158.963 Y169.614 E36.36038
G1 X158.383 Y169.925 E36.39103
G1 X157.81 Y170.183 E36.42029
G1 X157.044 Y170.45 E36.45806
G1 X156.432 Y170.613 E36.48755
G1 X155.643 Y170.75 E36.52484
G1 X154.983 Y170.813 E36.55571
G1 X154.376 Y170.834 E36.58399
G1 X153.8 Y170.84 E36.61082
G1 X41.122 Y170.839 E41.85758
G1 X40.413 Y170.829 E41.89059
G1 X39.831 Y170.798 E41.91773
G1 X39.435 Y170.761 E41.93625
G1 X38.805 Y170.663 E41.96594
G1 X37.976 Y170.456 E42.00573
G1 X37.279 Y170.218 E42.04002
G1 X36.644 Y169.939 E42.07232
G1 X35.989 Y169.588 E42.10692
G1 X35.417 Y169.214 E42.13874
G1 X34.945 Y168.86 E42.16622
G1 X34.555 Y168.521 E42.19028
G1 X34.287 Y168.268 E42.20744
G1 X33.803 Y167.751 E42.24042
G1 X33.341 Y167.161 E42.27531
G1 X32.908 Y166.5 E42.31211
G1 X32.58 Y165.89 E42.34436
G1 X32.32 Y165.317 E42.37365
G1 X32.051 Y164.548 E42.41159
G1 X31.88 Y163.897 E42.44293
G1 X31.75 Y163.143 E42.47856
G1 X31.686 Y162.465 E42.51027
G1 X31.667 Y161.906 E42.53631
G1 X31.66 Y161.307 E42.56421
G1 X31.661 Y48.615 E47.81162
G1 X31.672 Y47.895 E47.84515
G1 X31.702 Y47.337 E47.87117
G1 X31.739 Y46.932 E47.89011
G1 X31.837 Y46.305 E47.91966
G1 X32.044 Y45.476 E47.95944
G1 X32.281 Y44.781 E47.99364
G1 X32.56 Y44.146 E48.02593
G1 X32.892 Y43.522 E48.05885
G1 X33.328 Y42.858 E48.09583
G1 X33.675 Y42.399 E48.12263
G1 X34.249 Y41.77 E48.16228
G1 X34.753 Y41.299 E48.1944
M204 S3000
M205 X10 Y10
G0 F3000 X35.11 Y41.73
M204 S1800
M205 X8 Y8
G1 F2400 X35.673 Y41.291 E48.22764
G1 X36.257 Y40.906 E48.26021
G1 X36.874 Y40.573 E48.29286
G1 X37.389 Y40.341 E48.31916
G1 X38.121 Y40.085 E48.35527
G1 X38.721 Y39.927 E48.38416
G1 X39.442 Y39.803 E48.41823
G1 X40.055 Y39.745 E48.4469
G1 X40.6 Y39.727 E48.47229
G1 X41.199 Y39.72 E48.50019
G1 X153.797 Y39.72 E53.74322
G1 X154.58 Y39.731 E53.77968
G1 X155.13 Y39.761 E53.80533
G1 X155.509 Y39.796 E53.82305
G1 X156.079 Y39.885 E53.84992
G1 X156.876 Y40.084 E53.88817
G1 X157.507 Y40.3 E53.91922
G1 X158.12 Y40.569 E53.9504
G1 X158.707 Y40.883 E53.98139
G1 X159.315 Y41.282 E54.01526
G1 X159.804 Y41.658 E54.04398
G1 X160.335 Y42.146 E54.07756
G1 X160.795 Y42.643 E54.10909
G1 X160.988 Y42.881 E54.12336
G1 X162.874 Y45.289 E54.26579
G1 X163.6 Y46.19 E54.31967
G1 X163.976 Y46.719 E54.34989
G1 X164.284 Y47.291 E54.38014
G1 X164.519 Y47.897 E54.4104
G1 X164.679 Y48.527 E54.44067
G1 X164.768 Y49.342 E54.47885
G1 X164.78 Y49.83 E54.50158
G1 X164.78 Y61.745 E55.05639
G1 X164.818 Y64.416 E55.18077
G1 X164.931 Y67.083 E55.30507
G1 X165.123 Y69.79 E55.43144
G1 X165.386 Y72.441 E55.55549
G1 X165.724 Y75.082 E55.67946
G1 X166.142 Y77.745 E55.80498
G1 X166.63 Y80.368 E55.92922
G1 X167.193 Y82.985 E56.05386
G1 X167.83 Y85.583 E56.17842
G1 X168.546 Y88.185 E56.30408
G1 X169.328 Y90.741 E56.42855
G1 X170.184 Y93.277 E56.55318
G1 X171.113 Y95.797 E56.67824
G1 X172.111 Y98.283 E56.80298
G1 X173.463 Y101.362 E56.95956
G1 X173.715 Y101.909 E56.98761
G1 X173.95 Y102.514 E57.01783
G1 X174.108 Y103.144 E57.04807
G1 X174.192 Y103.848 E57.08109
G1 X174.211 Y104.648 E57.11835
G1 X174.211 Y105.256 E57.14666
G1 X174.201 Y105.957 E57.1793
G1 X174.152 Y106.605 E57.20956
G1 X174.024 Y107.242 E57.23982
G1 X173.735 Y108.054 E57.27995
G1 X172.614 Y110.537 E57.40681
G1 X171.563 Y113.052 E57.53373
G1 X170.629 Y115.485 E57.65508
G1 X169.734 Y118.025 E57.78048
G1 X168.91 Y120.595 E57.90615
G1 X168.171 Y123.142 E58.02964
G1 X167.487 Y125.778 E58.15645
G1 X166.888 Y128.379 E58.28074
G1 X166.371 Y130.972 E58.40385
G1 X165.913 Y133.653 E58.5305
G1 X165.544 Y136.248 E58.65255
G1 X165.236 Y138.972 E58.7802
G1 X165.015 Y141.593 E58.90268
G1 X164.865 Y144.272 E59.02762
G1 X164.78 Y148.318 E59.21606
G1 X164.779 Y159.868 E59.75387
G1 X164.769 Y160.571 E59.78661
G1 X164.72 Y161.219 E59.81687
G1 X164.592 Y161.856 E59.84713
G1 X164.386 Y162.472 E59.87737
G1 X164.107 Y163.058 E59.90759
G1 X163.649 Y163.749 E59.94619
G1 X163.307 Y164.185 E59.972
G1 X162.179 Y165.581 E60.05557
G1 X161.322 Y166.691 E60.12087
G1 X160.845 Y167.301 E60.15692
G1 X160.363 Y167.826 E60.19011
G1 X159.903 Y168.258 E60.2195
G1 X159.292 Y168.734 E60.25556
G1 X158.69 Y169.125 E60.28899
G1 X158.126 Y169.427 E60.31878
G1 X157.608 Y169.661 E60.34524
G1 X156.871 Y169.917 E60.38157
G1 X156.317 Y170.065 E60.40827
G1 X155.558 Y170.196 E60.44414
G1 X154.962 Y170.253 E60.47202
G1 X154.37 Y170.274 E60.4996
G1 X153.794 Y170.28 E60.52642
G1 X41.13 Y170.279 E65.77253
G1 X40.421 Y170.269 E65.80555
G1 X39.87 Y170.239 E65.83124
G1 X39.491 Y170.204 E65.84897
G1 X38.921 Y170.115 E65.87583
G1 X38.124 Y169.916 E65.91408
G1 X37.493 Y169.7 E65.94514
G1 X36.877 Y169.429 E65.97647
G1 X36.285 Y169.112 E66.00774
G1 X35.73 Y168.75 E66.0386
G1 X35.304 Y168.43 E66.06341
G1 X34.671 Y167.86 E66.10307
G1 X34.234 Y167.394 E66.13282
G1 X33.788 Y166.824 E66.16652
G1 X33.397 Y166.225 E66.19983
G1 X33.076 Y165.632 E66.23123
G1 X32.842 Y165.114 E66.25769
G1 X32.583 Y164.374 E66.2942
G1 X32.428 Y163.785 E66.32256
G1 X32.303 Y163.058 E66.35691
G1 X32.245 Y162.445 E66.38558
G1 X32.227 Y161.9 E66.41097
G1 X32.22 Y161.301 E66.43887
G1 X32.221 Y48.623 E71.68562
G1 X32.232 Y47.903 E71.71916
G1 X32.26 Y47.375 E71.74378
G1 X32.296 Y46.988 E71.76187
G1 X32.385 Y46.421 E71.7886
G1 X32.584 Y45.624 E71.82685
G1 X32.799 Y44.995 E71.8578
G1 X33.069 Y44.379 E71.88912
G1 X33.37 Y43.815 E71.91889
G1 X33.79 Y43.174 E71.95457
G1 X34.104 Y42.759 E71.9788
G1 X34.655 Y42.156 E72.01684
G1 X35.11 Y41.73 E72.04586
M204 S3000
M205 X10 Y10
G1 F2400 E66.04586
G0 F3000 X154.538 Y44.336
G0 X155.706 Y44.539
G0 X156.764 Y45.117
G0 X160.161 Y49.39
G0 X167.719 Y104.2
M204 S1800
M205 X8 Y8
;TYPE:SUPPORT-INTERFACE
G1 F2400 E72.04586
G1 F1500 X168.729 Y104.2 E72.09289
G1 X168.731 Y104.202 E72.09302
G1 X168.732 Y105.8 E72.16743
G1 X167.72 Y105.8 E72.21456
G1 X167.719 Y104.2 E72.28906
M204 S3000
M205 X10 Y10
G0 F3000 X168.252 Y105.32
M204 S1800
M205 X8 Y8
G1 F1500 X168.2 Y105.32 E72.29148
G1 X168.199 Y104.68 E72.32128
G1 X168.251 Y104.68 E72.3237
G1 X168.252 Y105.32 E72.3535
M204 S3000
M205 X10 Y10
G1 F2400 E66.3535
;MESH:Drawer_4_compartments.stl
G0 F3000 X166.789 Y106.661
G0 X160.165 Y110.354
G0 X158.646 Y110.354
G0 X156.1 Y159.1
M204 S1800
M205 X8 Y8
;TYPE:WALL-INNER
G1 F2400 E72.3535
G1 F1500 X156.1 Y161.945 E72.48598
G1 X156.009 Y162.515 E72.51286
G1 X155.757 Y162.983 E72.53761
G1 X155.38 Y163.331 E72.5615
G1 X154.881 Y163.548 E72.58684
G1 X154.257 Y163.6 E72.61599
G1 X40.555 Y163.6 E77.91043
G1 X39.985 Y163.509 E77.93731
G1 X39.517 Y163.257 E77.96206
G1 X39.169 Y162.88 E77.98595
G1 X38.953 Y162.386 E78.01106
G1 X38.9 Y161.789 E78.03897
G1 X38.9 Y48.055 E83.3349
G1 X38.991 Y47.485 E83.36178
G1 X39.243 Y47.017 E83.38653
G1 X39.62 Y46.669 E83.41042
G1 X40.114 Y46.453 E83.43552
G1 X40.743 Y46.4 E83.46491
G1 X154.445 Y46.4 E88.75936
G1 X155.015 Y46.491 E88.78623
G1 X155.483 Y46.743 E88.81098
G1 X155.831 Y47.12 E88.83487
G1 X156.038 Y47.583 E88.85849
G1 X156.1 Y48.079 E88.88177
G1 X156.1 Y50.9 E89.01312
G1 X158.1 Y50.9 E89.10625
G1 X158.1 Y99.1 E91.35065
G1 X156.1 Y99.1 E91.44377
G1 X156.1 Y110.9 E91.99323
G1 X158.1 Y110.9 E92.08636
G1 X158.1 Y159.1 E94.33075
G1 X156.1 Y159.1 E94.42388
M204 S3000
M205 X10 Y10
G0 F3000 X156.59 Y50.41
G0 X156.66 Y50.34
M204 S1800
M205 X8 Y8
G1 F1500 X158.66 Y50.34 E94.51701
G1 X158.66 Y99.66 E96.81356
G1 X156.66 Y99.66 E96.90668
G1 X156.66 Y104.84 E97.14789
G1 X165.838 Y104.84 E97.57525
G1 X165.839 Y105.16 E97.59015
G1 X156.66 Y105.16 E97.8344
G1 X156.66 Y110.34 E98.0756
G1 X158.66 Y110.34 E98.16873
G1 X158.66 Y159.66 E100.46528
G1 X156.66 Y159.66 E100.5584
G1 X156.66 Y161.968 E100.66587
G1 X156.627 Y162.359 E100.68415
G1 X156.539 Y162.702 E100.70063
G1 X156.394 Y163.033 E100.71746
G1 X156.203 Y163.325 E100.73371
G1 X155.961 Y163.588 E100.75035
G1 X155.686 Y163.802 E100.76658
