;FLAVOR:Marlin
;TIME:159
;Filament used: 0.171577m
;Layer height: 0.2
;MINX:46.753
;MINY:34.03
;MINZ:0.2
;MAXX:169.999
;MAXY:181.791
;MAXZ:0.6
;Generated with Cura_SteamEngine 4.8.0
M140 S55
M105
M190 S55
M104 S200
M105
M109 S200
M82 ;absolute extrusion mode
; Script based on an original created by tjjfvi (https://github.com/tjjfvi)
; An up-to-date version of the tjjfvi's original script can be found
; here:  https://csi.t6.fyi/
; Note - This script will only work in Cura V4.2 and above!
; --- Global Settings
; layer_height = 0.2
; smooth_spiralized_contours = True
; magic_mesh_surface_mode = normal
; machine_extruder_count = 1
; --- Single Extruder Settings
; speed_z_hop = 10
; retraction_amount = 6
; retraction_hop = 0.075
; retraction_hop_enabled = True
; retraction_enable = True
; retraction_speed = 40
; retraction_retract_speed = 40
; retraction_prime_speed = 40
; speed_travel = 100


G21 ;metric values
G90 ;absolute positioning
M82 ;set extruder to absolute mode
M107 ;start with the fan off
G28 X0 Y0 ;move X/Y to min endstops
G28 Z0 ;move Z to min endstops
G1 Z15.0 F100 ;move the platform down 15mm
G92 E0 ;zero the extruded length
G1 F200 E3 ;extrude 3mm of feed stock
G92 E0 ;zero the extruded length again
G1 F100
G0 Y20 F100
M117 Printing...
G5
G92 E0
G92 E0
G1 F2400 E-6
;LAYER_COUNT:3
;LAYER:0
M106 S255
M204 S3000
M205 X10 Y10
G1 F600 Z0.275
G0 F3000 X83.632 Y91.488 Z0.275
M204 S1800
M205 X8 Y8
;TYPE:SKIRT
G1 F600 Z0.2
G1 F2400 E0
G1 X84.186 Y91.035 E0.03332
G1 X84.786 Y90.647 E0.06659
G1 X85.516 Y90.29 E0.10443
G1 X86.724 Y89.792 E0.16527
G1 X89.142 Y88.755 E0.28778
G1 X91.545 Y87.645 E0.41104
G1 X93.951 Y86.45 E0.53613
G1 X96.267 Y85.216 E0.65833
G1 X98.584 Y83.896 E0.78249
G1 X100.816 Y82.538 E0.90415
G1 X101.295 Y82.233 E0.93059
G1 X101.865 Y81.884 E0.96171
G1 X103.24 Y81.096 E1.03551
G1 X104.742 Y80.273 E1.11526
G1 X106.995 Y78.952 E1.23687
G1 X109.278 Y77.527 E1.36219
G1 X111.446 Y76.085 E1.48343
G1 X113.63 Y74.543 E1.60792
G1 X115.746 Y72.958 E1.73102
G1 X117.82 Y71.309 E1.8544
G1 X119.852 Y69.599 E1.97807
G1 X121.818 Y67.846 E2.10072
G1 X123.743 Y66.031 E2.22392
G1 X125.631 Y64.146 E2.34814
G1 X127.427 Y62.249 E2.46979
G1 X129.208 Y60.258 E2.59417
G1 X130.911 Y58.242 E2.71706
G1 X132.555 Y56.181 E2.83982
G1 X134.156 Y54.051 E2.96389
G1 X135.683 Y51.898 E3.0868
G1 X137.16 Y49.683 E3.21077
G1 X138.472 Y47.596 E3.32556
G1 X138.994 Y46.741 E3.3722
G1 X139.455 Y46.007 E3.41256
G1 X139.83 Y45.425 E3.4448
G1 X140.041 Y45.117 E3.46219
G1 X140.525 Y44.455 E3.50037
G1 X140.85 Y44.024 E3.52551
G1 X141.267 Y43.483 E3.55731
G1 X141.516 Y43.18 E3.57557
G1 X142.171 Y42.432 E3.62187
G1 X142.451 Y42.123 E3.64129
G1 X142.856 Y41.688 E3.66896
G1 X143.13 Y41.41 E3.68714
G1 X143.92 Y40.659 E3.73789
G1 X144.22 Y40.384 E3.75684
G1 X144.725 Y39.935 E3.78831
G1 X145.277 Y39.485 E3.82147
G1 X145.429 Y39.368 E3.8304
G1 X146.105 Y38.865 E3.86964
G1 X146.634 Y38.481 E3.90008
G1 X146.945 Y38.269 E3.9176
G1 X147.628 Y37.832 E3.95536
G1 X147.793 Y37.73 E3.96439
G1 X148.479 Y37.321 E4.00158
G1 X148.749 Y37.172 E4.01594
G1 X149.307 Y36.879 E4.04529
G1 X149.448 Y36.807 E4.05266
G1 X150.102 Y36.484 E4.08662
G1 X150.513 Y36.295 E4.10769
G1 X151.284 Y35.969 E4.14667
G1 X151.901 Y35.725 E4.17756
G1 X152.391 Y35.547 E4.20184
G1 X153.003 Y35.344 E4.23186
G1 X153.793 Y35.1 E4.27036
G1 X154.282 Y34.965 E4.29398
G1 X154.976 Y34.795 E4.32725
G1 X155.738 Y34.624 E4.36362
G1 X156.241 Y34.526 E4.38748
G1 X156.915 Y34.414 E4.41929
G1 X157.684 Y34.301 E4.45549
G1 X158.201 Y34.238 E4.47974
G1 X158.385 Y34.218 E4.48836
G1 X159.01 Y34.163 E4.51757
G1 X159.931 Y34.095 E4.56057
G1 X160.832 Y34.052 E4.60258
G1 X161.604 Y34.03 E4.63854
G1 X162.319 Y34.051 E4.67185
G1 X163.027 Y34.152 E4.70515
G1 X163.72 Y34.331 E4.73848
G1 X164.388 Y34.586 E4.77177
G1 X165.024 Y34.914 E4.80509
G1 X165.619 Y35.311 E4.8384
G1 X166.219 Y35.823 E4.87513
G1 X166.899 Y36.481 E4.91919
G1 X167.718 Y37.3 E4.97312
G1 X168.186 Y37.781 E5.00437
G1 X168.655 Y38.321 E5.03767
G1 X169.062 Y38.909 E5.07097
G1 X169.4 Y39.54 E5.1043
G1 X169.665 Y40.204 E5.13759
G1 X169.855 Y40.894 E5.17092
G1 X169.967 Y41.6 E5.2042
G1 X169.999 Y42.315 E5.23753
G1 X169.951 Y43.028 E5.27081
G1 X169.824 Y43.732 E5.30412
G1 X169.619 Y44.417 E5.33741
G1 X169.339 Y45.075 E5.37071
G1 X168.987 Y45.698 E5.40403
G1 X168.568 Y46.278 E5.43735
G1 X168.062 Y46.831 E5.47225
G1 X166.125 Y48.716 E5.5981
G1 X164.278 Y50.621 E5.72166
G1 X162.47 Y52.594 E5.84627
G1 X160.754 Y54.575 E5.96831
G1 X159.093 Y56.606 E6.09048
G1 X157.46 Y58.722 E6.21494
G1 X155.91 Y60.854 E6.33767
G1 X154.421 Y63.028 E6.46037
G1 X152.972 Y65.276 E6.58491
G1 X151.607 Y67.535 E6.70781
G1 X150.289 Y69.859 E6.83222
G1 X149.069 Y72.16 E6.95349
G1 X147.887 Y74.552 E7.07773
G1 X147.475 Y75.454 E7.1239
G1 X146.878 Y76.721 E7.18912
G1 X146.538 Y77.35 E7.22241
G1 X146.129 Y77.937 E7.25573
G1 X145.828 Y78.294 E7.27747
G1 X145.225 Y78.882 E7.31669
G1 X144.925 Y79.138 E7.33505
G1 X142.918 Y80.901 E7.45944
G1 X140.989 Y82.696 E7.58214
G1 X139.117 Y84.542 E7.70456
G1 X137.246 Y86.489 E7.8303
G1 X135.484 Y88.433 E7.95247
G1 X133.767 Y90.437 E8.07535
G1 X132.092 Y92.509 E8.19941
G1 X130.485 Y94.616 E8.3228
G1 X128.947 Y96.755 E8.44548
G1 X127.471 Y98.936 E8.5681
G1 X126.038 Y101.187 E8.69236
G1 X124.688 Y103.447 E8.81494
G1 X123.392 Y105.764 E8.93856
G1 X122.158 Y108.122 E9.06248
G1 X121.009 Y110.48 E9.18462
G1 X119.909 Y112.907 E9.3087
G1 X118.873 Y115.374 E9.43329
G1 X118.205 Y117.113 E9.52003
G1 X117.314 Y119.409 E9.63471
G1 X117.224 Y119.63 E9.64582
G1 X116.628 Y121.011 E9.71586
G1 X116.534 Y121.219 E9.72649
G1 X115.891 Y122.574 E9.79633
G1 X115.782 Y122.792 E9.80768
G1 X114.992 Y124.305 E9.88716
G1 X114.874 Y124.522 E9.89866
G1 X114.022 Y126.011 E9.97854
G1 X113.904 Y126.208 E9.98923
G1 X112.918 Y127.795 E10.07623
G1 X112.764 Y128.033 E10.08943
G1 X111.801 Y129.47 E10.16998
G1 X111.488 Y129.921 E10.19554
G1 X110.52 Y131.265 E10.27267
G1 X110.059 Y131.886 E10.30868
G1 X109.153 Y133.067 E10.37799
G1 X108.511 Y133.88 E10.42623
G1 X107.598 Y135.001 E10.49355
G1 X103.633 Y139.743 E10.78137
G1 X102.987 Y140.5 E10.82771
G1 X101.102 Y142.671 E10.96159
G1 X100.713 Y143.115 E10.98908
G1 X98.395 Y145.723 E11.15155
G1 X96.369 Y147.958 E11.29202
G1 X95.995 Y148.367 E11.31782
G1 X93.75 Y150.797 E11.47187
G1 X91.834 Y152.837 E11.60219
G1 X91.347 Y153.35 E11.63513
G1 X89.585 Y155.197 E11.75399
G1 X87.236 Y157.624 E11.91126
G1 X85.2 Y159.697 E12.04656
G1 X83.184 Y161.724 E12.17968
G1 X81.46 Y163.44 E12.29295
G1 X79.779 Y165.095 E12.40279
G1 X77.421 Y167.397 E12.55624
G1 X75.511 Y169.242 E12.67989
G1 X75.216 Y169.523 E12.69886
G1 X74.675 Y170.024 E12.7332
G1 X74.123 Y170.48 E12.76654
G1 X73.357 Y170.965 E12.80875
G1 X72.206 Y171.584 E12.86961
G1 X69.865 Y172.885 E12.99432
G1 X67.605 Y174.227 E13.11671
G1 X65.354 Y175.651 E13.24073
G1 X63.154 Y177.129 E13.36415
G1 X61.02 Y178.655 E13.48631
G1 X59.394 Y179.878 E13.58105
G1 X58.626 Y180.468 E13.62614
G1 X58.036 Y180.871 E13.65941
G1 X57.403 Y181.206 E13.69276
G1 X56.738 Y181.468 E13.72604
G1 X56.047 Y181.655 E13.75938
G1 X55.34 Y181.763 E13.79268
G1 X54.626 Y181.791 E13.82595
G1 X53.912 Y181.74 E13.85928
G1 X53.209 Y181.609 E13.89258
G1 X52.525 Y181.401 E13.92587
G1 X51.841 Y181.104 E13.96059
G1 X51.167 Y180.742 E13.99622
G1 X50.527 Y180.38 E14.03046
G1 X49.921 Y180.026 E14.06314
G1 X49.324 Y179.631 E14.09647
G1 X48.776 Y179.173 E14.12972
G1 X48.282 Y178.655 E14.16305
G1 X47.848 Y178.086 E14.19638
G1 X47.481 Y177.472 E14.22969
G1 X47.185 Y176.821 E14.26299
G1 X46.963 Y176.141 E14.29629
G1 X46.819 Y175.441 E14.32957
G1 X46.753 Y174.729 E14.36287
G1 X46.768 Y174.014 E14.39617
G1 X46.862 Y173.305 E14.42947
G1 X47.034 Y172.61 E14.46281
G1 X47.283 Y171.94 E14.49609
G1 X47.758 Y171.05 E14.54307
G1 X48.008 Y170.66 E14.56464
G1 X49.433 Y168.366 E14.69039
G1 X50.77 Y166.07 E14.8141
G1 X52.028 Y163.764 E14.93642
G1 X53.223 Y161.416 E15.0591
G1 X54.369 Y158.997 E15.18374
G1 X55.431 Y156.583 E15.30654
G1 X56.436 Y154.114 E15.43067
G1 X57.355 Y151.65 E15.55312
G1 X58.203 Y149.167 E15.6753
G1 X58.995 Y146.617 E15.79963
G1 X59.714 Y144.051 E15.92372
G1 X60.347 Y141.513 E16.04552
G1 X60.924 Y138.897 E16.17026
G1 X61.411 Y136.33 E16.29192
G1 X61.606 Y135.104 E16.34972
G1 X61.792 Y134.018 E16.40103
G1 X61.952 Y133.32 E16.43437
G1 X62.089 Y132.9 E16.45495
G1 X62.371 Y132.242 E16.48828
G1 X62.751 Y131.565 E16.52443
G1 X63.183 Y130.864 E16.56277
G1 X63.638 Y130.145 E16.60239
G1 X64.008 Y129.62 E16.6323
G1 X65.76 Y127.384 E16.76457
G1 X67.323 Y125.268 E16.88707
G1 X68.834 Y123.093 E17.01038
G1 X70.295 Y120.862 E17.13456
G1 X71.662 Y118.634 E17.25628
G1 X72.995 Y116.322 E17.38055
G1 X74.252 Y113.993 E17.50378
G1 X75.434 Y111.642 E17.62631
G1 X76.567 Y109.22 E17.75082
G1 X77.618 Y106.799 E17.87372
G1 X78.61 Y104.329 E17.99766
G1 X79.522 Y101.85 E18.12066
G1 X80.357 Y99.368 E18.24259
G1 X81.135 Y96.818 E18.36673
G1 X81.409 Y95.814 E18.41519
G1 X81.788 Y94.476 E18.47995
G1 X82.021 Y93.8 E18.51324
G1 X82.328 Y93.154 E18.54655
G1 X82.693 Y92.564 E18.57885
G1 X83.132 Y92 E18.61213
G1 X83.632 Y91.488 E18.64546
M204 S3000
M205 X10 Y10
G0 F3000 X84.056 Y91.86
M204 S1800
M205 X8 Y8
G1 F2400 X84.59 Y91.434 E18.67726
G1 X85.17 Y91.074 E18.70905
G1 X85.729 Y90.808 E18.73788
G1 X86.867 Y90.339 E18.79519
G1 X89.39 Y89.258 E18.923
G1 X91.807 Y88.141 E19.04698
G1 X94.199 Y86.952 E19.17137
G1 X96.542 Y85.704 E19.29498
G1 X98.848 Y84.39 E19.41857
G1 X101.158 Y82.985 E19.54446
G1 X101.589 Y82.709 E19.56829
G1 X102.144 Y82.37 E19.59858
G1 X103.509 Y81.587 E19.67185
G1 X105.016 Y80.761 E19.75187
G1 X107.297 Y79.424 E19.87499
G1 X109.566 Y78.008 E19.99953
G1 X111.785 Y76.532 E20.12362
G1 X113.971 Y74.989 E20.24822
G1 X116.068 Y73.418 E20.37022
G1 X118.192 Y71.729 E20.49658
G1 X120.207 Y70.033 E20.61922
G1 X122.179 Y68.275 E20.74224
G1 X124.145 Y66.421 E20.86807
G1 X126.019 Y64.55 E20.99138
G1 X127.856 Y62.61 E21.11578
G1 X129.623 Y60.633 E21.23925
G1 X131.347 Y58.594 E21.36358
G1 X133.01 Y56.509 E21.48777
G1 X134.6 Y54.393 E21.61102
G1 X136.145 Y52.214 E21.7354
G1 X137.623 Y49.998 E21.85943
G1 X138.946 Y47.894 E21.97516
G1 X139.468 Y47.039 E22.0218
G1 X139.926 Y46.31 E22.06189
G1 X140.301 Y45.728 E22.09413
G1 X140.493 Y45.448 E22.10994
G1 X140.973 Y44.792 E22.14779
G1 X141.294 Y44.366 E22.17263
G1 X141.711 Y43.825 E22.20443
G1 X141.938 Y43.548 E22.22111
G1 X142.586 Y42.807 E22.26695
G1 X142.861 Y42.505 E22.28596
G1 X143.266 Y42.07 E22.31364
G1 X143.516 Y41.816 E22.33024
G1 X144.385 Y40.992 E22.386
G1 X144.593 Y40.803 E22.39909
G1 X145.098 Y40.354 E22.43055
G1 X145.625 Y39.924 E22.46222
G1 X145.764 Y39.817 E22.47039
G1 X146.434 Y39.318 E22.50929
G1 X146.963 Y38.934 E22.53973
G1 X147.247 Y38.741 E22.55572
G1 X147.93 Y38.304 E22.59347
G1 X148.08 Y38.211 E22.60169
G1 X148.757 Y37.807 E22.6384
G1 X149.009 Y37.667 E22.65182
G1 X149.567 Y37.374 E22.68117
G1 X150.35 Y36.986 E22.72186
G1 X150.732 Y36.811 E22.74143
G1 X151.49 Y36.49 E22.77976
G1 X152.107 Y36.246 E22.81065
G1 X152.905 Y35.965 E22.85005
G1 X153.254 Y35.852 E22.86713
G1 X153.958 Y35.635 E22.90143
G1 X154.416 Y35.509 E22.92355
G1 X155.098 Y35.342 E22.95625
G1 X155.86 Y35.171 E22.99261
G1 X156.62 Y35.029 E23.02861
G1 X157.075 Y34.957 E23.05006
G1 X157.765 Y34.856 E23.08253
G1 X158.267 Y34.794 E23.10609
G1 X158.435 Y34.776 E23.11395
G1 X159.051 Y34.722 E23.14275
G1 X160.101 Y34.646 E23.19177
G1 X160.856 Y34.611 E23.22696
G1 X161.619 Y34.59 E23.2625
G1 X162.302 Y34.612 E23.29432
G1 X162.978 Y34.713 E23.32615
G1 X163.637 Y34.893 E23.35796
G1 X164.271 Y35.148 E23.38978
G1 X164.87 Y35.476 E23.42158
G1 X165.427 Y35.871 E23.45338
G1 X165.83 Y36.225 E23.47835
G1 X166.504 Y36.876 E23.52199
G1 X167.317 Y37.69 E23.57556
G1 X167.785 Y38.171 E23.60681
G1 X168.232 Y38.688 E23.63863
G1 X168.615 Y39.254 E23.67045
G1 X168.93 Y39.86 E23.70225
G1 X169.172 Y40.499 E23.73407
G1 X169.338 Y41.162 E23.7659
G1 X169.425 Y41.839 E23.79768
G1 X169.432 Y42.522 E23.82948
G1 X169.36 Y43.202 E23.86133
G1 X169.209 Y43.868 E23.89312
G1 X168.981 Y44.512 E23.92494
G1 X168.679 Y45.125 E23.95676
G1 X168.308 Y45.699 E23.98858
G1 X167.672 Y46.429 E24.03366
G1 X165.736 Y48.313 E24.15945
G1 X163.859 Y50.248 E24.28498
G1 X162.079 Y52.19 E24.40765
G1 X160.327 Y54.213 E24.53226
G1 X158.633 Y56.285 E24.65688
G1 X157.02 Y58.375 E24.77981
G1 X155.455 Y60.527 E24.90372
G1 X153.937 Y62.743 E25.02879
G1 X152.492 Y64.986 E25.15303
G1 X151.143 Y67.22 E25.27455
G1 X149.809 Y69.571 E25.40042
G1 X148.559 Y71.928 E25.52465
G1 X147.394 Y74.286 E25.64712
G1 X146.969 Y75.215 E25.69469
G1 X146.372 Y76.482 E25.75991
G1 X146.045 Y77.082 E25.79172
G1 X145.43 Y77.9 E25.83938
G1 X145.412 Y77.92 E25.84063
G1 X144.861 Y78.456 E25.87642
G1 X144.585 Y78.692 E25.89333
G1 X142.528 Y80.499 E26.02083
G1 X140.592 Y82.3 E26.14395
G1 X138.734 Y84.133 E26.26548
G1 X136.839 Y86.104 E26.3928
G1 X135.056 Y88.071 E26.51642
G1 X133.336 Y90.079 E26.63953
G1 X131.661 Y92.15 E26.76356
G1 X130.029 Y94.291 E26.88891
G1 X128.488 Y96.433 E27.01178
G1 X126.995 Y98.64 E27.13586
G1 X125.571 Y100.877 E27.25933
G1 X124.205 Y103.164 E27.38338
G1 X122.9 Y105.496 E27.50781
G1 X121.66 Y107.867 E27.6324
G1 X120.503 Y110.239 E27.75529
G1 X119.384 Y112.71 E27.8816
G1 X118.358 Y115.153 E28.00498
G1 X117.683 Y116.911 E28.09267
G1 X116.792 Y119.207 E28.20735
G1 X116.71 Y119.408 E28.21745
G1 X116.114 Y120.789 E28.28749
G1 X116.028 Y120.979 E28.2972
G1 X115.385 Y122.334 E28.36704
G1 X115.286 Y122.533 E28.37739
G1 X114.496 Y124.046 E28.45687
G1 X114.388 Y124.243 E28.46733
G1 X113.536 Y125.732 E28.54721
G1 X113.429 Y125.912 E28.55696
G1 X112.447 Y127.492 E28.64359
G1 X112.299 Y127.721 E28.65628
G1 X111.34 Y129.152 E28.73649
G1 X111.033 Y129.594 E28.76155
G1 X110.071 Y130.931 E28.83825
G1 X109.614 Y131.545 E28.87389
G1 X108.714 Y132.72 E28.94281
G1 X108.076 Y133.526 E28.99068
G1 X107.169 Y134.642 E29.05764
G1 X103.207 Y139.38 E29.34523
G1 X102.565 Y140.133 E29.39131
G1 X100.681 Y142.302 E29.52509
G1 X100.295 Y142.743 E29.55238
G1 X98.273 Y145.019 E29.69414
G1 X97.951 Y145.379 E29.71663
G1 X95.956 Y147.58 E29.85495
G1 X95.583 Y147.987 E29.88066
G1 X93.342 Y150.414 E30.03448
G1 X91.428 Y152.451 E30.16463
G1 X90.942 Y152.964 E30.19754
G1 X89.182 Y154.807 E30.3162
G1 X86.836 Y157.232 E30.47331
G1 X84.803 Y159.302 E30.60841
G1 X82.789 Y161.327 E30.7414
G1 X81.067 Y163.041 E30.85453
G1 X79.388 Y164.694 E30.96424
G1 X77.032 Y166.994 E31.11756
G1 X75.124 Y168.837 E31.24108
G1 X74.835 Y169.112 E31.25966
G1 X74.294 Y169.613 E31.29399
G1 X73.766 Y170.047 E31.32582
G1 X73.091 Y170.472 E31.36296
G1 X71.977 Y171.071 E31.42185
G1 X69.6 Y172.392 E31.54848
G1 X67.309 Y173.752 E31.67254
G1 X65.019 Y175.2 E31.7987
G1 X62.858 Y176.653 E31.91996
G1 X60.656 Y178.228 E32.04602
G1 X59.104 Y179.395 E32.13644
G1 X58.285 Y180.024 E32.18452
G1 X57.72 Y180.407 E32.21631
G1 X57.114 Y180.723 E32.24813
G1 X56.475 Y180.965 E32.27995
G1 X55.812 Y181.131 E32.31177
G1 X55.134 Y181.218 E32.3436
G1 X54.451 Y181.225 E32.37541
G1 X53.772 Y181.153 E32.4072
G1 X53.105 Y181.002 E32.43905
G1 X52.461 Y180.774 E32.47086
G1 X52.002 Y180.558 E32.49448
G1 X51.437 Y180.251 E32.52442
G1 X50.809 Y179.897 E32.55799
G1 X50.203 Y179.543 E32.59067
G1 X49.635 Y179.164 E32.62246
G1 X49.114 Y178.722 E32.65428
G1 X48.648 Y178.222 E32.6861
G1 X48.245 Y177.67 E32.71793
G1 X47.908 Y177.076 E32.74973
G1 X47.643 Y176.446 E32.78155
G1 X47.453 Y175.79 E32.81336
G1 X47.342 Y175.116 E32.84516
G1 X47.309 Y174.433 E32.877
G1 X47.357 Y173.752 E32.90879
G1 X47.484 Y173.08 E32.94064
G1 X47.689 Y172.429 E32.97242
G1 X47.968 Y171.805 E33.00425
