;FLAVOR:Marlin
;TIME:832
;Filament used: 0.708224m
;Layer height: 0.2
;MINX:26.728
;MINY:24.91
;MINZ:0.2
;MAXX:193.439
;MAXY:188.43
;MAXZ:0.6
;Generated with Cura_SteamEngine 4.8.0
M140 S55
M105
M190 S55
M104 S200
M105
M109 S200
M82 ;absolute extrusion mode
; Script based on an original created by tjjfvi (https://github.com/tjjfvi)
; An up-to-date version of the tjjfvi's original script can be found
; here:  https://csi.t6.fyi/
; Note - This script will only work in Cura V4.2 and above!
; --- Global Settings
; layer_height = 0.2
; smooth_spiralized_contours = True
; magic_mesh_surface_mode = normal
; machine_extruder_count = 1
; --- Single Extruder Settings
; speed_z_hop = 10
; retraction_amount = 6
; retraction_hop = 0.075
; retraction_hop_enabled = True
; retraction_enable = True
; retraction_speed = 40
; retraction_retract_speed = 40
; retraction_prime_speed = 40
; speed_travel = 100


G21 ;metric values
G90 ;absolute positioning
M82 ;set extruder to absolute mode
M107 ;start with the fan off
G28 X0 Y0 ;move X/Y to min endstops
G28 Z0 ;move Z to min endstops
G1 Z15.0 F100 ;move the platform down 15mm
G92 E0 ;zero the extruded length
G1 F200 E3 ;extrude 3mm of feed stock
G92 E0 ;zero the extruded length again
G1 F100
G0 Y20 F100
M117 Printing...
G5
G92 E0
G92 E0
G1 F2400 E-6
;LAYER_COUNT:3
;LAYER:0
M106 S255
M204 S3000
M205 X10 Y10
G1 F600 Z0.275
G0 F3000 X84.202 Y87.471 Z0.275
M204 S1800
M205 X8 Y8
;TYPE:SKIRT
G1 F600 Z0.2
G1 F2400 E0
G1 X84.732 Y86.991 E0.0333
G1 X85.143 Y86.685 E0.05716
G1 X85.805 Y86.233 E0.09448
G1 X86.955 Y85.471 E0.15872
G1 X88.018 Y84.777 E0.21783
G1 X88.816 Y84.265 E0.26198
G1 X89.313 Y83.956 E0.28923
G1 X89.983 Y83.555 E0.32559
G1 X90.791 Y83.093 E0.36893
G1 X91.532 Y82.692 E0.40816
G1 X92.427 Y82.226 E0.45515
G1 X93.134 Y81.878 E0.49184
G1 X93.793 Y81.6 E0.52514
G1 X94.381 Y81.421 E0.55376
G1 X94.763 Y81.328 E0.57207
G1 X97.035 Y80.828 E0.6804
G1 X99.602 Y80.186 E0.80361
G1 X102.193 Y79.46 E0.9289
G1 X104.666 Y78.691 E1.0495
G1 X107.197 Y77.824 E1.17407
G1 X109.696 Y76.889 E1.29831
G1 X112.119 Y75.905 E1.42009
G1 X114.564 Y74.827 E1.54451
G1 X116.938 Y73.701 E1.66686
G1 X119.306 Y72.495 E1.7906
G1 X121.624 Y71.23 E1.91356
G1 X123.89 Y69.91 E2.03567
G1 X126.182 Y68.485 E2.16135
G1 X128.371 Y67.037 E2.28356
G1 X130.544 Y65.509 E2.40725
G1 X132.649 Y63.939 E2.52953
G1 X134.733 Y62.29 E2.65327
G1 X136.743 Y60.605 E2.7754
G1 X139.529 Y58.106 E2.94967
G1 X148.049 Y50.167 E3.49194
G1 X151.857 Y46.626 E3.73407
G1 X156.717 Y42.12 E4.04267
G1 X160.321 Y38.79 E4.27116
G1 X165.963 Y33.588 E4.6285
G1 X173.088 Y27.029 E5.07944
G1 X173.642 Y26.533 E5.11407
G1 X174.201 Y26.086 E5.1474
G1 X174.806 Y25.705 E5.18069
G1 X175.45 Y25.393 E5.21401
G1 X176.124 Y25.155 E5.24729
G1 X176.821 Y24.994 E5.2806
G1 X177.532 Y24.912 E5.31393
G1 X178.247 Y24.91 E5.34722
G1 X178.958 Y24.987 E5.38052
G1 X179.656 Y25.143 E5.41383
G1 X180.332 Y25.377 E5.44714
G1 X180.978 Y25.684 E5.48044
G1 X181.586 Y26.061 E5.51375
G1 X182.366 Y26.706 E5.56088
G1 X182.888 Y27.212 E5.59474
G1 X185.031 Y29.355 E5.73586
G1 X185.863 Y30.211 E5.79144
G1 X187.725 Y32.073 E5.91406
G1 X187.957 Y32.295 E5.92901
G1 X188.716 Y33.039 E5.9785
G1 X191.16 Y35.483 E6.13944
G1 X191.637 Y35.974 E6.17132
G1 X192.106 Y36.515 E6.20465
G1 X192.512 Y37.104 E6.23797
G1 X192.85 Y37.734 E6.27126
G1 X193.115 Y38.399 E6.30459
G1 X193.304 Y39.088 E6.33786
G1 X193.415 Y39.795 E6.37118
G1 X193.439 Y40.752 E6.41576
G1 X193.407 Y41.393 E6.44564
G1 X193.3 Y43.117 E6.52607
G1 X193.281 Y43.602 E6.54867
G1 X193.244 Y44.254 E6.57908
G1 X193.163 Y44.964 E6.61236
G1 X193.004 Y45.662 E6.64569
G1 X192.768 Y46.337 E6.67899
G1 X192.458 Y46.982 E6.71231
G1 X192.001 Y47.694 E6.75171
G1 X191.55 Y48.279 E6.7861
G1 X191.152 Y48.75 E6.81482
G1 X191.049 Y48.869 E6.82214
G1 X190.696 Y49.263 E6.84678
G1 X190.482 Y49.49 E6.8613
G1 X189.824 Y50.156 E6.9049
G1 X189.312 Y50.652 E6.93809
G1 X188.774 Y51.16 E6.97255
G1 X188.238 Y51.66 E7.00668
G1 X186.729 Y53.044 E7.10202
G1 X185.752 Y53.932 E7.1635
G1 X185.232 Y54.392 E7.19583
G1 X184.953 Y54.625 E7.21275
G1 X184.2 Y55.218 E7.25738
G1 X182.058 Y56.956 E7.38583
G1 X180.052 Y58.68 E7.50899
G1 X178.135 Y60.424 E7.62966
G1 X176.178 Y62.308 E7.75616
G1 X174.361 Y64.16 E7.87697
G1 X172.538 Y66.124 E8.00174
G1 X170.806 Y68.102 E8.12417
G1 X169.083 Y70.184 E8.25001
G1 X167.951 Y71.595 E8.33424
G1 X166.259 Y73.765 E8.46237
G1 X164.715 Y75.865 E8.58374
G1 X163.177 Y78.084 E8.70946
G1 X161.753 Y80.269 E8.8309
G1 X160.371 Y82.529 E8.95425
G1 X159.05 Y84.83 E9.0778
G1 X157.789 Y87.18 E9.20198
G1 X156.614 Y89.526 E9.32416
G1 X155.475 Y91.971 E9.44975
G1 X155.197 Y92.579 E9.48088
G1 X154.86 Y93.21 E9.51419
G1 X154.455 Y93.799 E9.54748
G1 X153.986 Y94.34 E9.58082
G1 X153.46 Y94.825 E9.61413
G1 X152.883 Y95.248 E9.64745
G1 X152.228 Y95.621 E9.68254
G1 X151.438 Y96.011 E9.72357
G1 X150.533 Y96.441 E9.77022
G1 X148.136 Y97.665 E9.89555
G1 X145.863 Y98.906 E10.01614
G1 X143.568 Y100.246 E10.13988
G1 X141.306 Y101.654 E10.26395
G1 X139.079 Y103.129 E10.38833
G1 X136.932 Y104.64 E10.51058
G1 X134.832 Y106.209 E10.63264
G1 X132.752 Y107.856 E10.75618
G1 X130.141 Y110.065 E10.91544
G1 X129.547 Y110.585 E10.9522
G1 X128.983 Y111.025 E10.98551
G1 X128.378 Y111.398 E11.0186
G1 X127.773 Y111.714 E11.05038
G1 X126.342 Y112.422 E11.12473
G1 X125.806 Y112.684 E11.15251
G1 X125.085 Y113.027 E11.18969
G1 X124.297 Y113.394 E11.23016
G1 X123.456 Y113.772 E11.2731
G1 X120.956 Y114.919 E11.40117
G1 X118.602 Y116.081 E11.52341
G1 X116.238 Y117.332 E11.64795
G1 X113.943 Y118.631 E11.77075
G1 X111.693 Y119.99 E11.89315
G1 X109.46 Y121.426 E12.01677
G1 X107.255 Y122.935 E12.14118
G1 X105.135 Y124.474 E12.26317
G1 X103.026 Y126.1 E12.38717
G1 X101.004 Y127.752 E12.50875
G1 X98.964 Y129.516 E12.63433
G1 X97.031 Y131.285 E12.75634
G1 X95.108 Y133.148 E12.88102
G1 X94.161 Y134.105 E12.94371
G1 X74.754 Y154.01 E14.23819
G1 X66.626 Y162.29 E14.77846
G1 X66.198 Y162.724 E14.80685
G1 X58.165 Y170.812 E15.33765
G1 X57.755 Y171.221 E15.36461
G1 X54.024 Y174.901 E15.60863
G1 X53.235 Y175.666 E15.65981
G1 X49.774 Y178.96 E15.88229
G1 X48.623 Y180.025 E15.95531
G1 X47.505 Y181.025 E16.02515
G1 X46.012 Y182.311 E16.11691
G1 X45.148 Y183.029 E16.16922
G1 X43.641 Y184.229 E16.25892
G1 X43.443 Y184.38 E16.27051
G1 X42.38 Y185.161 E16.33193
G1 X42.19 Y185.295 E16.34276
G1 X40.908 Y186.167 E16.41496
G1 X40.708 Y186.298 E16.42609
G1 X39.355 Y187.146 E16.50044
G1 X39.174 Y187.255 E16.51028
G1 X38.641 Y187.565 E16.53899
G1 X38.003 Y187.89 E16.57233
G1 X37.334 Y188.141 E16.6056
G1 X36.64 Y188.316 E16.63893
G1 X35.931 Y188.413 E16.67225
G1 X35.216 Y188.43 E16.70555
G1 X34.504 Y188.367 E16.73884
G1 X33.803 Y188.225 E16.77214
G1 X33.122 Y188.005 E16.80547
G1 X32.47 Y187.711 E16.83877
G1 X31.855 Y187.346 E16.87207
G1 X31.284 Y186.915 E16.90538
G1 X30.765 Y186.422 E16.93871
G1 X30.338 Y185.924 E16.96926
G1 X30.148 Y185.679 E16.9837
G1 X29.747 Y185.135 E17.01517
G1 X29.404 Y184.628 E17.04367
G1 X28.87 Y183.767 E17.09085
G1 X28.634 Y183.356 E17.11291
G1 X28.378 Y182.837 E17.13986
G1 X28.123 Y182.249 E17.16971
G1 X28.001 Y181.948 E17.18483
G1 X27.814 Y181.421 E17.21087
G1 X27.65 Y180.881 E17.23715
G1 X27.548 Y180.498 E17.2556
G1 X27.405 Y179.914 E17.2836
G1 X27.259 Y179.176 E17.31863
G1 X27.094 Y178.035 E17.37231
G1 X27.063 Y177.789 E17.38386
G1 X26.978 Y176.981 E17.42169
G1 X26.92 Y176.289 E17.45402
G1 X26.875 Y175.614 E17.48552
G1 X26.838 Y174.87 E17.52021
G1 X26.803 Y173.971 E17.5621
G1 X26.788 Y173.492 E17.58442
G1 X26.765 Y172.574 E17.62718
G1 X26.747 Y171.566 E17.67412
G1 X26.732 Y170.114 E17.74174
G1 X26.728 Y169.457 E17.77233
G1 X26.734 Y168.722 E17.80656
G1 X26.78 Y168.008 E17.83987
G1 X26.905 Y167.304 E17.87317
G1 X27.108 Y166.618 E17.90648
G1 X27.386 Y165.959 E17.93978
G1 X27.736 Y165.335 E17.9731
G1 X28.154 Y164.754 E18.00642
G1 X28.685 Y164.174 E18.04304
G1 X29.332 Y163.549 E18.08493
G1 X36.926 Y156.42 E18.56994
G1 X41.941 Y151.72 E18.88998
G1 X45.98 Y147.943 E19.14747
G1 X49.639 Y144.531 E19.38043
G1 X51.889 Y142.442 E19.5234
G1 X54.294 Y140.216 E19.67599
G1 X56.267 Y138.345 E19.8026
G1 X58.133 Y136.473 E19.92568
G1 X59.957 Y134.536 E20.04957
G1 X61.704 Y132.572 E20.17197
G1 X63.41 Y130.542 E20.29544
G1 X65.058 Y128.464 E20.41894
G1 X66.629 Y126.363 E20.54109
G1 X68.171 Y124.176 E20.6657
G1 X69.641 Y121.959 E20.78956
G1 X71.014 Y119.756 E20.91043
G1 X72.373 Y117.433 E21.03575
G1 X73.64 Y115.118 E21.15864
G1 X74.841 Y112.768 E21.28152
G1 X75.982 Y110.369 E21.40522
G1 X77.052 Y107.948 E21.52847
G1 X78.064 Y105.471 E21.65307
G1 X78.973 Y103.047 E21.77362
G1 X79.841 Y100.519 E21.89808
G1 X80.634 Y97.982 E22.02185
G1 X81.345 Y95.457 E22.14399
G1 X81.99 Y92.89 E22.26724
G1 X82.509 Y90.57 E22.37794
G1 X82.704 Y89.882 E22.41123
G1 X82.975 Y89.22 E22.44454
G1 X83.318 Y88.592 E22.47786
G1 X83.728 Y88.007 E22.51113
G1 X84.202 Y87.471 E22.54444
M204 S3000
M205 X10 Y10
G0 F3000 X84.709 Y87.757
M204 S1800
M205 X8 Y8
G1 F2400 X85.459 Y87.147 E22.58946
G1 X86.115 Y86.699 E22.62645
G1 X87.261 Y85.94 E22.69046
G1 X88.321 Y85.248 E22.7494
G1 X89.112 Y84.74 E22.79317
G1 X89.601 Y84.436 E22.81999
G1 X90.262 Y84.04 E22.85587
G1 X90.936 Y83.653 E22.89205
G1 X91.712 Y83.23 E22.93321
G1 X92.391 Y82.875 E22.96889
G1 X92.79 Y82.67 E22.98977
G1 X93.38 Y82.381 E23.02037
G1 X94.01 Y82.117 E23.05217
G1 X94.519 Y81.964 E23.07692
G1 X94.884 Y81.874 E23.09443
G1 X97.181 Y81.369 E23.20394
G1 X99.778 Y80.719 E23.3286
G1 X102.3 Y80.012 E23.45056
G1 X104.868 Y79.214 E23.57578
G1 X107.409 Y78.344 E23.70084
G1 X109.883 Y77.418 E23.82384
G1 X112.347 Y76.416 E23.9477
G1 X114.78 Y75.345 E24.07148
G1 X117.196 Y74.199 E24.196
G1 X119.536 Y73.007 E24.31828
G1 X121.923 Y71.704 E24.44491
G1 X124.19 Y70.383 E24.56708
G1 X126.468 Y68.967 E24.69198
G1 X128.683 Y67.501 E24.81566
G1 X130.882 Y65.956 E24.9408
G1 X132.973 Y64.397 E25.06225
G1 X135.099 Y62.714 E25.18851
G1 X137.113 Y61.026 E25.31088
G1 X139.887 Y58.537 E25.48442
G1 X148.43 Y50.577 E26.02813
G1 X152.238 Y47.037 E26.27023
G1 X157.097 Y42.531 E26.5788
G1 X160.7 Y39.201 E26.80726
G1 X166.342 Y34 E27.16457
G1 X173.462 Y27.446 E27.61518
G1 X174.016 Y26.95 E27.6498
G1 X174.55 Y26.525 E27.68158
G1 X175.131 Y26.165 E27.71341
G1 X175.75 Y25.876 E27.74522
G1 X176.398 Y25.66 E27.77702
G1 X177.068 Y25.522 E27.80888
G1 X177.748 Y25.463 E27.84066
G1 X178.431 Y25.484 E27.87248
G1 X179.107 Y25.585 E27.90431
G1 X179.766 Y25.764 E27.9361
G1 X180.4 Y26.018 E27.96791
G1 X181 Y26.345 E27.99972
G1 X181.558 Y26.74 E28.03156
G1 X181.976 Y27.108 E28.05749
G1 X182.563 Y27.677 E28.09556
G1 X184.63 Y29.746 E28.23174
G1 X185.404 Y30.542 E28.28344
G1 X187.379 Y32.517 E28.41349
G1 X187.565 Y32.695 E28.42548
G1 X188.32 Y33.435 E28.47471
G1 X190.759 Y35.874 E28.63532
G1 X191.236 Y36.365 E28.6672
G1 X191.682 Y36.882 E28.69899
G1 X192.066 Y37.447 E28.7308
G1 X192.38 Y38.054 E28.76262
G1 X192.621 Y38.693 E28.79442
G1 X192.787 Y39.356 E28.82625
G1 X192.873 Y40.034 E28.85807
G1 X192.88 Y40.725 E28.89025
G1 X192.848 Y41.358 E28.91976
G1 X192.742 Y43.059 E28.99912
G1 X192.722 Y43.57 E29.02293
G1 X192.685 Y44.222 E29.05334
G1 X192.606 Y44.901 E29.08517
G1 X192.449 Y45.565 E29.11694
G1 X192.215 Y46.207 E29.14876
G1 X191.908 Y46.818 E29.1806
G1 X191.551 Y47.361 E29.21086
G1 X191.112 Y47.93 E29.24433
G1 X190.726 Y48.387 E29.27218
G1 X190.632 Y48.495 E29.27885
G1 X190.279 Y48.889 E29.30348
G1 X190.083 Y49.096 E29.31675
G1 X189.323 Y49.863 E29.36703
G1 X188.927 Y50.245 E29.39265
G1 X188.393 Y50.75 E29.42688
G1 X187.859 Y51.247 E29.46084
G1 X186.352 Y52.63 E29.55609
G1 X185.381 Y53.512 E29.61717
G1 X184.861 Y53.972 E29.6495
G1 X184.606 Y54.185 E29.66497
G1 X183.847 Y54.783 E29.70996
G1 X181.698 Y56.526 E29.83881
G1 X179.706 Y58.238 E29.96111
G1 X177.712 Y60.053 E30.08666
G1 X175.821 Y61.873 E30.20887
G1 X173.929 Y63.802 E30.33469
G1 X172.136 Y65.733 E30.45739
G1 X170.366 Y67.755 E30.58252
G1 X168.645 Y69.834 E30.70819
G1 X167.49 Y71.274 E30.79415
G1 X165.839 Y73.391 E30.91916
G1 X164.228 Y75.583 E31.04583
G1 X162.724 Y77.753 E31.16877
G1 X161.277 Y79.974 E31.2922
G1 X159.884 Y82.252 E31.41653
G1 X158.557 Y84.564 E31.54066
G1 X157.296 Y86.915 E31.66489
G1 X156.106 Y89.289 E31.78854
G1 X154.978 Y91.711 E31.91295
G1 X154.689 Y92.343 E31.94531
G1 X154.365 Y92.945 E31.97715
G1 X153.974 Y93.505 E32.00895
G1 X153.52 Y94.015 E32.04074
G1 X153.009 Y94.469 E32.07257
G1 X152.449 Y94.86 E32.10437
G1 X151.98 Y95.119 E32.12932
G1 X151.197 Y95.505 E32.16997
G1 X150.303 Y95.93 E32.21606
G1 X147.892 Y97.161 E32.34212
G1 X145.564 Y98.432 E32.46562
G1 X143.268 Y99.773 E32.58943
G1 X141.02 Y101.172 E32.71272
G1 X138.766 Y102.664 E32.83859
G1 X136.617 Y104.177 E32.96097
G1 X134.468 Y105.782 E33.08586
G1 X132.389 Y107.429 E33.20937
G1 X129.774 Y109.641 E33.36885
G1 X129.178 Y110.163 E33.40575
G1 X128.638 Y110.583 E33.4376
G1 X128.111 Y110.906 E33.46638
G1 X127.52 Y111.215 E33.49744
G1 X126.097 Y111.919 E33.57136
G1 X125.565 Y112.178 E33.59891
G1 X124.849 Y112.52 E33.63586
G1 X124.066 Y112.884 E33.67607
G1 X123.179 Y113.283 E33.72136
G1 X120.725 Y114.409 E33.84708
G1 X118.343 Y115.585 E33.97078
G1 X115.979 Y116.836 E34.09532
G1 X113.671 Y118.142 E34.2188
G1 X111.378 Y119.527 E34.34354
G1 X109.135 Y120.969 E34.4677
G1 X106.952 Y122.463 E34.59088
G1 X104.806 Y124.022 E34.71439
G1 X102.688 Y125.654 E34.8389
G1 X100.603 Y127.357 E34.96425
G1 X98.616 Y129.076 E35.08659
G1 X96.641 Y130.883 E35.21124
G1 X94.716 Y132.748 E35.33605
G1 X93.763 Y133.711 E35.39913
G1 X74.354 Y153.618 E36.69375
G1 X66.228 Y161.897 E37.23392
G1 X57.789 Y170.396 E37.79162
G1 X57.361 Y170.823 E37.81978
G1 X53.634 Y174.499 E38.06353
G1 X52.849 Y175.26 E38.11444
G1 X49.393 Y178.549 E38.33659
G1 X48.173 Y179.677 E38.41396
G1 X47.14 Y180.601 E38.4785
G1 X45.654 Y181.881 E38.56982
G1 X44.799 Y182.591 E38.62157
G1 X43.292 Y183.791 E38.71128
G1 X43.112 Y183.928 E38.72181
G1 X42.049 Y184.709 E38.78323
G1 X41.876 Y184.832 E38.79311
G1 X40.594 Y185.704 E38.86531
G1 X40.41 Y185.823 E38.87551
G1 X39.057 Y186.671 E38.94987
G1 X38.892 Y186.771 E38.95885
G1 X38.359 Y187.081 E38.98756
G1 X37.749 Y187.39 E39.0194
G1 X37.108 Y187.625 E39.05119
G1 X36.443 Y187.783 E39.08302
G1 X35.765 Y187.863 E39.11481
G1 X35.082 Y187.863 E39.14661
G1 X34.403 Y187.783 E39.17845
G1 X33.738 Y187.625 E39.21027
G1 X33.097 Y187.39 E39.24207
G1 X32.487 Y187.081 E39.27391
G1 X31.918 Y186.704 E39.30569
G1 X31.396 Y186.263 E39.33751
G1 X30.895 Y185.721 E39.37188
G1 X30.599 Y185.347 E39.39409
G1 X30.198 Y184.803 E39.42555
G1 X29.88 Y184.333 E39.45198
G1 X29.346 Y183.472 E39.49916
G1 X29.124 Y183.086 E39.51989
G1 X28.89 Y182.612 E39.5445
G1 X28.642 Y182.039 E39.57358
G1 X28.52 Y181.738 E39.5887
G1 X28.349 Y181.257 E39.61247
G1 X28.19 Y180.732 E39.63801
G1 X28.092 Y180.365 E39.6557
G1 X27.949 Y179.781 E39.6837
G1 X27.813 Y179.096 E39.71622
G1 X27.648 Y177.955 E39.7699
G1 X27.62 Y177.73 E39.78046
G1 X27.522 Y176.784 E39.82474
G1 X27.472 Y176.155 E39.85412
G1 X27.435 Y175.586 E39.88068
G1 X27.397 Y174.848 E39.91509
G1 X27.363 Y173.953 E39.95679
G1 X27.348 Y173.478 E39.97892
G1 X27.325 Y172.564 E40.02149
G1 X27.307 Y171.56 E40.06825
G1 X27.292 Y170.11 E40.13577
G1 X27.288 Y169.461 E40.16599
G1 X27.294 Y168.726 E40.20022
G1 X27.34 Y168.045 E40.232
G1 X27.465 Y167.373 E40.26383
G1 X27.667 Y166.72 E40.29566
G1 X27.944 Y166.096 E40.32745
G1 X28.293 Y165.508 E40.35929
G1 X28.707 Y164.965 E40.39108
G1 X29.074 Y164.576 E40.41598
G1 X29.715 Y163.957 E40.45748
G1 X37.309 Y156.829 E40.94245
G1 X42.324 Y152.129 E41.2625
G1 X46.362 Y148.352 E41.51996
G1 X50.02 Y144.942 E41.75282
