;FLAVOR:Marlin
;TIME:744
;Filament used: 0.638468m
;Layer height: 0.2
;MINX:75.923
;MINY:92.016
;MINZ:0.2
;MAXX:137.551
;MAXY:117.98
;MAXZ:7.8
;Generated with Cura_SteamEngine 4.8.0
M140 S55
M105
M190 S55
M104 S200
M105
M109 S200
M82 ;absolute extrusion mode
; Script based on an original created by tjjfvi (https://github.com/tjjfvi)
; An up-to-date version of the tjjfvi's original script can be found
; here:  https://csi.t6.fyi/
; Note - This script will only work in Cura V4.2 and above!
; --- Global Settings
; layer_height = 0.2
; smooth_spiralized_contours = True
; magic_mesh_surface_mode = normal
; machine_extruder_count = 1
; --- Single Extruder Settings
; speed_z_hop = 10
; retraction_amount = 6
; retraction_hop = 0.075
; retraction_hop_enabled = True
; retraction_enable = True
; retraction_speed = 40
; retraction_retract_speed = 40
; retraction_prime_speed = 40
; speed_travel = 100


G21 ;metric values
G90 ;absolute positioning
M82 ;set extruder to absolute mode
M107 ;start with the fan off
G28 X0 Y0 ;move X/Y to min endstops
G28 Z0 ;move Z to min endstops
G1 Z15.0 F100 ;move the platform down 15mm
G92 E0 ;zero the extruded length
G1 F200 E3 ;extrude 3mm of feed stock
G92 E0 ;zero the extruded length again
G1 F100
G0 Y20 F100
M117 Printing...
G5
G92 E0
G92 E0
G1 F2400 E-6
;LAYER_COUNT:39
;LAYER:0
M106 S255
M204 S3000
M205 X10 Y10
G1 F600 Z0.275
G0 F3000 X80.806 Y94.846 Z0.275
M204 S1800
M205 X8 Y8
;TYPE:SKIRT
G1 F600 Z0.2
G1 F2400 E0
G1 X81.224 Y94.532 E0.02434
G1 X81.766 Y94.153 E0.05514
G1 X82.459 Y93.726 E0.09304
G1 X82.96 Y93.454 E0.11959
G1 X83.663 Y93.122 E0.15579
G1 X84.323 Y92.851 E0.18901
G1 X85.114 Y92.58 E0.22795
G1 X85.614 Y92.443 E0.25209
G1 X86.169 Y92.31 E0.27866
G1 X86.672 Y92.211 E0.30253
G1 X87.433 Y92.099 E0.33835
G1 X88.409 Y92.03 E0.38391
G1 X88.968 Y92.02 E0.40994
G1 X89.519 Y92.033 E0.43561
G1 X90.116 Y92.076 E0.46348
G1 X90.839 Y92.168 E0.49741
G1 X91.471 Y92.269 E0.52722
G1 X94.145 Y92.672 E0.65314
G1 X96.742 Y92.988 E0.77495
G1 X99.401 Y93.235 E0.8993
G1 X102.038 Y93.405 E1.02235
G1 X104.684 Y93.502 E1.14564
G1 X107.326 Y93.522 E1.26866
G1 X109.999 Y93.468 E1.39316
G1 X112.611 Y93.341 E1.51492
G1 X115.242 Y93.138 E1.6378
G1 X117.912 Y92.856 E1.76282
G1 X120.5 Y92.509 E1.8844
G1 X122.582 Y92.176 E1.98258
G1 X122.919 Y92.119 E1.9985
G1 X123.636 Y92.039 E2.03209
G1 X124.61 Y92.016 E2.07746
G1 X125.147 Y92.033 E2.10247
G1 X125.765 Y92.076 E2.13132
G1 X126.302 Y92.131 E2.15646
G1 X127.007 Y92.252 E2.18976
G1 X127.472 Y92.378 E2.2122
G1 X128.376 Y92.66 E2.25629
G1 X129.24 Y92.951 E2.29874
G1 X129.882 Y93.181 E2.3305
G1 X130.541 Y93.459 E2.3638
G1 X131.034 Y93.728 E2.38995
G1 X131.563 Y94.061 E2.41906
G1 X131.788 Y94.215 E2.43176
G1 X132.479 Y94.711 E2.47136
G1 X132.932 Y95.068 E2.49822
G1 X133.366 Y95.454 E2.52527
G1 X133.884 Y95.958 E2.55892
G1 X134.437 Y96.56 E2.59698
G1 X134.856 Y97.078 E2.62801
G1 X135.26 Y97.637 E2.66012
G1 X135.665 Y98.259 E2.69468
G1 X136.013 Y98.864 E2.72718
G1 X136.254 Y99.344 E2.75219
G1 X136.586 Y100.088 E2.79013
G1 X136.852 Y100.79 E2.82508
G1 X137.024 Y101.332 E2.85156
G1 X137.11 Y101.649 E2.86686
G1 X137.241 Y102.184 E2.89251
G1 X137.351 Y102.721 E2.91803
G1 X137.467 Y103.498 E2.95461
G1 X137.515 Y104.032 E2.97958
G1 X137.543 Y104.578 E3.00503
G1 X137.551 Y105.101 E3.02939
G1 X137.518 Y105.971 E3.06993
G1 X137.465 Y106.492 E3.09431
G1 X137.366 Y107.185 E3.12691
G1 X137.2 Y108.006 E3.16591
G1 X137.026 Y108.657 E3.19729
G1 X136.804 Y109.335 E3.23051
G1 X136.567 Y109.959 E3.26159
G1 X136.28 Y110.609 E3.29468
G1 X135.965 Y111.215 E3.32648
G1 X135.688 Y111.698 E3.35241
G1 X135.205 Y112.444 E3.39379
G1 X134.808 Y112.982 E3.42492
G1 X134.361 Y113.52 E3.45749
G1 X133.888 Y114.039 E3.49019
G1 X133.311 Y114.6 E3.52766
G1 X132.574 Y115.217 E3.57242
G1 X132.096 Y115.575 E3.60023
G1 X131.389 Y116.048 E3.63984
G1 X130.982 Y116.284 E3.66174
G1 X130.525 Y116.531 E3.68593
G1 X129.9 Y116.835 E3.7183
G1 X129.184 Y117.135 E3.75444
G1 X128.258 Y117.442 E3.79987
G1 X127.749 Y117.584 E3.82448
G1 X127.242 Y117.703 E3.84873
G1 X126.705 Y117.801 E3.87415
G1 X126.025 Y117.893 E3.9061
G1 X125.633 Y117.935 E3.92445
G1 X124.918 Y117.971 E3.95779
G1 X124.058 Y117.927 E3.99789
G1 X123.426 Y117.868 E4.02744
G1 X123.134 Y117.833 E4.04114
G1 X121.055 Y117.53 E4.13897
G1 X119.293 Y117.27 E4.2219
G1 X116.606 Y116.952 E4.34789
G1 X114.011 Y116.718 E4.46922
G1 X111.331 Y116.553 E4.59425
G1 X108.726 Y116.467 E4.71561
G1 X106.048 Y116.453 E4.84031
G1 X103.407 Y116.515 E4.96332
G1 X100.802 Y116.65 E5.08479
G1 X98.104 Y116.866 E5.21082
G1 X95.519 Y117.147 E5.33189
G1 X91.933 Y117.657 E5.50055
G1 X90.731 Y117.851 E5.55725
G1 X90.208 Y117.916 E5.58179
G1 X89.382 Y117.97 E5.62033
G1 X88.819 Y117.98 E5.64655
G1 X88.296 Y117.968 E5.67091
G1 X87.68 Y117.925 E5.69967
G1 X86.958 Y117.833 E5.73356
G1 X86.22 Y117.702 E5.76846
G1 X85.468 Y117.522 E5.80446
G1 X84.97 Y117.371 E5.8287
G1 X84.381 Y117.169 E5.85769
G1 X83.579 Y116.844 E5.89798
G1 X83.036 Y116.584 E5.92602
G1 X82.347 Y116.205 E5.96263
G1 X81.79 Y115.863 E5.99307
G1 X81.19 Y115.451 E6.02696
G1 X80.793 Y115.141 E6.05041
G1 X80.389 Y114.803 E6.07494
G1 X79.86 Y114.32 E6.1083
G1 X79.261 Y113.702 E6.14837
G1 X78.683 Y113.01 E6.19036
G1 X78.358 Y112.58 E6.21545
G1 X78.047 Y112.132 E6.24085
G1 X77.749 Y111.656 E6.267
G1 X77.609 Y111.41 E6.28018
G1 X77.361 Y110.951 E6.30447
G1 X77.127 Y110.477 E6.32909
G1 X76.91 Y109.989 E6.35396
G1 X76.694 Y109.432 E6.38177
G1 X76.449 Y108.678 E6.41869
G1 X76.299 Y108.133 E6.44501
G1 X76.191 Y107.671 E6.4671
G1 X76.093 Y107.134 E6.49252
G1 X76.002 Y106.463 E6.52405
G1 X75.96 Y106.076 E6.54218
G1 X75.923 Y105.361 E6.57552
G1 X75.936 Y104.97 E6.59373
G1 X75.969 Y104.462 E6.61744
G1 X76.024 Y103.874 E6.64494
G1 X76.06 Y103.578 E6.65882
G1 X76.229 Y102.419 E6.71336
G1 X76.338 Y101.795 E6.74286
G1 X76.504 Y101.1 E6.77613
G1 X76.677 Y100.596 E6.80094
G1 X76.88 Y100.087 E6.82646
G1 X76.984 Y99.852 E6.83842
G1 X77.312 Y99.147 E6.87463
G1 X77.612 Y98.58 E6.9045
G1 X77.888 Y98.123 E6.92936
G1 X78.284 Y97.524 E6.9628
G1 X78.735 Y96.917 E6.99801
G1 X79.23 Y96.335 E7.03358
G1 X79.666 Y95.875 E7.0631
G1 X80.202 Y95.359 E7.09774
G1 X80.806 Y94.846 E7.13464
M204 S3000
M205 X10 Y10
G0 F3000 X81.146 Y95.291
M204 S1800
M205 X8 Y8
G1 F2400 X81.549 Y94.988 E7.15812
G1 X82.072 Y94.622 E7.18784
G1 X82.745 Y94.207 E7.22466
G1 X83.218 Y93.951 E7.2497
G1 X83.898 Y93.631 E7.2847
G1 X84.516 Y93.377 E7.31581
G1 X85.266 Y93.119 E7.35274
G1 X86.11 Y92.898 E7.39337
G1 X86.761 Y92.764 E7.42432
G1 X87.491 Y92.656 E7.45868
G1 X88.439 Y92.59 E7.50293
G1 X88.971 Y92.58 E7.5277
G1 X89.502 Y92.593 E7.55244
G1 X90.065 Y92.633 E7.57872
G1 X90.763 Y92.723 E7.61149
G1 X91.377 Y92.822 E7.64045
G1 X94.062 Y93.226 E7.76688
G1 X96.689 Y93.546 E7.89011
G1 X99.351 Y93.793 E8.0146
G1 X102.017 Y93.965 E8.13899
G1 X104.66 Y94.062 E8.26215
G1 X107.332 Y94.082 E8.38657
G1 X110.003 Y94.029 E8.51097
G1 X112.647 Y93.899 E8.63423
G1 X115.309 Y93.695 E8.75855
G1 X117.976 Y93.413 E8.88343
G1 X120.585 Y93.063 E9.006
G1 X122.654 Y92.732 E9.10357
G1 X123.012 Y92.671 E9.12048
G1 X123.667 Y92.598 E9.15117
G1 X124.614 Y92.576 E9.19527
G1 X125.12 Y92.592 E9.21885
G1 X125.724 Y92.634 E9.24704
G1 X126.239 Y92.688 E9.27115
G1 X126.912 Y92.805 E9.30296
G1 X127.306 Y92.912 E9.32197
G1 X128.073 Y93.15 E9.35937
G1 X129.052 Y93.478 E9.40744
G1 X129.694 Y93.708 E9.4392
G1 X130.322 Y93.976 E9.47099
G1 X130.931 Y94.321 E9.50358
G1 X131.461 Y94.67 E9.53313
G1 X132.152 Y95.166 E9.57274
G1 X132.566 Y95.492 E9.59728
G1 X132.979 Y95.859 E9.623
G1 X133.479 Y96.344 E9.65544
G1 X134.018 Y96.931 E9.69255
G1 X134.413 Y97.42 E9.72182
G1 X134.804 Y97.962 E9.75294
G1 X135.183 Y98.545 E9.78532
G1 X135.516 Y99.122 E9.81634
G1 X135.745 Y99.577 E9.84006
G1 X136.065 Y100.295 E9.87666
G1 X136.325 Y100.98 E9.91078
G1 X136.488 Y101.493 E9.93584
G1 X136.566 Y101.782 E9.94978
G1 X136.697 Y102.317 E9.97543
G1 X136.799 Y102.82 E9.99932
G1 X136.911 Y103.556 E10.03399
G1 X136.955 Y104.061 E10.05759
G1 X136.983 Y104.607 E10.08305
G1 X136.989 Y105.269 E10.11388
G1 X136.96 Y105.922 E10.14431
G1 X136.849 Y106.865 E10.18853
G1 X136.734 Y107.516 E10.21931
G1 X136.557 Y108.263 E10.25506
G1 X136.273 Y109.157 E10.29874
G1 X136.052 Y109.739 E10.32772
G1 X135.777 Y110.364 E10.35952
G1 X135.477 Y110.939 E10.38972
G1 X135.209 Y111.408 E10.41487
G1 X134.741 Y112.131 E10.45497
G1 X134.364 Y112.641 E10.48451
G1 X133.934 Y113.158 E10.51582
G1 X133.491 Y113.644 E10.54644
G1 X132.94 Y114.18 E10.58223
G1 X132.221 Y114.782 E10.6259
G1 X131.768 Y115.121 E10.65224
G1 X131.101 Y115.567 E10.68961
G1 X130.716 Y115.792 E10.71037
G1 X130.259 Y116.039 E10.73456
G1 X129.675 Y116.323 E10.7648
G1 X128.993 Y116.608 E10.79922
G1 X128.09 Y116.908 E10.84352
G1 X127.605 Y117.043 E10.86697
G1 X126.628 Y117.247 E10.91344
G1 X125.965 Y117.336 E10.94459
G1 X125.573 Y117.378 E10.96295
G1 X124.575 Y117.399 E11.00943
G1 X123.897 Y117.352 E11.04107
G1 X123.214 Y117.278 E11.07306
G1 X121.136 Y116.976 E11.17084
G1 X119.332 Y116.71 E11.25575
G1 X116.722 Y116.401 E11.37813
G1 X114.023 Y116.158 E11.50432
G1 X111.385 Y115.995 E11.62739
G1 X108.712 Y115.907 E11.75192
G1 X106.037 Y115.893 E11.87648
G1 X103.4 Y115.955 E11.99931
G1 X100.73 Y116.093 E12.1238
G1 X98.1 Y116.304 E12.24666
G1 X95.441 Y116.593 E12.3712
G1 X91.813 Y117.109 E12.54183
G1 X90.641 Y117.298 E12.59711
G1 X89.849 Y117.383 E12.6342
G1 X89.059 Y117.419 E12.67103
G1 X88.312 Y117.409 E12.70581
G1 X87.73 Y117.367 E12.73298
G1 X87.033 Y117.278 E12.7657
G1 X86.341 Y117.155 E12.79843
G1 X85.625 Y116.984 E12.83271
G1 X84.727 Y116.697 E12.87661
G1 X84.155 Y116.481 E12.90508
G1 X83.518 Y116.2 E12.9375
G1 X83.072 Y115.969 E12.96088
G1 X82.623 Y115.717 E12.98486
G1 X82.102 Y115.398 E13.01331
G1 X81.525 Y115.002 E13.04589
G1 X81.025 Y114.607 E13.07556
G1 X80.586 Y114.231 E13.10248
G1 X79.978 Y113.649 E13.14167
G1 X79.52 Y113.147 E13.17331
G1 X79.119 Y112.658 E13.20276
G1 X78.809 Y112.247 E13.22673
G1 X78.51 Y111.817 E13.25112
G1 X78.229 Y111.368 E13.27578
G1 X78.102 Y111.144 E13.28777
G1 X77.854 Y110.685 E13.31206
G1 X77.558 Y110.074 E13.34368
G1 X77.292 Y109.438 E13.37578
G1 X76.983 Y108.51 E13.42132
G1 X76.841 Y107.991 E13.44638
G1 X76.647 Y107.057 E13.4908
G1 X76.559 Y106.402 E13.52157
G1 X76.517 Y106.015 E13.5397
G1 X76.495 Y105.006 E13.58669
G1 X76.528 Y104.498 E13.61039
G1 X76.581 Y103.929 E13.637
G1 X76.614 Y103.658 E13.64972
G1 X76.783 Y102.499 E13.70425
G1 X76.889 Y101.895 E13.73281
G1 X77.049 Y101.231 E13.76461
G1 X77.326 Y100.477 E13.80202
G1 X77.492 Y100.089 E13.82167
G1 X77.82 Y99.384 E13.85787
G1 X78.093 Y98.866 E13.88514
G1 X78.359 Y98.427 E13.90904
G1 X78.74 Y97.849 E13.94128
G1 X79.18 Y97.257 E13.97562
G1 X79.647 Y96.709 E14.00915
G1 X80.07 Y96.263 E14.03777
G1 X80.573 Y95.778 E14.07031
G1 X81.146 Y95.291 E14.10532
M204 S3000
M205 X10 Y10
G0 F3000 X81.486 Y95.736
M204 S1800
M205 X8 Y8
G1 F2400 X82.208 Y95.207 E14.147
G1 X82.723 Y94.871 E14.17563
G1 X83.291 Y94.544 E14.20615
G1 X84.132 Y94.14 E14.2496
G1 X84.709 Y93.902 E14.27866
G1 X85.419 Y93.658 E14.31362
G1 X86.244 Y93.442 E14.35333
G1 X86.85 Y93.317 E14.38214
G1 X87.549 Y93.213 E14.41505
G1 X88.469 Y93.149 E14.45799
G1 X88.973 Y93.14 E14.48146
G1 X89.485 Y93.152 E14.50531
G1 X90.014 Y93.191 E14.53001
G1 X90.687 Y93.277 E14.5616
G1 X90.834 Y93.299 E14.56852
G1 X91.331 Y93.381 E14.59198
G1 X93.981 Y93.78 E14.71676
G1 X96.643 Y94.104 E14.84163
G1 X99.298 Y94.351 E14.96579
G1 X101.997 Y94.525 E15.09173
G1 X104.634 Y94.621 E15.2146
G1 X107.34 Y94.642 E15.34061
G1 X110.006 Y94.589 E15.46477
G1 X112.717 Y94.456 E15.59116
G1 X115.338 Y94.255 E15.71356
G1 X118.039 Y93.969 E15.84004
G1 X120.668 Y93.617 E15.96355
G1 X122.744 Y93.284 E16.06145
G1 X123.106 Y93.223 E16.07854
G1 X123.698 Y93.157 E16.10628
G1 X124.617 Y93.136 E16.14908
G1 X125.213 Y93.159 E16.17686
G1 X125.904 Y93.213 E16.20913
G1 X126.175 Y93.244 E16.22183
G1 X126.815 Y93.358 E16.2521
G1 X127.14 Y93.447 E16.26779
G1 X127.907 Y93.685 E16.30519
G1 X128.863 Y94.005 E16.35213
G1 X129.505 Y94.235 E16.38389
G1 X130.102 Y94.492 E16.41415
G1 X130.642 Y94.8 E16.4431
G1 X131.135 Y95.125 E16.47059
G1 X131.826 Y95.621 E16.5102
G1 X132.399 Y96.087 E16.54459
G1 X132.904 Y96.561 E16.57684
G1 X133.379 Y97.055 E16.60875
G1 X133.826 Y97.578 E16.64079
G1 X134.348 Y98.287 E16.68179
G1 X134.702 Y98.832 E16.71205
G1 X135.019 Y99.381 E16.74157
G1 X135.44 Y100.256 E16.78678
G1 X135.639 Y100.738 E16.81106
G1 X135.888 Y101.444 E16.84592
G1 X136.022 Y101.915 E16.86872
G1 X136.153 Y102.45 E16.89437
G1 X136.263 Y103.004 E16.92067
G1 X136.354 Y103.615 E16.94944
G1 X136.396 Y104.09 E16.97164
G1 X136.424 Y104.636 E16.9971
G1 X136.429 Y105.253 E17.02583
G1 X136.402 Y105.874 E17.05477
G1 X136.294 Y106.79 E17.09772
G1 X136.187 Y107.396 E17.12637
G1 X136.019 Y108.107 E17.16039
G1 X135.742 Y108.978 E17.20295
G1 X135.537 Y109.519 E17.22989
G1 X135.274 Y110.118 E17.26035
G1 X134.99 Y110.663 E17.28897
G1 X134.73 Y111.118 E17.31337
G1 X134.276 Y111.819 E17.35226
G1 X133.92 Y112.299 E17.38009
G1 X133.507 Y112.795 E17.41014
G1 X133.093 Y113.25 E17.43879
G1 X132.57 Y113.76 E17.4728
G1 X131.868 Y114.348 E17.51544
G1 X131.44 Y114.668 E17.54033
G1 X130.813 Y115.087 E17.57544
G1 X130.45 Y115.299 E17.59501
G1 X129.993 Y115.546 E17.6192
G1 X129.45 Y115.81 E17.64732
G1 X128.801 Y116.082 E17.68008
G1 X127.922 Y116.374 E17.72321
G1 X127.277 Y116.547 E17.75431
G1 X126.551 Y116.692 E17.78878
G1 X125.905 Y116.779 E17.81913
G1 X125.513 Y116.821 E17.83749
G1 X124.611 Y116.84 E17.8795
G1 X123.952 Y116.795 E17.91026
G1 X123.295 Y116.724 E17.94103
G1 X121.218 Y116.422 E18.03876
G1 X119.411 Y116.155 E18.12382
G1 X116.765 Y115.842 E18.24788
G1 X114.076 Y115.6 E18.3736
G1 X111.402 Y115.435 E18.49835
G1 X108.733 Y115.347 E18.6227
G1 X106.063 Y115.333 E18.74703
G1 X103.358 Y115.397 E18.87302
G1 X100.691 Y115.534 E18.99737
G1 X98.029 Y115.748 E19.12172
G1 X95.364 Y116.038 E19.24655
G1 X91.81 Y116.543 E19.4137
G1 X90.552 Y116.746 E19.47303
G1 X89.818 Y116.824 E19.50741
G1 X89.057 Y116.859 E19.54288
G1 X88.328 Y116.849 E19.57683
G1 X87.781 Y116.809 E19.60237
G1 X87.108 Y116.723 E19.63396
G1 X86.462 Y116.609 E19.6645
G1 X85.781 Y116.447 E19.6971
G1 X84.906 Y116.167 E19.73988
G1 X84.375 Y115.966 E19.76631
G1 X83.765 Y115.698 E19.79734
G1 X83.213 Y115.408 E19.82637
G1 X82.644 Y115.08 E19.85696
G1 X82.067 Y114.7 E19.88913
G1 X81.493 Y114.266 E19.92263
G1 X80.963 Y113.817 E19.95498
G1 X80.372 Y113.251 E19.99308
G1 X79.942 Y112.779 E20.02281
G1 X79.554 Y112.306 E20.0513
G1 X79.147 Y111.756 E20.08316
G1 X78.804 Y111.237 E20.11213
G1 X78.595 Y110.878 E20.13147
G1 X78.347 Y110.419 E20.15577
G1 X78.072 Y109.85 E20.18519
G1 X77.818 Y109.245 E20.21575
G1 X77.518 Y108.342 E20.26005
G1 X77.382 Y107.849 E20.28387
G1 X77.202 Y106.98 E20.32519
G1 X77.116 Y106.342 E20.35517
G1 X77.074 Y105.955 E20.37329
G1 X77.054 Y105.043 E20.41577
G1 X77.087 Y104.535 E20.43947
G1 X77.138 Y103.984 E20.46524
G1 X77.168 Y103.739 E20.47673
G1 X77.337 Y102.58 E20.53127
G1 X77.44 Y101.994 E20.55898
G1 X77.594 Y101.363 E20.58922
G1 X77.847 Y100.681 E20.62309
G1 X78 Y100.325 E20.64114
G1 X78.328 Y99.62 E20.67734
G1 X78.575 Y99.152 E20.70198
G1 X79.059 Y98.375 E20.74461
G1 X79.399 Y97.893 E20.77208
G1 X79.887 Y97.281 E20.80852
G1 X80.474 Y96.651 E20.84862
G1 X80.944 Y96.197 E20.87905
G1 X81.486 Y95.736 E20.91218
M204 S3000
M205 X10 Y10
G1 F2400 E14.91218
;MESH:Blade-Gem.stl
G0 F3000 X85.325 Y98.683
G0 X86.125 Y99.98
G0 X93.231 Y102.336
M204 S1800
M205 X8 Y8
;TYPE:WALL-INNER
G1 F2400 E20.91218
G1 F1500 X93.368 Y102.877 E20.93817
