;FLAVOR:Marlin
;TIME:5226
;Filament used: 4.517m
;Layer height: 0.2
;MINX:68.426
;MINY:37.571
;MINZ:0.2
;MAXX:141.573
;MAXY:175.098
;MAXZ:6.8
;Generated with Cura_SteamEngine 4.8.0
M140 S55
M105
M190 S55
M104 S200
M105
M109 S200
M82 ;absolute extrusion mode
; Script based on an original created by tjjfvi (https://github.com/tjjfvi)
; An up-to-date version of the tjjfvi's original script can be found
; here:  https://csi.t6.fyi/
; Note - This script will only work in Cura V4.2 and above!
; --- Global Settings
; layer_height = 0.2
; smooth_spiralized_contours = True
; magic_mesh_surface_mode = normal
; machine_extruder_count = 1
; --- Single Extruder Settings
; speed_z_hop = 10
; retraction_amount = 6
; retraction_hop = 0.075
; retraction_hop_enabled = True
; retraction_enable = True
; retraction_speed = 40
; retraction_retract_speed = 40
; retraction_prime_speed = 40
; speed_travel = 100


G21 ;metric values
G90 ;absolute positioning
M82 ;set extruder to absolute mode
M107 ;start with the fan off
G28 X0 Y0 ;move X/Y to min endstops
G28 Z0 ;move Z to min endstops
G1 Z15.0 F100 ;move the platform down 15mm
G92 E0 ;zero the extruded length
G1 F200 E3 ;extrude 3mm of feed stock
G92 E0 ;zero the extruded length again
G1 F100
G0 Y20 F100
M117 Printing...
G5
G92 E0
G92 E0
G1 F2400 E-6
;LAYER_COUNT:34
;LAYER:0
M106 S255
M204 S3000
M205 X10 Y10
G1 F600 Z0.275
G0 F3000 X88.67 Y66.95 Z0.275
M204 S1800
M205 X8 Y8
;TYPE:SKIRT
G1 F600 Z0.2
G1 F2400 E0
G1 X89.079 Y66.509 E0.02801
G1 X89.822 Y65.78 E0.07648
G1 X93.108 Y62.658 E0.28753
G1 X93.375 Y62.408 E0.30457
G1 X94.483 Y61.357 E0.37568
G1 X98.332 Y57.721 E0.62223
G1 X100.569 Y55.621 E0.7651
G1 X102.276 Y54.032 E0.87369
G1 X103.325 Y53.066 E0.94009
G1 X104.012 Y52.438 E0.98343
G1 X105.02 Y51.536 E1.04642
G1 X105.398 Y51.203 E1.06988
G1 X105.676 Y50.965 E1.08692
G1 X106.233 Y50.477 E1.1214
G1 X106.719 Y50.065 E1.15107
G1 X107.072 Y49.774 E1.17237
G1 X107.784 Y49.206 E1.21478
G1 X108.192 Y48.895 E1.23867
G1 X108.841 Y48.418 E1.27617
G1 X109.074 Y48.254 E1.28944
G1 X109.62 Y47.889 E1.32002
G1 X109.891 Y47.718 E1.33494
G1 X110.872 Y47.131 E1.38818
G1 X111.062 Y47.022 E1.39838
G1 X111.753 Y46.64 E1.43514
G1 X111.924 Y46.549 E1.44416
G1 X112.907 Y46.045 E1.4956
G1 X113.24 Y45.883 E1.51284
G1 X114.096 Y45.48 E1.5569
G1 X114.517 Y45.286 E1.57848
G1 X115.195 Y44.979 E1.61314
G1 X115.891 Y44.67 E1.6486
G1 X116.481 Y44.412 E1.67858
G1 X118.301 Y43.628 E1.77086
G1 X120.39 Y42.743 E1.8765
G1 X122.401 Y41.904 E1.97796
G1 X126.63 Y40.151 E2.19113
G1 X127.353 Y39.856 E2.22749
G1 X129.022 Y39.165 E2.3116
G1 X131.231 Y38.258 E2.4228
G1 X131.844 Y38.015 E2.4535
G1 X132.522 Y37.789 E2.48678
G1 X133.222 Y37.641 E2.5201
G1 X133.934 Y37.571 E2.55341
G1 X134.649 Y37.581 E2.58671
G1 X135.358 Y37.67 E2.61998
G1 X136.054 Y37.839 E2.65333
G1 X136.726 Y38.084 E2.68664
G1 X137.366 Y38.402 E2.71991
G1 X137.967 Y38.79 E2.75322
G1 X138.521 Y39.242 E2.78652
G1 X139.021 Y39.754 E2.81984
G1 X139.461 Y40.318 E2.85315
G1 X139.835 Y40.927 E2.88643
G1 X140.193 Y41.715 E2.92673
G1 X140.421 Y42.322 E2.95692
G1 X140.561 Y42.734 E2.97718
G1 X140.787 Y43.488 E3.01383
G1 X140.977 Y44.237 E3.04982
G1 X141.116 Y44.911 E3.08186
G1 X141.238 Y45.615 E3.11513
G1 X141.336 Y46.325 E3.1485
G1 X141.366 Y46.583 E3.1606
G1 X141.454 Y47.492 E3.20312
G1 X141.472 Y47.718 E3.21368
G1 X141.517 Y48.454 E3.24802
G1 X141.525 Y48.615 E3.25552
G1 X141.555 Y49.479 E3.29578
G1 X141.571 Y50.383 E3.33788
G1 X141.573 Y50.895 E3.36172
G1 X141.571 Y51.669 E3.39776
G1 X141.562 Y52.435 E3.43343
G1 X141.533 Y53.918 E3.5025
G1 X141.518 Y54.552 E3.53203
G1 X141.462 Y56.418 E3.61896
G1 X141.396 Y58.316 E3.70739
G1 X141.339 Y59.844 E3.77859
G1 X141.333 Y59.919 E3.78209
G1 X141.264 Y61.625 E3.8616
G1 X141.121 Y64.943 E4.01624
G1 X141.016 Y67.249 E4.12373
G1 X140.931 Y69.989 E4.25137
G1 X140.922 Y72.634 E4.37454
G1 X140.99 Y75.278 E4.49769
G1 X141.132 Y77.933 E4.6215
G1 X141.243 Y79.35 E4.68768
G1 X141.281 Y79.951 E4.71572
G1 X141.291 Y80.157 E4.72533
G1 X141.313 Y80.867 E4.7584
G1 X141.316 Y81.27 E4.77717
G1 X141.289 Y81.861 E4.80472
G1 X141.228 Y82.519 E4.83549
G1 X141.194 Y82.811 E4.84918
G1 X141.065 Y83.514 E4.88246
G1 X140.904 Y84.069 E4.90937
G1 X140.71 Y84.639 E4.9374
G1 X140.529 Y85.116 E4.96116
G1 X140.276 Y85.672 E4.9896
G1 X139.682 Y86.828 E5.05012
G1 X139.633 Y86.937 E5.05569
G1 X139.222 Y87.727 E5.09715
G1 X138.064 Y90.116 E5.22077
G1 X136.978 Y92.529 E5.34399
G1 X135.95 Y94.987 E5.46805
G1 X135.012 Y97.437 E5.59021
G1 X134.127 Y99.955 E5.71449
G1 X133.326 Y102.45 E5.8365
G1 X132.589 Y105.001 E5.96015
G1 X131.917 Y107.593 E6.08483
G1 X131.329 Y110.152 E6.2071
G1 X130.817 Y112.726 E6.3293
G1 X130.369 Y115.361 E6.45376
G1 X130 Y117.97 E6.57645
G1 X129.703 Y120.604 E6.69988
G1 X129.481 Y123.257 E6.82385
G1 X129.335 Y125.877 E6.94603
G1 X129.255 Y129.439 E7.11194
G1 X129.247 Y131.542 E7.20986
G1 X129.238 Y132.698 E7.26369
G1 X129.222 Y133.936 E7.32134
G1 X129.203 Y135.269 E7.38342
G1 X129.145 Y138.281 E7.5237
G1 X129.087 Y140.87 E7.64428
G1 X129.008 Y143.944 E7.78747
G1 X128.858 Y149.23 E8.03371
G1 X128.63 Y156.635 E8.37868
G1 X128.618 Y156.945 E8.39312
G1 X128.593 Y157.818 E8.43379
G1 X128.59 Y157.86 E8.43575
G1 X128.418 Y163.18 E8.6836
G1 X128.27 Y167.61 E8.89
G1 X128.237 Y168.31 E8.92263
G1 X128.163 Y169.022 E8.95596
G1 X128.011 Y169.721 E8.98927
G1 X127.781 Y170.398 E9.02256
G1 X127.478 Y171.046 E9.05587
G1 X127.104 Y171.655 E9.08915
G1 X126.664 Y172.22 E9.12249
G1 X126.164 Y172.731 E9.15578
G1 X125.749 Y173.08 E9.18103
G1 X125.459 Y173.297 E9.1979
G1 X125.041 Y173.595 E9.2218
G1 X124.876 Y173.709 E9.23114
G1 X124.426 Y174.009 E9.25632
G1 X123.81 Y174.372 E9.28962
G1 X123.157 Y174.664 E9.32293
G1 X122.475 Y174.881 E9.35625
G1 X121.774 Y175.021 E9.38954
G1 X120.984 Y175.083 E9.42644
G1 X120.044 Y175.098 E9.47021
G1 X104.635 Y175.097 E10.18772
G1 X102.466 Y175.066 E10.28873
G1 X102.266 Y175.06 E10.29804
G1 X99.055 Y175.072 E10.44756
G1 X97.83 Y175.097 E10.50462
G1 X85.584 Y175.098 E11.07484
G1 X84.793 Y175.087 E11.11168
G1 X84.08 Y175.037 E11.14496
G1 X83.377 Y174.908 E11.17824
G1 X82.692 Y174.701 E11.21156
G1 X82.035 Y174.418 E11.24487
G1 X81.413 Y174.064 E11.2782
G1 X80.835 Y173.643 E11.31149
G1 X80.307 Y173.161 E11.34478
G1 X79.837 Y172.622 E11.37808
G1 X79.429 Y172.034 E11.41141
G1 X79.09 Y171.404 E11.44472
G1 X78.746 Y170.498 E11.48985
G1 X78.671 Y170.24 E11.50236
G1 X78.024 Y167.904 E11.61523
G1 X77.239 Y165.349 E11.73969
G1 X76.395 Y162.857 E11.8622
G1 X75.475 Y160.375 E11.98546
G1 X74.492 Y157.935 E12.10795
G1 X73.418 Y155.475 E12.23293
G1 X72.307 Y153.113 E12.35448
G1 X71.108 Y150.741 E12.47824
G1 X70.685 Y149.957 E12.51972
G1 X70.027 Y148.718 E12.58504
G1 X69.727 Y148.068 E12.61838
G1 X69.502 Y147.39 E12.65164
G1 X69.354 Y146.69 E12.68496
G1 X69.272 Y145.939 E12.72013
G1 X69.258 Y145.752 E12.72887
G1 X69.175 Y144.445 E12.78985
G1 X69.027 Y141.952 E12.90614
G1 X68.884 Y139.43 E13.02376
G1 X68.776 Y137.322 E13.12205
G1 X68.665 Y134.938 E13.23318
G1 X68.583 Y132.913 E13.32755
G1 X68.524 Y131.214 E13.40671
G1 X68.488 Y129.888 E13.46847
G1 X68.455 Y128.429 E13.53643
G1 X68.444 Y127.771 E13.56707
G1 X68.434 Y127.037 E13.60125
G1 X68.428 Y126.191 E13.64065
G1 X68.426 Y125.469 E13.67427
G1 X68.432 Y124.334 E13.72712
G1 X68.443 Y123.481 E13.76684
G1 X68.454 Y122.922 E13.79287
G1 X68.481 Y121.865 E13.84211
G1 X68.516 Y120.866 E13.88865
G1 X68.542 Y120.301 E13.91499
G1 X68.612 Y119.049 E13.97338
G1 X68.643 Y118.591 E13.99476
G1 X68.722 Y117.566 E14.04263
G1 X68.754 Y117.215 E14.05904
G1 X68.864 Y116.101 E14.11116
G1 X68.901 Y115.766 E14.12686
G1 X69.046 Y114.568 E14.18305
G1 X69.195 Y113.523 E14.2322
G1 X69.226 Y113.325 E14.24153
G1 X69.531 Y111.585 E14.32379
G1 X69.659 Y110.93 E14.35486
G1 X69.846 Y110.02 E14.39812
G1 X69.898 Y109.788 E14.40919
G1 X70.223 Y108.464 E14.47268
G1 X70.647 Y106.853 E14.55024
G1 X70.694 Y106.682 E14.5585
G1 X70.98 Y105.71 E14.60568
G1 X71.076 Y105.395 E14.62102
G1 X71.385 Y104.415 E14.66886
G1 X71.541 Y103.94 E14.69214
G1 X71.83 Y103.086 E14.73412
G1 X72.049 Y102.46 E14.76501
G1 X72.324 Y101.695 E14.80286
G1 X72.572 Y101.025 E14.83613
G1 X72.955 Y100.022 E14.88612
G1 X73.26 Y99.244 E14.92503
G1 X73.536 Y98.55 E14.95981
G1 X74.217 Y96.883 E15.04366
G1 X74.657 Y95.839 E15.09641
G1 X74.938 Y95.183 E15.12964
G1 X75.389 Y94.144 E15.18238
G1 X75.889 Y93.009 E15.24013
G1 X76.991 Y90.562 E15.3651
G1 X78.191 Y87.973 E15.49797
G1 X79.015 Y86.222 E15.58808
G1 X80.225 Y83.679 E15.71922
G1 X80.259 Y83.612 E15.72272
G1 X80.759 Y82.567 E15.77666
G1 X82.224 Y79.545 E15.93304
G1 X83.75 Y76.434 E16.09439
G1 X84.577 Y74.806 E16.17942
G1 X85.783 Y72.351 E16.30678
G1 X86.132 Y71.616 E16.34467
G1 X86.678 Y70.516 E16.40185
G1 X87.581 Y68.711 E16.49583
G1 X87.877 Y68.138 E16.52586
G1 X88.24 Y67.522 E16.55915
G1 X88.67 Y66.95 E16.59247
M204 S3000
M205 X10 Y10
G0 F3000 X89.138 Y67.264
M204 S1800
M205 X8 Y8
G1 F2400 X89.471 Y66.908 E16.61517
G1 X90.208 Y66.186 E16.66321
G1 X93.49 Y63.067 E16.87404
G1 X93.757 Y62.817 E16.89107
G1 X94.868 Y61.764 E16.96235
G1 X98.714 Y58.13 E17.20873
G1 X101.513 Y55.506 E17.38738
G1 X102.677 Y54.424 E17.46139
G1 X103.703 Y53.479 E17.52634
G1 X104.386 Y52.855 E17.56941
G1 X105.39 Y51.956 E17.63217
G1 X106.596 Y50.903 E17.70672
G1 X107.075 Y50.497 E17.73596
G1 X107.421 Y50.212 E17.75683
G1 X108.126 Y49.65 E17.79881
G1 X108.523 Y49.346 E17.82209
G1 X109.172 Y48.869 E17.8596
G1 X109.385 Y48.72 E17.8717
G1 X109.931 Y48.355 E17.90228
G1 X110.178 Y48.199 E17.91589
G1 X111.159 Y47.612 E17.96912
G1 X111.333 Y47.512 E17.97847
G1 X112.024 Y47.13 E18.01523
G1 X112.18 Y47.047 E18.02346
G1 X113.153 Y46.548 E18.07438
G1 X113.479 Y46.389 E18.09127
G1 X114.33 Y45.989 E18.13505
G1 X114.748 Y45.796 E18.15649
G1 X115.423 Y45.491 E18.19098
G1 X116.115 Y45.183 E18.22625
G1 X116.702 Y44.927 E18.25607
G1 X118.519 Y44.144 E18.3482
G1 X120.604 Y43.26 E18.45365
G1 X122.618 Y42.42 E18.55526
G1 X126.841 Y40.669 E18.76813
G1 X127.594 Y40.362 E18.806
G1 X129.235 Y39.683 E18.88869
G1 X131.437 Y38.779 E18.99953
G1 X132.05 Y38.536 E19.03024
G1 X132.699 Y38.322 E19.06206
G1 X133.368 Y38.185 E19.09386
G1 X134.049 Y38.127 E19.12568
G1 X134.732 Y38.149 E19.1575
G1 X135.407 Y38.251 E19.18929
G1 X136.066 Y38.431 E19.2211
G1 X136.7 Y38.686 E19.25292
G1 X137.299 Y39.014 E19.28472
G1 X137.856 Y39.41 E19.31654
G1 X138.363 Y39.868 E19.34836
G1 X138.814 Y40.382 E19.3802
G1 X139.2 Y40.945 E19.41198
G1 X139.519 Y41.549 E19.44379
G1 X139.669 Y41.911 E19.46203
G1 X139.897 Y42.518 E19.49223
G1 X140.024 Y42.895 E19.51075
G1 X140.25 Y43.649 E19.5474
G1 X140.429 Y44.35 E19.58109
G1 X140.568 Y45.024 E19.61314
G1 X140.683 Y45.691 E19.64465
G1 X140.781 Y46.401 E19.67803
G1 X140.809 Y46.637 E19.68909
G1 X140.897 Y47.546 E19.73162
G1 X140.913 Y47.753 E19.74129
G1 X140.958 Y48.489 E19.77562
G1 X140.965 Y48.635 E19.78243
G1 X140.995 Y49.489 E19.82222
G1 X141.011 Y50.385 E19.86395
G1 X141.013 Y50.893 E19.8876
G1 X141.011 Y51.662 E19.92341
G1 X141.002 Y52.424 E19.95889
G1 X140.973 Y53.905 E20.02787
G1 X140.958 Y54.535 E20.05721
G1 X140.902 Y56.399 E20.14405
G1 X140.836 Y58.295 E20.23239
G1 X140.779 Y59.823 E20.30359
G1 X140.773 Y59.902 E20.30727
G1 X140.705 Y61.601 E20.38645
G1 X140.562 Y64.917 E20.541
G1 X140.453 Y67.315 E20.65278
G1 X140.371 Y69.97 E20.77646
G1 X140.362 Y72.646 E20.90107
G1 X140.43 Y75.287 E21.02409
G1 X140.573 Y77.97 E21.1492
G1 X140.684 Y79.385 E21.21529
G1 X140.722 Y79.986 E21.24333
G1 X140.731 Y80.174 E21.25209
G1 X140.753 Y80.884 E21.28517
G1 X140.756 Y81.27 E21.30314
G1 X140.731 Y81.809 E21.32827
G1 X140.67 Y82.467 E21.35904
G1 X140.639 Y82.74 E21.37183
G1 X140.513 Y83.412 E21.40367
G1 X140.374 Y83.889 E21.4268
G1 X140.18 Y84.459 E21.45484
G1 X140.009 Y84.908 E21.47721
G1 X139.778 Y85.415 E21.50316
G1 X139.167 Y86.604 E21.5654
G1 X139.136 Y86.678 E21.56914
G1 X138.729 Y87.46 E21.61019
G1 X137.55 Y89.892 E21.73604
G1 X136.465 Y92.303 E21.85915
G1 X135.43 Y94.779 E21.98411
G1 X134.48 Y97.259 E22.10777
G1 X133.607 Y99.742 E22.23033
G1 X132.787 Y102.3 E22.35541
G1 X132.052 Y104.84 E22.47853
G1 X131.379 Y107.438 E22.6035
G1 X130.778 Y110.054 E22.72849
G1 X130.265 Y112.633 E22.85093
G1 X129.812 Y115.298 E22.9768
G1 X129.444 Y117.898 E23.09908
G1 X129.148 Y120.526 E23.22222
G1 X128.923 Y123.217 E23.34796
G1 X128.777 Y125.834 E23.47001
G1 X128.695 Y129.477 E23.63969
G1 X128.687 Y131.538 E23.73566
G1 X128.678 Y132.692 E23.78939
G1 X128.662 Y133.928 E23.84695
G1 X128.643 Y135.258 E23.90889
G1 X128.586 Y138.269 E24.04912
G1 X128.527 Y140.856 E24.16961
G1 X128.449 Y143.928 E24.3127
G1 X128.298 Y149.212 E24.55885
G1 X128.071 Y156.613 E24.90363
G1 X128.059 Y156.923 E24.91808
G1 X128.034 Y157.801 E24.95898
G1 X128.029 Y157.858 E24.96164
G1 X127.859 Y163.161 E25.2087
G1 X127.711 Y167.584 E25.41477
G1 X127.678 Y168.284 E25.4474
G1 X127.605 Y168.963 E25.4792
G1 X127.455 Y169.63 E25.51103
G1 X127.227 Y170.274 E25.54284
G1 X126.926 Y170.887 E25.57464
G1 X126.555 Y171.461 E25.60647
G1 X126.119 Y171.987 E25.63828
G1 X125.407 Y172.636 E25.68314
G1 X125.134 Y172.841 E25.69904
G1 X124.716 Y173.139 E25.72294
G1 X124.565 Y173.243 E25.73148
G1 X124.115 Y173.543 E25.75666
G1 X123.526 Y173.888 E25.78844
G1 X122.9 Y174.162 E25.82026
G1 X122.246 Y174.361 E25.8521
G1 X121.574 Y174.482 E25.88389
G1 X120.974 Y174.523 E25.91189
G1 X120.044 Y174.538 E25.9552
G1 X104.642 Y174.537 E26.67239
G1 X102.482 Y174.507 E26.77297
G1 X102.248 Y174.5 E26.78387
G1 X99.041 Y174.512 E26.93321
G1 X97.698 Y174.538 E26.99575
G1 X85.5 Y174.537 E27.56374
G1 X84.801 Y174.527 E27.5963
G1 X84.12 Y174.478 E27.62809
G1 X83.449 Y174.349 E27.65991
G1 X82.798 Y174.142 E27.69171
G1 X82.175 Y173.861 E27.72354
G1 X81.589 Y173.509 E27.75537
G1 X81.049 Y173.091 E27.78717
G1 X80.561 Y172.613 E27.81897
G1 X80.132 Y172.081 E27.8508
G1 X79.768 Y171.503 E27.8826
G1 X79.475 Y170.886 E27.91441
G1 X79.283 Y170.34 E27.94136
G1 X79.211 Y170.091 E27.95343
G1 X78.559 Y167.735 E28.06726
G1 X77.784 Y165.215 E28.19002
G1 X76.919 Y162.66 E28.31563
G1 X75.999 Y160.179 E28.43884
G1 X75.004 Y157.71 E28.56279
G1 X73.931 Y155.249 E28.6878
G1 X72.803 Y152.852 E28.81116
G1 X71.6 Y150.472 E28.93534
G1 X71.179 Y149.694 E28.97653
G1 X70.521 Y148.455 E29.04185
G1 X70.237 Y147.834 E29.07365
G1 X70.026 Y147.184 E29.10547
G1 X69.864 Y146.255 E29.14938
G1 X69.817 Y145.717 E29.17453
G1 X69.734 Y144.412 E29.23542
G1 X69.586 Y141.92 E29.35166
G1 X69.444 Y139.401 E29.46914
G1 X69.335 Y137.296 E29.56729
G1 X69.225 Y134.915 E29.67828
G1 X69.142 Y132.894 E29.77246
G1 X69.084 Y131.199 E29.85143
G1 X69.047 Y129.876 E29.91306
G1 X69.015 Y128.419 E29.98092
G1 X69.003 Y127.764 E30.01143
G1 X68.994 Y127.033 E30.04547
G1 X68.988 Y126.189 E30.08477
G1 X68.986 Y125.472 E30.11816
G1 X68.992 Y124.341 E30.17082
G1 X69.003 Y123.492 E30.21036
G1 X69.014 Y122.936 E30.23625
G1 X69.041 Y121.885 E30.28521
G1 X69.076 Y120.891 E30.33152
G1 X69.101 Y120.332 E30.35758
G1 X69.17 Y119.087 E30.41564
G1 X69.201 Y118.634 E30.43678
G1 X69.28 Y117.616 E30.48433
G1 X69.311 Y117.27 E30.5005
G1 X69.42 Y116.162 E30.55234
G1 X69.457 Y115.833 E30.56776
G1 X69.6 Y114.647 E30.62339
G1 X69.749 Y113.602 E30.67254
G1 X69.778 Y113.422 E30.68103
G1 X70.081 Y111.692 E30.76281
G1 X70.208 Y111.042 E30.79365
G1 X70.395 Y110.132 E30.83691
G1 X70.442 Y109.921 E30.84697
G1 X70.764 Y108.607 E30.90997
G1 X71.188 Y106.996 E30.98754
G1 X71.232 Y106.839 E30.99513
G1 X71.515 Y105.872 E31.04205
G1 X71.61 Y105.563 E31.0571
G1 X71.918 Y104.589 E31.10467
G1 X72.071 Y104.119 E31.12768
G1 X72.358 Y103.271 E31.16937
G1 X72.576 Y102.65 E31.20001
