;FLAVOR:Marlin
;TIME:72
;Filament used: 0.0802592m
;Layer height: 0.2
;MINX:86.38
;MINY:52.102
;MINZ:0.2
;MAXX:123.627
;MAXY:157.915
;MAXZ:0.6
;Generated with Cura_SteamEngine 4.8.0
M140 S55
M105
M190 S55
M104 S200
M105
M109 S200
M82 ;absolute extrusion mode
; Script based on an original created by tjjfvi (https://github.com/tjjfvi)
; An up-to-date version of the tjjfvi's original script can be found
; here:  https://csi.t6.fyi/
; Note - This script will only work in Cura V4.2 and above!
; --- Global Settings
; layer_height = 0.2
; smooth_spiralized_contours = True
; magic_mesh_surface_mode = normal
; machine_extruder_count = 1
; --- Single Extruder Settings
; speed_z_hop = 10
; retraction_amount = 6
; retraction_hop = 0.075
; retraction_hop_enabled = True
; retraction_enable = True
; retraction_speed = 40
; retraction_retract_speed = 40
; retraction_prime_speed = 40
; speed_travel = 100


G21 ;metric values
G90 ;absolute positioning
M82 ;set extruder to absolute mode
M107 ;start with the fan off
G28 X0 Y0 ;move X/Y to min endstops
G28 Z0 ;move Z to min endstops
G1 Z15.0 F100 ;move the platform down 15mm
G92 E0 ;zero the extruded length
G1 F200 E3 ;extrude 3mm of feed stock
G92 E0 ;zero the extruded length again
G1 F100
G0 Y20 F100
M117 Printing...
G5
G92 E0
G92 E0
G1 F2400 E-6
;LAYER_COUNT:3
;LAYER:0
M106 S255
M204 S3000
M205 X10 Y10
G1 F600 Z0.275
G0 F3000 X88.253 Y54.983 Z0.275
M204 S1800
M205 X8 Y8
;TYPE:SKIRT
G1 F600 Z0.2
G1 F2400 E0
G1 X88.679 Y54.408 E0.03332
G1 X89.166 Y53.885 E0.0666
G1 X89.709 Y53.419 E0.09992
G1 X90.3 Y53.017 E0.1332
G1 X90.933 Y52.683 E0.16653
G1 X91.599 Y52.422 E0.19983
G1 X92.29 Y52.236 E0.23316
G1 X92.997 Y52.129 E0.26645
G1 X93.712 Y52.102 E0.29977
G1 X94.425 Y52.155 E0.33306
G1 X95.128 Y52.286 E0.36636
G1 X95.812 Y52.496 E0.39968
G1 X96.468 Y52.78 E0.43296
G1 X97.089 Y53.136 E0.46629
G1 X97.665 Y53.559 E0.49957
G1 X98.196 Y54.048 E0.53318
G1 X98.353 Y54.213 E0.54379
G1 X98.78 Y54.674 E0.57305
G1 X100.777 Y56.883 E0.71171
G1 X102.502 Y58.771 E0.83079
G1 X104.879 Y61.341 E0.9938
G1 X105.865 Y62.397 E1.06107
G1 X107.244 Y63.862 E1.15476
G1 X108.164 Y64.831 E1.21697
G1 X109.453 Y66.177 E1.30375
G1 X110.451 Y67.209 E1.3706
G1 X111.29 Y68.066 E1.42645
G1 X112.429 Y69.214 E1.50175
G1 X113.155 Y69.931 E1.54926
G1 X113.572 Y70.337 E1.57636
G1 X114.036 Y70.795 E1.60672
G1 X114.193 Y70.956 E1.61719
G1 X114.804 Y71.603 E1.65863
G1 X114.987 Y71.804 E1.67129
G1 X115.355 Y72.258 E1.6985
G1 X115.672 Y72.697 E1.72372
G1 X116.121 Y73.388 E1.76209
G1 X116.437 Y73.928 E1.79122
G1 X116.705 Y74.437 E1.81801
G1 X116.918 Y74.89 E1.84132
G1 X117.125 Y75.361 E1.86527
G1 X117.362 Y75.956 E1.89509
G1 X117.605 Y76.634 E1.92863
G1 X117.686 Y76.877 E1.94056
G1 X117.953 Y77.728 E1.98209
G1 X118.147 Y78.417 E2.01542
G1 X118.193 Y78.593 E2.02389
G1 X118.326 Y79.136 E2.04992
G1 X118.362 Y79.291 E2.05733
G1 X118.572 Y80.256 E2.10332
G1 X118.72 Y81.018 E2.13946
G1 X118.851 Y81.772 E2.1751
G1 X119.014 Y82.823 E2.22462
G1 X119.142 Y83.75 E2.2682
G1 X119.249 Y84.616 E2.30883
G1 X119.346 Y85.463 E2.34853
G1 X119.463 Y86.596 E2.40156
G1 X119.539 Y87.398 E2.43907
G1 X119.605 Y88.148 E2.47413
G1 X119.716 Y89.523 E2.53837
G1 X119.816 Y90.905 E2.60289
G1 X119.884 Y91.908 E2.6497
G1 X119.964 Y93.171 E2.70863
G1 X120.041 Y94.48 E2.76968
G1 X120.188 Y97.215 E2.89722
G1 X120.332 Y100.135 E3.03335
G1 X120.673 Y107.515 E3.37736
G1 X120.78 Y109.75 E3.48155
G1 X120.894 Y112.015 E3.58716
G1 X121.027 Y114.495 E3.7028
G1 X121.164 Y116.905 E3.8152
G1 X121.283 Y118.866 E3.90668
G1 X121.482 Y121.896 E4.04808
G1 X121.677 Y124.605 E4.17454
G1 X121.832 Y126.652 E4.27013
G1 X122.086 Y129.733 E4.41408
G1 X122.273 Y131.837 E4.51244
G1 X122.339 Y132.548 E4.54569
G1 X122.538 Y134.628 E4.64299
G1 X122.813 Y137.321 E4.76904
G1 X122.893 Y138.059 E4.8036
G1 X123.12 Y140.119 E4.90011
G1 X123.212 Y140.927 E4.93797
G1 X123.469 Y143.084 E5.03912
G1 X123.585 Y144.095 E5.08651
G1 X123.627 Y144.81 E5.11986
G1 X123.589 Y145.524 E5.15315
G1 X123.471 Y146.229 E5.18644
G1 X123.275 Y146.917 E5.21975
G1 X123.004 Y147.579 E5.25306
G1 X122.661 Y148.207 E5.28638
G1 X122.249 Y148.792 E5.31969
G1 X121.775 Y149.327 E5.35298
G1 X121.245 Y149.807 E5.38627
G1 X120.664 Y150.224 E5.41957
G1 X120.116 Y150.536 E5.44894
G1 X119.19 Y151.004 E5.49725
G1 X118.628 Y151.278 E5.52636
G1 X116.328 Y152.479 E5.64718
G1 X113.983 Y153.79 E5.77228
G1 X111.706 Y155.149 E5.89575
G1 X108.98 Y156.892 E6.04642
G1 X108.357 Y157.243 E6.07971
G1 X107.699 Y157.522 E6.11299
G1 X107.013 Y157.727 E6.14633
G1 X106.309 Y157.853 E6.17964
G1 X105.643 Y157.899 E6.21072
G1 X104.663 Y157.915 E6.25636
G1 X103.565 Y157.914 E6.30749
G1 X102.872 Y157.904 E6.33976
G1 X102.158 Y157.854 E6.37309
G1 X101.455 Y157.724 E6.40638
G1 X100.77 Y157.517 E6.4397
G1 X100.113 Y157.235 E6.47299
G1 X99.491 Y156.881 E6.50632
G1 X98.913 Y156.46 E6.53961
G1 X98.386 Y155.977 E6.5729
G1 X97.915 Y155.438 E6.60623
G1 X97.508 Y154.85 E6.63953
G1 X97.169 Y154.221 E6.6728
G1 X96.902 Y153.557 E6.70612
G1 X96.711 Y152.868 E6.73942
G1 X96.598 Y152.161 E6.77276
G1 X96.564 Y151.447 E6.80604
G1 X96.611 Y150.733 E6.83936
G1 X96.737 Y150.029 E6.87266
G1 X96.957 Y149.295 E6.90834
G1 X97.884 Y146.775 E7.03337
G1 X98.722 Y144.284 E7.15575
G1 X99.496 Y141.749 E7.27917
G1 X100.201 Y139.183 E7.40308
G1 X100.824 Y136.633 E7.52531
G1 X101.386 Y134.021 E7.64972
G1 X101.863 Y131.437 E7.77208
G1 X102.272 Y128.811 E7.89583
G1 X102.607 Y126.178 E8.01942
G1 X102.866 Y123.553 E8.14224
G1 X103.051 Y120.912 E8.26552
G1 X103.161 Y118.272 E8.38856
G1 X103.197 Y115.62 E8.51206
G1 X103.157 Y112.986 E8.63472
G1 X103.043 Y110.346 E8.75777
G1 X102.852 Y107.677 E8.88236
G1 X102.591 Y105.071 E9.00432
G1 X102.25 Y102.421 E9.12873
G1 X101.838 Y99.803 E9.25213
G1 X101.355 Y97.215 E9.37472
G1 X100.798 Y94.643 E9.49726
G1 X100.169 Y92.077 E9.62028
G1 X99.448 Y89.47 E9.74623
G1 X98.686 Y86.986 E9.86722
G1 X97.833 Y84.462 E9.99128
G1 X96.92 Y81.996 E10.11372
G1 X95.93 Y79.534 E10.23728
G1 X94.866 Y77.094 E10.36123
G1 X93.735 Y74.687 E10.48507
G1 X92.567 Y72.371 E10.60585
G1 X91.292 Y70.013 E10.73067
G1 X89.947 Y67.686 E10.85582
G1 X88.577 Y65.461 E10.97749
G1 X87.81 Y64.275 E11.04326
G1 X87.428 Y63.693 E11.07568
G1 X87.069 Y63.074 E11.109
G1 X86.782 Y62.419 E11.1423
G1 X86.57 Y61.736 E11.1756
G1 X86.435 Y61.034 E11.20888
G1 X86.38 Y60.321 E11.24218
G1 X86.404 Y59.606 E11.27549
G1 X86.508 Y58.898 E11.30882
G1 X86.69 Y58.206 E11.34213
G1 X86.99 Y57.449 E11.38005
G1 X87.386 Y56.61 E11.42325
G1 X87.585 Y56.209 E11.4441
G1 X87.894 Y55.601 E11.47585
G1 X88.253 Y54.983 E11.50913
M204 S3000
M205 X10 Y10
G0 F3000 X88.737 Y55.265
M204 S1800
M205 X8 Y8
G1 F2400 X89.149 Y54.72 E11.54095
G1 X89.621 Y54.226 E11.57276
G1 X90.147 Y53.79 E11.60457
G1 X90.721 Y53.419 E11.6364
G1 X91.334 Y53.118 E11.6682
G1 X91.978 Y52.89 E11.70001
G1 X92.645 Y52.739 E11.73185
G1 X93.324 Y52.667 E11.76365
G1 X94.007 Y52.675 E11.79545
G1 X94.685 Y52.763 E11.82729
G1 X95.348 Y52.929 E11.85911
G1 X95.987 Y53.171 E11.89093
G1 X96.593 Y53.487 E11.92275
G1 X97.158 Y53.871 E11.95456
G1 X97.794 Y54.438 E11.99424
G1 X97.943 Y54.594 E12.00428
G1 X98.365 Y55.049 E12.03318
G1 X100.384 Y57.284 E12.17343
G1 X102.064 Y59.122 E12.28938
G1 X104.47 Y61.723 E12.45436
G1 X105.457 Y62.781 E12.52174
G1 X106.838 Y64.248 E12.61555
G1 X107.76 Y65.219 E12.6779
G1 X109.028 Y66.543 E12.76326
G1 X110.074 Y67.624 E12.83331
G1 X110.892 Y68.46 E12.88777
G1 X111.713 Y69.288 E12.94207
G1 X112.058 Y69.633 E12.96478
G1 X112.736 Y70.304 E13.0092
G1 X113.179 Y70.736 E13.03801
G1 X113.643 Y71.194 E13.06837
G1 X113.786 Y71.34 E13.07789
G1 X114.397 Y71.987 E13.11933
G1 X114.569 Y72.177 E13.13126
G1 X114.905 Y72.59 E13.15605
G1 X115.207 Y73.009 E13.1801
G1 X115.637 Y73.67 E13.21682
G1 X115.953 Y74.21 E13.24595
G1 X116.198 Y74.675 E13.27043
G1 X116.411 Y75.128 E13.29374
G1 X116.672 Y75.728 E13.3242
G1 X116.835 Y76.145 E13.34505
G1 X117.078 Y76.823 E13.37859
G1 X117.152 Y77.045 E13.38949
G1 X117.419 Y77.896 E13.43102
G1 X117.607 Y78.565 E13.46337
G1 X117.649 Y78.727 E13.47117
G1 X117.815 Y79.41 E13.5039
G1 X117.996 Y80.237 E13.54332
G1 X118.145 Y80.992 E13.57915
G1 X118.168 Y81.114 E13.58493
G1 X118.316 Y81.973 E13.62552
G1 X118.459 Y82.901 E13.66924
G1 X118.586 Y83.819 E13.71239
G1 X118.693 Y84.679 E13.75275
G1 X118.789 Y85.52 E13.79216
G1 X118.906 Y86.65 E13.84506
G1 X118.982 Y87.447 E13.88234
G1 X119.047 Y88.193 E13.91721
G1 X119.158 Y89.563 E13.98121
G1 X119.258 Y90.943 E14.04564
G1 X119.325 Y91.943 E14.09231
G1 X119.405 Y93.203 E14.1511
G1 X119.482 Y94.51 E14.21206
G1 X119.629 Y97.242 E14.33946
G1 X119.773 Y100.161 E14.47554
G1 X120.113 Y107.542 E14.8196
G1 X120.221 Y109.778 E14.92384
G1 X120.335 Y112.045 E15.02953
G1 X120.468 Y114.549 E15.14629
G1 X120.604 Y116.918 E15.25679
G1 X120.725 Y118.903 E15.34939
G1 X120.924 Y121.936 E15.49092
G1 X121.116 Y124.618 E15.61613
G1 X121.275 Y126.697 E15.71321
G1 X121.528 Y129.783 E15.85739
G1 X121.715 Y131.889 E15.95584
G1 X121.781 Y132.602 E15.98919
G1 X121.979 Y134.661 E16.0855
G1 X122.043 Y135.304 E16.11559
G1 X122.257 Y137.38 E16.21277
G1 X122.334 Y138.1 E16.24649
G1 X122.565 Y140.203 E16.345
G1 X122.656 Y140.994 E16.38208
G1 X122.913 Y143.148 E16.48309
G1 X123.029 Y144.159 E16.53047
G1 X123.067 Y144.841 E16.56228
G1 X123.025 Y145.523 E16.5941
G1 X122.904 Y146.196 E16.62594
G1 X122.705 Y146.849 E16.65772
G1 X122.431 Y147.475 E16.68954
G1 X122.086 Y148.065 E16.72137
G1 X121.674 Y148.61 E16.75318
G1 X121.202 Y149.104 E16.785
G1 X120.675 Y149.539 E16.81682
G1 X119.864 Y150.036 E16.86111
G1 X118.945 Y150.5 E16.90904
G1 X118.402 Y150.764 E16.93716
G1 X116.031 Y152.003 E17.06173
G1 X113.716 Y153.298 E17.18524
G1 X111.42 Y154.667 E17.30972
G1 X108.679 Y156.42 E17.46122
G1 X108.083 Y156.754 E17.49303
G1 X107.451 Y157.016 E17.52489
G1 X106.794 Y157.202 E17.55668
G1 X106.12 Y157.31 E17.58847
G1 X105.634 Y157.339 E17.61114
G1 X104.663 Y157.355 E17.65636
G1 X103.573 Y157.354 E17.70711
G1 X102.88 Y157.344 E17.73939
G1 X102.198 Y157.295 E17.77122
G1 X101.527 Y157.166 E17.80304
G1 X100.876 Y156.959 E17.83485
G1 X100.253 Y156.678 E17.86667
G1 X99.668 Y156.326 E17.89847
G1 X99.127 Y155.908 E17.9303
G1 X98.639 Y155.43 E17.96211
G1 X98.211 Y154.898 E17.9939
G1 X97.847 Y154.319 E18.02575
G1 X97.553 Y153.703 E18.05753
G1 X97.334 Y153.056 E18.08934
G1 X97.191 Y152.387 E18.12119
G1 X97.127 Y151.707 E18.153
G1 X97.144 Y151.024 E18.18481
G1 X97.24 Y150.348 E18.2166
G1 X97.483 Y149.489 E18.25817
G1 X98.409 Y146.971 E18.3831
G1 X99.258 Y144.45 E18.50696
G1 X100.029 Y141.926 E18.62985
G1 X100.744 Y139.32 E18.75568
G1 X101.374 Y136.74 E18.87935
G1 X101.934 Y134.137 E19.00333
G1 X102.417 Y131.521 E19.1272
G1 X102.827 Y128.894 E19.251
G1 X103.161 Y126.269 E19.37422
G1 X103.422 Y123.613 E19.49849
G1 X103.61 Y120.939 E19.62331
G1 X103.721 Y118.266 E19.74788
G1 X103.757 Y115.62 E19.8711
G1 X103.718 Y112.989 E19.99363
G1 X103.601 Y110.282 E20.11979
G1 X103.412 Y107.651 E20.24262
G1 X103.145 Y104.982 E20.36752
G1 X102.809 Y102.367 E20.49029
G1 X102.391 Y99.717 E20.61521
G1 X101.904 Y97.105 E20.73893
G1 X101.336 Y94.483 E20.86385
G1 X100.706 Y91.918 E20.98684
G1 X99.994 Y89.341 E21.11133
G1 X99.22 Y86.82 E21.23413
G1 X98.357 Y84.266 E21.35966
G1 X97.434 Y81.77 E21.48357
G1 X96.444 Y79.309 E21.60709
G1 X95.386 Y76.883 E21.73033
G1 X94.255 Y74.476 E21.85417
G1 X93.036 Y72.06 E21.98018
G1 X91.784 Y69.743 E22.10281
G1 X90.447 Y67.431 E22.22717
G1 X89.043 Y65.152 E22.35181
G1 X88.28 Y63.971 E22.41728
G1 X87.896 Y63.386 E22.44987
G1 X87.555 Y62.794 E22.48168
G1 X87.286 Y62.166 E22.51349
G1 X87.091 Y61.511 E22.54531
G1 X86.975 Y60.838 E22.57711
G1 X86.938 Y60.155 E22.60896
G1 X86.981 Y59.473 E22.64078
G1 X87.103 Y58.801 E22.67259
G1 X87.303 Y58.148 E22.70439
G1 X87.497 Y57.688 E22.72763
G1 X87.946 Y56.739 E22.77652
G1 X88.084 Y56.463 E22.79089
G1 X88.393 Y55.855 E22.82265
G1 X88.737 Y55.265 E22.85445
M204 S3000
M205 X10 Y10
G0 F3000 X89.221 Y55.549
M204 S1800
M205 X8 Y8
G1 F2400 X89.617 Y55.034 E22.8847
G1 X90.073 Y54.571 E22.91496
G1 X90.582 Y54.168 E22.94519
G1 X91.137 Y53.83 E22.97545
G1 X91.729 Y53.563 E23.00569
G1 X92.35 Y53.371 E23.03595
G1 X92.989 Y53.256 E23.06619
G1 X93.638 Y53.221 E23.09645
G1 X94.286 Y53.266 E23.1267
G1 X94.924 Y53.39 E23.15696
G1 X95.541 Y53.591 E23.18718
G1 X96.13 Y53.867 E23.21746
G1 X96.68 Y54.213 E23.24772
G1 X97.391 Y54.827 E23.29146
G1 X97.532 Y54.974 E23.30095
G1 X97.949 Y55.425 E23.32955
G1 X99.95 Y57.639 E23.46851
G1 X101.653 Y59.502 E23.58604
G1 X104.075 Y62.122 E23.75218
G1 X105.049 Y63.165 E23.81863
G1 X106.432 Y64.634 E23.91258
G1 X107.355 Y65.606 E23.97499
G1 X108.625 Y66.932 E24.06049
G1 X109.651 Y67.992 E24.12918
G1 X110.494 Y68.854 E24.18532
G1 X111.317 Y69.684 E24.23975
G1 X111.662 Y70.029 E24.26247
G1 X112.375 Y70.735 E24.30919
G1 X112.785 Y71.134 E24.33583
G1 X113.249 Y71.592 E24.36619
G1 X113.379 Y71.725 E24.37485
G1 X113.99 Y72.372 E24.41629
G1 X114.454 Y72.923 E24.44983
G1 X114.981 Y73.677 E24.49267
G1 X115.154 Y73.953 E24.50783
G1 X115.47 Y74.493 E24.53697
G1 X115.691 Y74.913 E24.55907
G1 X115.904 Y75.366 E24.58237
G1 X116.152 Y75.937 E24.61136
G1 X116.307 Y76.334 E24.63121
G1 X116.55 Y77.012 E24.66474
G1 X116.618 Y77.212 E24.67458
G1 X116.885 Y78.063 E24.71611
G1 X117.067 Y78.714 E24.74759
G1 X117.105 Y78.86 E24.75461
G1 X117.268 Y79.53 E24.78672
G1 X117.473 Y80.471 E24.83156
G1 X117.596 Y81.099 E24.86136
G1 X117.763 Y82.059 E24.90674
G1 X117.905 Y82.978 E24.95004
G1 X118.031 Y83.888 E24.99281
G1 X118.137 Y84.743 E25.03293
G1 X118.232 Y85.578 E25.07206
G1 X118.348 Y86.703 E25.12472
G1 X118.424 Y87.496 E25.16182
G1 X118.489 Y88.238 E25.1965
G1 X118.599 Y89.604 E25.26032
G1 X118.699 Y90.98 E25.32456
G1 X118.766 Y91.979 E25.37118
G1 X118.846 Y93.236 E25.42983
G1 X118.922 Y94.54 E25.49065
G1 X119.07 Y97.27 E25.61796
G1 X119.213 Y100.187 E25.75395
G1 X119.554 Y107.569 E26.09805
G1 X119.661 Y109.807 E26.20238
G1 X119.775 Y112.075 E26.30812
G1 X119.908 Y114.559 E26.42395
G1 X120.045 Y116.952 E26.53556
G1 X120.166 Y118.939 E26.62826
G1 X120.366 Y121.976 E26.76998
G1 X120.558 Y124.66 E26.89528
G1 X120.717 Y126.743 E26.99255
G1 X120.97 Y129.832 E27.13687
G1 X121.157 Y131.941 E27.23546
G1 X121.224 Y132.656 E27.2689
G1 X121.422 Y134.716 E27.36526
G1 X121.488 Y135.377 E27.3962
G1 X121.7 Y137.44 E27.49276
G1 X121.777 Y138.161 E27.52653
G1 X122.007 Y140.246 E27.6242
G1 X122.1 Y141.06 E27.66235
G1 X122.357 Y143.212 E27.76327
G1 X122.473 Y144.223 E27.81066
G1 X122.507 Y144.872 E27.84092
G1 X122.461 Y145.52 E27.87117
G1 X122.336 Y146.157 E27.90139
G1 X122.134 Y146.775 E27.93167
G1 X121.857 Y147.362 E27.96189
G1 X121.511 Y147.912 E27.99215
G1 X121.099 Y148.415 E28.02243
G1 X120.629 Y148.863 E28.05266
G1 X120.107 Y149.25 E28.08292
G1 X119.611 Y149.536 E28.10958
G1 X118.699 Y149.997 E28.15716
G1 X118.148 Y150.266 E28.18571
G1 X115.764 Y151.511 E28.31095
G1 X113.433 Y152.814 E28.4353
G1 X111.143 Y154.181 E28.55948
G1 X108.377 Y155.949 E28.71234
G1 X107.809 Y156.264 E28.74258
G1 X107.207 Y156.508 E28.77283
G1 X106.579 Y156.675 E28.80309
G1 X105.624 Y156.779 E28.84782
G1 X104.663 Y156.795 E28.89258
G1 X103.581 Y156.794 E28.94296
G1 X102.888 Y156.784 E28.97523
G1 X102.24 Y156.735 E29.00549
G1 X101.603 Y156.607 E29.03575
G1 X100.987 Y156.401 E29.06599
G1 X100.401 Y156.121 E29.09623
G1 X99.853 Y155.771 E29.12651
G1 X99.353 Y155.357 E29.15674
G1 X98.907 Y154.885 E29.18697
G1 X98.523 Y154.361 E29.21722
G1 X98.206 Y153.794 E29.24747
G1 X97.961 Y153.192 E29.27774
G1 X97.792 Y152.565 E29.30797
G1 X97.7 Y151.922 E29.33822
G1 X97.689 Y151.272 E29.36849
