;FLAVOR:Marlin
;TIME:848
;Filament used: 0.69962m
;Layer height: 0.2
;MINX:26.728
;MINY:24.91
;MINZ:0.2
;MAXX:193.445
;MAXY:188.43
;MAXZ:0.675
;Generated with Cura_SteamEngine 4.8.0
M140 S55
M105
M190 S55
M104 S200
M105
M109 S200
M82 ;absolute extrusion mode
; Script based on an original created by tjjfvi (https://github.com/tjjfvi)
; An up-to-date version of the tjjfvi's original script can be found
; here:  https://csi.t6.fyi/
; Note - This script will only work in Cura V4.2 and above!
; --- Global Settings
; layer_height = 0.2
; smooth_spiralized_contours = True
; magic_mesh_surface_mode = normal
; machine_extruder_count = 1
; --- Single Extruder Settings
; speed_z_hop = 10
; retraction_amount = 6
; retraction_hop = 0.075
; retraction_hop_enabled = True
; retraction_enable = True
; retraction_speed = 40
; retraction_retract_speed = 40
; retraction_prime_speed = 40
; speed_travel = 100


G21 ;metric values
G90 ;absolute positioning
M82 ;set extruder to absolute mode
M107 ;start with the fan off
G28 X0 Y0 ;move X/Y to min endstops
G28 Z0 ;move Z to min endstops
G1 Z15.0 F100 ;move the platform down 15mm
G92 E0 ;zero the extruded length
G1 F200 E3 ;extrude 3mm of feed stock
G92 E0 ;zero the extruded length again
G1 F100
G0 Y20 F100
M117 Printing...
G5
G92 E0
G92 E0
G1 F2400 E-6
;LAYER_COUNT:3
;LAYER:0
M106 S255
M204 S3000
M205 X10 Y10
G1 F600 Z0.275
G0 F3000 X84.202 Y87.471 Z0.275
M204 S1800
M205 X8 Y8
;TYPE:SKIRT
G1 F600 Z0.2
G1 F2400 E0
G1 X84.732 Y86.991 E0.0333
G1 X85.143 Y86.685 E0.05716
G1 X85.805 Y86.233 E0.09448
G1 X86.955 Y85.471 E0.15872
G1 X88.018 Y84.777 E0.21783
G1 X88.816 Y84.265 E0.26198
G1 X89.313 Y83.956 E0.28923
G1 X89.983 Y83.555 E0.32559
G1 X90.791 Y83.093 E0.36893
G1 X91.532 Y82.692 E0.40816
G1 X92.427 Y82.226 E0.45515
G1 X93.134 Y81.878 E0.49184
G1 X93.793 Y81.6 E0.52514
G1 X94.381 Y81.421 E0.55376
G1 X94.763 Y81.328 E0.57207
G1 X97.035 Y80.828 E0.6804
G1 X99.602 Y80.186 E0.80361
G1 X102.193 Y79.46 E0.9289
G1 X104.666 Y78.691 E1.0495
G1 X107.197 Y77.824 E1.17407
G1 X109.696 Y76.889 E1.29831
G1 X112.119 Y75.905 E1.42009
G1 X114.564 Y74.827 E1.54451
G1 X116.938 Y73.701 E1.66686
G1 X119.306 Y72.495 E1.7906
G1 X121.624 Y71.23 E1.91356
G1 X123.89 Y69.91 E2.03567
G1 X126.182 Y68.485 E2.16135
G1 X128.371 Y67.037 E2.28356
G1 X130.544 Y65.509 E2.40725
G1 X132.649 Y63.939 E2.52953
G1 X134.733 Y62.29 E2.65327
G1 X136.743 Y60.605 E2.7754
G1 X139.529 Y58.106 E2.94967
G1 X148.049 Y50.167 E3.49194
G1 X151.857 Y46.626 E3.73407
G1 X156.717 Y42.12 E4.04267
G1 X160.321 Y38.79 E4.27116
G1 X165.963 Y33.588 E4.6285
G1 X173.088 Y27.029 E5.07944
G1 X173.642 Y26.533 E5.11407
G1 X174.201 Y26.086 E5.1474
G1 X174.806 Y25.705 E5.18069
G1 X175.45 Y25.393 E5.21401
G1 X176.124 Y25.155 E5.24729
G1 X176.821 Y24.994 E5.2806
G1 X177.532 Y24.912 E5.31393
G1 X178.247 Y24.91 E5.34722
G1 X178.958 Y24.987 E5.38052
G1 X179.656 Y25.143 E5.41383
G1 X180.332 Y25.377 E5.44714
G1 X180.978 Y25.684 E5.48044
G1 X181.586 Y26.061 E5.51375
G1 X182.366 Y26.706 E5.56088
G1 X182.888 Y27.212 E5.59474
G1 X185.031 Y29.355 E5.73586
G1 X185.863 Y30.211 E5.79144
G1 X187.726 Y32.074 E5.91412
G1 X187.959 Y32.297 E5.92914
G1 X188.669 Y32.993 E5.97544
G1 X191.164 Y35.488 E6.13974
G1 X191.622 Y35.959 E6.17033
G1 X192.092 Y36.499 E6.20366
G1 X192.498 Y37.088 E6.23697
G1 X192.835 Y37.718 E6.27024
G1 X193.049 Y38.234 E6.29625
G1 X193.061 Y38.267 E6.29789
G1 X193.267 Y38.952 E6.3312
G1 X193.396 Y39.655 E6.36448
G1 X193.445 Y40.369 E6.3978
G1 X193.438 Y40.764 E6.4162
G1 X193.406 Y41.414 E6.4465
G1 X193.304 Y43.025 E6.52167
G1 X193.281 Y43.602 E6.54855
G1 X193.244 Y44.254 E6.57896
G1 X193.163 Y44.964 E6.61224
G1 X193.004 Y45.662 E6.64557
G1 X192.768 Y46.337 E6.67887
G1 X192.458 Y46.982 E6.71219
G1 X192.001 Y47.694 E6.75159
G1 X191.55 Y48.279 E6.78598
G1 X191.152 Y48.75 E6.8147
G1 X191.049 Y48.869 E6.82202
G1 X190.696 Y49.263 E6.84666
G1 X190.482 Y49.49 E6.86118
G1 X189.824 Y50.156 E6.90478
G1 X189.7 Y50.278 E6.91288
G1 X189.067 Y50.884 E6.95368
G1 X188.428 Y51.482 E6.99444
G1 X187.14 Y52.668 E7.07596
G1 X185.744 Y53.939 E7.16387
G1 X185.227 Y54.396 E7.196
G1 X184.954 Y54.624 E7.21257
G1 X184.172 Y55.241 E7.25895
G1 X182.029 Y56.981 E7.38749
G1 X180.047 Y58.685 E7.5092
G1 X178.073 Y60.482 E7.6335
G1 X176.173 Y62.313 E7.75636
G1 X174.337 Y64.186 E7.87849
G1 X172.499 Y66.167 E8.00432
G1 X170.794 Y68.115 E8.12487
G1 X169.01 Y70.298 E8.25614
G1 X168.869 Y70.452 E8.26587
G1 X167.951 Y71.595 E8.33413
G1 X166.261 Y73.762 E8.46209
G1 X164.71 Y75.87 E8.58395
G1 X163.184 Y78.074 E8.70878
G1 X161.753 Y80.269 E8.83079
G1 X160.371 Y82.529 E8.95414
G1 X159.05 Y84.83 E9.07769
G1 X157.789 Y87.18 E9.20187
G1 X156.614 Y89.526 E9.32405
G1 X155.475 Y91.971 E9.44964
G1 X155.197 Y92.579 E9.48077
G1 X154.86 Y93.21 E9.51408
G1 X154.455 Y93.799 E9.54737
G1 X153.986 Y94.34 E9.58071
G1 X153.46 Y94.825 E9.61402
G1 X152.883 Y95.248 E9.64734
G1 X152.228 Y95.621 E9.68244
G1 X151.438 Y96.011 E9.72346
G1 X150.533 Y96.441 E9.77012
G1 X148.136 Y97.665 E9.89544
G1 X145.863 Y98.906 E10.01603
G1 X143.568 Y100.246 E10.13977
G1 X141.306 Y101.654 E10.26384
G1 X139.079 Y103.129 E10.38822
G1 X136.932 Y104.64 E10.51047
G1 X134.832 Y106.209 E10.63253
G1 X132.752 Y107.856 E10.75608
G1 X130.141 Y110.065 E10.91533
G1 X129.547 Y110.585 E10.95209
G1 X128.983 Y111.025 E10.9854
G1 X128.378 Y111.398 E11.01849
G1 X127.773 Y111.714 E11.05028
G1 X126.342 Y112.422 E11.12462
G1 X125.806 Y112.684 E11.1524
G1 X125.085 Y113.027 E11.18958
G1 X124.297 Y113.394 E11.23005
G1 X123.456 Y113.772 E11.27299
G1 X120.956 Y114.919 E11.40107
G1 X118.602 Y116.081 E11.52331
G1 X116.238 Y117.332 E11.64785
G1 X113.943 Y118.631 E11.77064
G1 X111.693 Y119.99 E11.89304
G1 X109.46 Y121.426 E12.01666
G1 X107.255 Y122.935 E12.14108
G1 X105.135 Y124.474 E12.26306
G1 X103.026 Y126.1 E12.38706
G1 X101.004 Y127.752 E12.50864
G1 X98.964 Y129.516 E12.63422
G1 X97.031 Y131.285 E12.75624
G1 X95.108 Y133.148 E12.88091
G1 X94.161 Y134.105 E12.9436
G1 X74.754 Y154.01 E14.23808
G1 X66.626 Y162.29 E14.77836
G1 X66.198 Y162.724 E14.80674
G1 X58.165 Y170.812 E15.33754
G1 X57.755 Y171.221 E15.36451
G1 X54.024 Y174.901 E15.60852
G1 X53.235 Y175.666 E15.6597
G1 X49.774 Y178.96 E15.88218
G1 X48.623 Y180.025 E15.9552
G1 X47.505 Y181.025 E16.02504
G1 X46.012 Y182.311 E16.1168
G1 X45.148 Y183.029 E16.16911
G1 X43.641 Y184.229 E16.25881
G1 X43.443 Y184.38 E16.2704
G1 X42.38 Y185.161 E16.33183
G1 X42.19 Y185.295 E16.34265
G1 X40.908 Y186.167 E16.41485
G1 X40.708 Y186.298 E16.42598
G1 X39.355 Y187.146 E16.50033
G1 X39.174 Y187.255 E16.51017
G1 X38.641 Y187.565 E16.53888
G1 X38.003 Y187.89 E16.57222
G1 X37.334 Y188.141 E16.60549
G1 X36.64 Y188.316 E16.63882
G1 X35.931 Y188.413 E16.67214
G1 X35.216 Y188.43 E16.70545
G1 X34.504 Y188.367 E16.73873
G1 X33.803 Y188.225 E16.77203
G1 X33.122 Y188.005 E16.80536
G1 X32.47 Y187.711 E16.83866
G1 X31.855 Y187.346 E16.87196
G1 X31.284 Y186.915 E16.90527
G1 X30.765 Y186.422 E16.93861
G1 X30.338 Y185.924 E16.96915
G1 X30.148 Y185.679 E16.98359
G1 X29.747 Y185.135 E17.01506
G1 X29.404 Y184.628 E17.04356
G1 X28.87 Y183.767 E17.09074
G1 X28.634 Y183.356 E17.11281
G1 X28.378 Y182.837 E17.13975
G1 X28.123 Y182.249 E17.1696
G1 X28.001 Y181.948 E17.18472
G1 X27.814 Y181.421 E17.21076
G1 X27.65 Y180.881 E17.23704
G1 X27.548 Y180.498 E17.25549
G1 X27.405 Y179.914 E17.28349
G1 X27.259 Y179.176 E17.31852
G1 X27.094 Y178.035 E17.3722
G1 X27.063 Y177.789 E17.38375
G1 X26.978 Y176.981 E17.42158
G1 X26.92 Y176.289 E17.45391
G1 X26.875 Y175.614 E17.48542
G1 X26.838 Y174.87 E17.5201
G1 X26.803 Y173.971 E17.56199
G1 X26.788 Y173.492 E17.58431
G1 X26.765 Y172.574 E17.62707
G1 X26.747 Y171.566 E17.67401
G1 X26.732 Y170.114 E17.74163
G1 X26.728 Y169.457 E17.77222
G1 X26.734 Y168.722 E17.80645
G1 X26.78 Y168.008 E17.83976
G1 X26.905 Y167.304 E17.87306
G1 X27.108 Y166.618 E17.90637
G1 X27.386 Y165.959 E17.93967
G1 X27.736 Y165.335 E17.97299
G1 X28.154 Y164.754 E18.00632
G1 X28.685 Y164.174 E18.04293
G1 X29.332 Y163.549 E18.08482
G1 X36.926 Y156.42 E18.56983
G1 X41.941 Y151.72 E18.88987
G1 X45.98 Y147.943 E19.14737
G1 X49.639 Y144.531 E19.38033
G1 X51.889 Y142.442 E19.52329
G1 X54.294 Y140.216 E19.67588
G1 X56.267 Y138.345 E19.80249
G1 X58.133 Y136.473 E19.92557
G1 X59.957 Y134.536 E20.04946
G1 X61.704 Y132.572 E20.17186
G1 X63.41 Y130.542 E20.29533
G1 X65.058 Y128.464 E20.41883
G1 X66.629 Y126.363 E20.54098
G1 X68.171 Y124.176 E20.66559
G1 X69.641 Y121.959 E20.78945
G1 X71.014 Y119.756 E20.91032
G1 X72.373 Y117.433 E21.03564
G1 X73.64 Y115.118 E21.15853
G1 X74.841 Y112.768 E21.28142
G1 X75.982 Y110.369 E21.40511
G1 X77.052 Y107.948 E21.52837
G1 X78.064 Y105.471 E21.65296
G1 X78.973 Y103.047 E21.77351
G1 X79.841 Y100.519 E21.89797
G1 X80.634 Y97.982 E22.02174
G1 X81.345 Y95.457 E22.14388
G1 X81.99 Y92.89 E22.26713
G1 X82.509 Y90.57 E22.37783
G1 X82.704 Y89.882 E22.41113
G1 X82.975 Y89.22 E22.44443
G1 X83.318 Y88.592 E22.47775
G1 X83.728 Y88.007 E22.51102
G1 X84.202 Y87.471 E22.54434
M204 S3000
M205 X10 Y10
G0 F3000 X84.709 Y87.757
M204 S1800
M205 X8 Y8
G1 F2400 X85.459 Y87.147 E22.58935
G1 X86.115 Y86.699 E22.62634
G1 X87.261 Y85.94 E22.69035
G1 X88.321 Y85.248 E22.74929
G1 X89.112 Y84.74 E22.79307
G1 X89.601 Y84.436 E22.81988
G1 X90.262 Y84.04 E22.85576
G1 X90.936 Y83.653 E22.89195
G1 X91.712 Y83.23 E22.9331
G1 X92.391 Y82.875 E22.96878
G1 X92.79 Y82.67 E22.98967
G1 X93.38 Y82.381 E23.02026
G1 X94.01 Y82.117 E23.05206
G1 X94.519 Y81.964 E23.07681
G1 X94.884 Y81.874 E23.09432
G1 X97.181 Y81.369 E23.20383
G1 X99.778 Y80.719 E23.32849
G1 X102.3 Y80.012 E23.45045
G1 X104.868 Y79.214 E23.57567
G1 X107.409 Y78.344 E23.70073
G1 X109.883 Y77.418 E23.82373
G1 X112.347 Y76.416 E23.94759
G1 X114.78 Y75.345 E24.07137
G1 X117.196 Y74.199 E24.19589
G1 X119.536 Y73.007 E24.31817
G1 X121.923 Y71.704 E24.4448
G1 X124.19 Y70.383 E24.56698
G1 X126.468 Y68.967 E24.69187
G1 X128.683 Y67.501 E24.81555
G1 X130.882 Y65.956 E24.9407
G1 X132.973 Y64.397 E25.06215
G1 X135.099 Y62.714 E25.18841
G1 X137.113 Y61.026 E25.31077
G1 X139.887 Y58.537 E25.48431
G1 X148.43 Y50.577 E26.02803
G1 X152.238 Y47.037 E26.27013
G1 X157.097 Y42.531 E26.57869
G1 X160.7 Y39.201 E26.80715
G1 X166.342 Y34 E27.16446
G1 X173.462 Y27.446 E27.61507
G1 X174.016 Y26.95 E27.6497
G1 X174.55 Y26.525 E27.68147
G1 X175.131 Y26.165 E27.7133
G1 X175.75 Y25.876 E27.74511
G1 X176.398 Y25.66 E27.77692
G1 X177.068 Y25.522 E27.80877
G1 X177.748 Y25.463 E27.84055
G1 X178.431 Y25.484 E27.87237
G1 X179.107 Y25.585 E27.9042
G1 X179.766 Y25.764 E27.93599
G1 X180.4 Y26.018 E27.9678
G1 X181 Y26.345 E27.99962
G1 X181.558 Y26.74 E28.03145
G1 X181.976 Y27.108 E28.05738
G1 X182.563 Y27.677 E28.09545
G1 X184.63 Y29.746 E28.23163
G1 X185.404 Y30.542 E28.28333
G1 X187.381 Y32.519 E28.41352
G1 X187.567 Y32.697 E28.42551
G1 X188.319 Y33.433 E28.4745
G1 X190.763 Y35.879 E28.63551
G1 X191.221 Y36.35 E28.6661
G1 X191.668 Y36.867 E28.69792
G1 X192.051 Y37.432 E28.72971
G1 X192.366 Y38.038 E28.76151
G1 X192.534 Y38.458 E28.78257
G1 X192.73 Y39.113 E28.81441
G1 X192.848 Y39.786 E28.84623
G1 X192.879 Y40.737 E28.89053
G1 X192.847 Y41.379 E28.92046
G1 X192.744 Y43.009 E28.99651
G1 X192.722 Y43.57 E29.02266
G1 X192.685 Y44.222 E29.05307
G1 X192.606 Y44.901 E29.0849
G1 X192.449 Y45.565 E29.11667
G1 X192.215 Y46.207 E29.14849
G1 X191.908 Y46.818 E29.18033
G1 X191.551 Y47.361 E29.21058
G1 X191.112 Y47.93 E29.24405
G1 X190.726 Y48.387 E29.2719
G1 X190.632 Y48.495 E29.27857
G1 X190.279 Y48.889 E29.3032
G1 X190.083 Y49.096 E29.31648
G1 X189.425 Y49.762 E29.36007
G1 X189.312 Y49.874 E29.36748
G1 X188.684 Y50.475 E29.40796
G1 X188.049 Y51.07 E29.44848
G1 X186.763 Y52.254 E29.52987
G1 X185.373 Y53.52 E29.61742
G1 X184.856 Y53.977 E29.64955
G1 X184.607 Y54.185 E29.66466
G1 X183.757 Y54.856 E29.71508
G1 X181.669 Y56.551 E29.84031
G1 X179.684 Y58.259 E29.96225
G1 X177.686 Y60.078 E30.08806
G1 X175.798 Y61.897 E30.21014
G1 X173.905 Y63.828 E30.33606
G1 X172.112 Y65.76 E30.45879
G1 X170.365 Y67.757 E30.58234
G1 X168.577 Y69.944 E30.71388
G1 X168.444 Y70.089 E30.72304
G1 X167.457 Y71.317 E30.7964
G1 X165.829 Y73.404 E30.91965
G1 X164.254 Y75.545 E31.04341
G1 X162.72 Y77.76 E31.16887
G1 X161.277 Y79.974 E31.29193
G1 X159.884 Y82.252 E31.41626
G1 X158.557 Y84.564 E31.54039
G1 X157.296 Y86.915 E31.66462
G1 X156.106 Y89.289 E31.78827
G1 X154.978 Y91.711 E31.91268
G1 X154.689 Y92.343 E31.94504
G1 X154.365 Y92.945 E31.97687
G1 X153.974 Y93.505 E32.00868
G1 X153.52 Y94.015 E32.04047
G1 X153.009 Y94.469 E32.0723
G1 X152.449 Y94.86 E32.1041
G1 X151.98 Y95.119 E32.12905
G1 X151.197 Y95.505 E32.1697
G1 X150.303 Y95.93 E32.21579
G1 X147.892 Y97.161 E32.34185
G1 X145.564 Y98.432 E32.46535
G1 X143.268 Y99.773 E32.58916
G1 X141.02 Y101.172 E32.71245
G1 X138.766 Y102.664 E32.83832
G1 X136.617 Y104.177 E32.9607
G1 X134.468 Y105.782 E33.08559
G1 X132.389 Y107.429 E33.2091
G1 X129.774 Y109.641 E33.36858
G1 X129.178 Y110.163 E33.40547
G1 X128.638 Y110.583 E33.43733
G1 X128.111 Y110.906 E33.46611
G1 X127.52 Y111.215 E33.49717
G1 X126.097 Y111.919 E33.57109
G1 X125.565 Y112.178 E33.59864
G1 X124.849 Y112.52 E33.63559
G1 X124.066 Y112.884 E33.6758
G1 X123.179 Y113.283 E33.72109
G1 X120.725 Y114.409 E33.84681
G1 X118.343 Y115.585 E33.97051
G1 X115.979 Y116.836 E34.09505
G1 X113.671 Y118.142 E34.21853
G1 X111.378 Y119.527 E34.34327
G1 X109.135 Y120.969 E34.46743
G1 X106.952 Y122.463 E34.59061
G1 X104.806 Y124.022 E34.71412
G1 X102.688 Y125.654 E34.83863
G1 X100.603 Y127.357 E34.96398
G1 X98.616 Y129.076 E35.08632
G1 X96.641 Y130.883 E35.21097
G1 X94.716 Y132.748 E35.33578
G1 X93.763 Y133.711 E35.39886
G1 X74.354 Y153.618 E36.69348
G1 X66.228 Y161.897 E37.23365
G1 X57.789 Y170.396 E37.79135
G1 X57.361 Y170.823 E37.8195
G1 X53.634 Y174.499 E38.06326
G1 X52.849 Y175.26 E38.11417
G1 X49.393 Y178.549 E38.33632
G1 X48.173 Y179.677 E38.41369
G1 X47.14 Y180.601 E38.47823
G1 X45.654 Y181.881 E38.56955
G1 X44.799 Y182.591 E38.6213
G1 X43.292 Y183.791 E38.711
G1 X43.112 Y183.928 E38.72154
G1 X42.049 Y184.709 E38.78296
G1 X41.876 Y184.832 E38.79284
G1 X40.594 Y185.704 E38.86504
G1 X40.41 Y185.823 E38.87524
G1 X39.057 Y186.671 E38.94959
G1 X38.892 Y186.771 E38.95858
G1 X38.359 Y187.081 E38.98729
G1 X37.749 Y187.39 E39.01913
G1 X37.108 Y187.625 E39.05092
G1 X36.443 Y187.783 E39.08275
G1 X35.765 Y187.863 E39.11454
G1 X35.082 Y187.863 E39.14634
G1 X34.403 Y187.783 E39.17818
G1 X33.738 Y187.625 E39.21
G1 X33.097 Y187.39 E39.24179
G1 X32.487 Y187.081 E39.27363
G1 X31.918 Y186.704 E39.30542
G1 X31.396 Y186.263 E39.33724
G1 X30.895 Y185.721 E39.37161
G1 X30.599 Y185.347 E39.39381
G1 X30.198 Y184.803 E39.42528
G1 X29.88 Y184.333 E39.45171
G1 X29.346 Y183.472 E39.49888
G1 X29.124 Y183.086 E39.51962
G1 X28.89 Y182.612 E39.54423
G1 X28.642 Y182.039 E39.57331
G1 X28.52 Y181.738 E39.58843
G1 X28.349 Y181.257 E39.6122
G1 X28.19 Y180.732 E39.63774
G1 X28.092 Y180.365 E39.65543
G1 X27.949 Y179.781 E39.68343
G1 X27.813 Y179.096 E39.71595
G1 X27.648 Y177.955 E39.76963
G1 X27.62 Y177.73 E39.78019
G1 X27.522 Y176.784 E39.82447
G1 X27.472 Y176.155 E39.85385
G1 X27.435 Y175.586 E39.8804
G1 X27.397 Y174.848 E39.91481
G1 X27.363 Y173.953 E39.95652
G1 X27.348 Y173.478 E39.97865
G1 X27.325 Y172.564 E40.02122
G1 X27.307 Y171.56 E40.06798
G1 X27.292 Y170.11 E40.1355
G1 X27.288 Y169.461 E40.16572
G1 X27.294 Y168.726 E40.19995
G1 X27.34 Y168.045 E40.23173
G1 X27.465 Y167.373 E40.26356
G1 X27.667 Y166.72 E40.29539
G1 X27.944 Y166.096 E40.32718
G1 X28.293 Y165.508 E40.35902
G1 X28.707 Y164.965 E40.39081
G1 X29.074 Y164.576 E40.41571
G1 X29.715 Y163.957 E40.45721
