;FLAVOR:Marlin
;TIME:1708
;Filament used: 1.96876m
;Layer height: 0.2
;MINX:86.521
;MINY:85.58
;MINZ:0.2
;MAXX:123.495
;MAXY:124.401
;MAXZ:43
;Generated with Cura_SteamEngine 4.8.0
M140 S60
M105
M190 S60
M104 S200
M105
M109 S200
M82 ;absolute extrusion mode
; Script based on an original created by tjjfvi (https://github.com/tjjfvi)
; An up-to-date version of the tjjfvi's original script can be found
; here:  https://csi.t6.fyi/
; Note - This script will only work in Cura V4.2 and above!
; --- Global Settings
; layer_height = 0.2
; smooth_spiralized_contours = True
; magic_mesh_surface_mode = normal
; machine_extruder_count = 1
; --- Single Extruder Settings
; speed_z_hop = 10
; retraction_amount = 6
; retraction_hop = 0.075
; retraction_hop_enabled = True
; retraction_enable = True
; retraction_speed = 40
; retraction_retract_speed = 40
; retraction_prime_speed = 40
; speed_travel = 100


G21 ;metric values
G90 ;absolute positioning
M82 ;set extruder to absolute mode
M107 ;start with the fan off
G28 X0 Y0 ;move X/Y to min endstops
G28 Z0 ;move Z to min endstops
G1 Z15.0 F100 ;move the platform down 15mm
G92 E0 ;zero the extruded length
G1 F200 E3 ;extrude 3mm of feed stock
G92 E0 ;zero the extruded length again
G1 F100
G0 Y20 F100
M117 Printing...
G5
G92 E0
G92 E0
G1 F2400 E-6
;LAYER_COUNT:215
;LAYER:0
M106 S255
M204 S3000
M205 X10 Y10
G1 F600 Z0.275
G0 F3000 X88.252 Y87.611 Z0.275
M204 S1800
M205 X8 Y8
;TYPE:SKIRT
G1 F600 Z0.2
G1 F2400 E0
G1 X88.77 Y87.117 E0.03333
G1 X89.34 Y86.685 E0.06663
G1 X89.954 Y86.319 E0.09992
G1 X90.605 Y86.023 E0.13322
G1 X91.286 Y85.803 E0.16654
G1 X91.987 Y85.659 E0.19986
G1 X92.822 Y85.592 E0.23887
G1 X93.652 Y85.58 E0.27752
G1 X97.379 Y85.58 E0.45107
G1 X98.175 Y85.591 E0.48814
G1 X98.888 Y85.641 E0.52142
G1 X99.592 Y85.77 E0.55475
G1 X100.276 Y85.977 E0.58802
G1 X100.934 Y86.259 E0.62136
G1 X101.747 Y86.742 E0.66539
G1 X102.568 Y87.315 E0.71201
G1 X104.789 Y88.815 E0.8368
G1 X107.038 Y90.244 E0.96088
G1 X109.313 Y91.6 E1.0842
G1 X111.627 Y92.893 E1.20763
G1 X113.955 Y94.107 E1.32989
G1 X116.345 Y95.269 E1.45363
G1 X118.82 Y96.388 E1.58011
G1 X119.638 Y96.744 E1.62165
G1 X120.277 Y97.065 E1.65495
G1 X120.876 Y97.456 E1.68826
G1 X121.428 Y97.911 E1.72157
G1 X121.925 Y98.425 E1.75486
G1 X122.362 Y98.991 E1.78816
G1 X122.734 Y99.602 E1.82147
G1 X123.034 Y100.251 E1.85476
G1 X123.261 Y100.93 E1.8881
G1 X123.41 Y101.629 E1.92137
G1 X123.484 Y102.435 E1.95906
G1 X123.495 Y102.936 E1.9824
G1 X123.494 Y106.444 E2.14574
G1 X123.484 Y107.173 E2.17969
G1 X123.435 Y107.886 E2.21297
G1 X123.306 Y108.59 E2.2463
G1 X123.099 Y109.275 E2.27962
G1 X122.817 Y109.932 E2.31291
G1 X122.463 Y110.554 E2.34624
G1 X122.043 Y111.132 E2.37951
G1 X121.56 Y111.66 E2.41283
G1 X121.022 Y112.131 E2.44612
G1 X120.434 Y112.539 E2.47945
G1 X119.724 Y112.916 E2.51688
G1 X118.755 Y113.353 E2.56638
G1 X118.177 Y113.605 E2.59574
G1 X115.761 Y114.737 E2.71997
G1 X113.402 Y115.925 E2.84296
G1 X111.088 Y117.174 E2.9654
G1 X108.772 Y118.512 E3.08995
G1 X106.53 Y119.891 E3.21251
G1 X104.325 Y121.333 E3.33519
G1 X102.11 Y122.876 E3.46089
G1 X101.564 Y123.264 E3.49208
G1 X100.955 Y123.638 E3.52536
G1 X100.308 Y123.943 E3.55867
G1 X99.63 Y124.173 E3.592
G1 X98.932 Y124.326 E3.62528
G1 X98.22 Y124.401 E3.65862
G1 X97.505 Y124.395 E3.69191
G1 X96.795 Y124.31 E3.72521
G1 X96.099 Y124.146 E3.7585
G1 X95.425 Y123.905 E3.79183
G1 X94.885 Y123.647 E3.8197
G1 X94.44 Y123.405 E3.84329
G1 X91.333 Y121.61 E4.01037
G1 X90.758 Y121.267 E4.04155
G1 X90.165 Y120.867 E4.07485
G1 X89.621 Y120.403 E4.10815
G1 X89.132 Y119.882 E4.14142
G1 X88.704 Y119.309 E4.17472
G1 X88.342 Y118.691 E4.20807
G1 X88.052 Y118.038 E4.24134
G1 X87.836 Y117.356 E4.27465
G1 X87.698 Y116.654 E4.30797
G1 X87.639 Y115.941 E4.34128
G1 X87.653 Y115.321 E4.37016
G1 X87.665 Y115.153 E4.378
G1 X87.815 Y112.467 E4.50327
G1 X87.889 Y109.791 E4.62792
G1 X87.887 Y107.147 E4.75104
G1 X87.81 Y104.507 E4.87402
G1 X87.661 Y101.901 E4.99556
G1 X87.43 Y99.206 E5.12151
G1 X87.134 Y96.627 E5.24239
G1 X86.715 Y93.835 E5.37385
G1 X86.581 Y92.889 E5.41834
G1 X86.521 Y92.176 E5.45166
G1 X86.54 Y91.461 E5.48497
G1 X86.639 Y90.753 E5.51825
G1 X86.816 Y90.06 E5.55156
G1 X87.07 Y89.391 E5.58488
G1 X87.397 Y88.755 E5.61818
G1 X87.792 Y88.159 E5.65147
G1 X88.252 Y87.611 E5.68479
M204 S3000
M205 X10 Y10
G0 F3000 X88.831 Y87.819
M204 S1800
M205 X8 Y8
G1 F2400 X89.347 Y87.37 E5.71664
G1 X89.911 Y86.985 E5.74844
G1 X90.516 Y86.668 E5.78024
G1 X91.154 Y86.424 E5.81205
G1 X91.816 Y86.256 E5.84385
G1 X92.83 Y86.152 E5.89131
G1 X93.652 Y86.14 E5.92959
G1 X97.379 Y86.14 E6.10314
G1 X98.167 Y86.151 E6.13984
G1 X98.848 Y86.2 E6.17163
G1 X99.519 Y86.329 E6.20344
G1 X100.171 Y86.535 E6.23528
G1 X100.793 Y86.816 E6.26706
G1 X101.426 Y87.201 E6.30156
G1 X102.26 Y87.783 E6.34892
G1 X104.477 Y89.281 E6.47351
G1 X106.744 Y90.721 E6.59856
G1 X109.031 Y92.084 E6.72254
G1 X111.346 Y93.377 E6.84601
G1 X113.702 Y94.606 E6.96974
G1 X116.119 Y95.782 E7.0949
G1 X118.561 Y96.886 E7.21969
G1 X119.415 Y97.257 E7.26305
G1 X120.024 Y97.566 E7.29485
G1 X120.593 Y97.944 E7.32665
G1 X121.115 Y98.385 E7.35847
G1 X121.581 Y98.885 E7.3903
G1 X121.986 Y99.435 E7.4221
G1 X122.323 Y100.029 E7.45391
G1 X122.589 Y100.658 E7.48571
G1 X122.78 Y101.315 E7.51756
G1 X122.893 Y101.988 E7.54934
G1 X122.933 Y102.773 E7.58594
G1 X122.935 Y102.936 E7.59353
G1 X122.934 Y106.436 E7.75651
G1 X122.924 Y107.165 E7.79046
G1 X122.875 Y107.847 E7.82229
G1 X122.747 Y108.518 E7.8541
G1 X122.541 Y109.169 E7.8859
G1 X122.26 Y109.792 E7.91772
G1 X121.908 Y110.378 E7.94955
G1 X121.491 Y110.918 E7.98132
G1 X121.013 Y111.407 E8.01316
G1 X120.481 Y111.836 E8.04498
G1 X119.903 Y112.2 E8.07679
G1 X119.493 Y112.405 E8.09814
G1 X118.531 Y112.84 E8.1473
G1 X117.936 Y113.099 E8.17751
G1 X115.521 Y114.231 E8.30171
G1 X113.163 Y115.419 E8.42465
G1 X110.793 Y116.698 E8.55006
G1 X108.476 Y118.036 E8.67464
G1 X106.24 Y119.412 E8.79689
G1 X104.002 Y120.875 E8.9214
G1 X101.781 Y122.422 E9.04743
G1 X101.245 Y122.804 E9.07808
G1 X100.662 Y123.16 E9.10989
G1 X100.041 Y123.446 E9.14172
G1 X99.392 Y123.657 E9.1735
G1 X98.722 Y123.792 E9.20532
G1 X98.041 Y123.847 E9.23714
G1 X97.358 Y123.822 E9.26896
G1 X96.683 Y123.717 E9.30077
G1 X96.024 Y123.534 E9.33262
G1 X95.15 Y123.154 E9.377
G1 X94.72 Y122.92 E9.39979
G1 X91.62 Y121.129 E9.5665
G1 X91.045 Y120.786 E9.59767
G1 X90.48 Y120.403 E9.62946
G1 X89.963 Y119.956 E9.66128
G1 X89.502 Y119.451 E9.69312
G1 X89.104 Y118.896 E9.72492
G1 X88.772 Y118.299 E9.75673
G1 X88.513 Y117.667 E9.78854
G1 X88.33 Y117.009 E9.82034
G1 X88.224 Y116.334 E9.85215
G1 X88.211 Y115.36 E9.89751
G1 X88.227 Y115.133 E9.90811
G1 X88.375 Y112.48 E10.03183
G1 X88.449 Y109.792 E10.15705
G1 X88.447 Y107.165 E10.27937
G1 X88.369 Y104.459 E10.40543
G1 X88.219 Y101.859 E10.52669
G1 X87.988 Y99.16 E10.65283
G1 X87.687 Y96.539 E10.77568
G1 X87.27 Y93.756 E10.90671
G1 X87.136 Y92.81 E10.9512
G1 X87.08 Y92.129 E10.98302
G1 X87.103 Y91.446 E11.01484
G1 X87.207 Y90.771 E11.04664
G1 X87.388 Y90.112 E11.07846
G1 X87.646 Y89.479 E11.11029
G1 X87.975 Y88.881 E11.14207
G1 X88.372 Y88.325 E11.17389
G1 X88.831 Y87.819 E11.2057
M204 S3000
M205 X10 Y10
G0 F3000 X88.952 Y88.505
M204 S1800
M205 X8 Y8
G1 F2400 X89.41 Y88.045 E11.23592
G1 X89.921 Y87.644 E11.26617
G1 X90.478 Y87.309 E11.29644
G1 X91.071 Y87.044 E11.32668
G1 X91.693 Y86.855 E11.35695
G1 X92.333 Y86.744 E11.3872
G1 X92.839 Y86.712 E11.4108
G1 X93.652 Y86.7 E11.44867
G1 X97.379 Y86.7 E11.62221
G1 X98.159 Y86.711 E11.65853
G1 X98.807 Y86.76 E11.68879
G1 X99.443 Y86.888 E11.719
G1 X100.06 Y87.094 E11.74929
G1 X100.646 Y87.373 E11.77951
G1 X101.106 Y87.66 E11.80476
G1 X101.952 Y88.25 E11.85279
G1 X104.183 Y89.757 E11.97815
G1 X106.451 Y91.198 E12.10327
G1 X108.748 Y92.568 E12.22781
G1 X111.092 Y93.876 E12.3528
G1 X113.448 Y95.106 E12.47655
G1 X115.881 Y96.289 E12.60253
G1 X118.354 Y97.407 E12.7289
G1 X119.191 Y97.771 E12.7714
G1 X119.77 Y98.066 E12.80166
G1 X120.308 Y98.43 E12.83191
G1 X120.797 Y98.857 E12.86214
G1 X121.23 Y99.342 E12.89241
G1 X121.601 Y99.875 E12.92265
G1 X121.903 Y100.45 E12.95289
G1 X122.132 Y101.058 E12.98314
G1 X122.285 Y101.69 E13.01342
G1 X122.364 Y102.466 E13.04974
G1 X122.375 Y102.936 E13.07164
G1 X122.375 Y106.428 E13.23424
G1 X122.365 Y107.157 E13.26819
G1 X122.316 Y107.805 E13.29845
G1 X122.188 Y108.442 E13.3287
G1 X121.982 Y109.058 E13.35894
G1 X121.703 Y109.645 E13.38921
G1 X121.354 Y110.193 E13.41946
G1 X120.94 Y110.693 E13.44969
G1 X120.467 Y111.139 E13.47996
G1 X119.944 Y111.524 E13.5102
G1 X119.262 Y111.895 E13.54635
G1 X118.308 Y112.327 E13.59512
G1 X117.682 Y112.6 E13.62692
G1 X115.282 Y113.724 E13.75032
G1 X112.895 Y114.927 E13.87479
G1 X110.525 Y116.206 E14.00019
G1 X108.196 Y117.551 E14.12542
G1 X105.943 Y118.937 E14.24859
G1 X103.693 Y120.408 E14.37376
G1 X101.452 Y121.97 E14.50096
G1 X100.925 Y122.344 E14.53105
G1 X100.37 Y122.681 E14.56129
G1 X99.777 Y122.948 E14.59157
G1 X99.157 Y123.139 E14.62178
G1 X98.517 Y123.253 E14.65205
G1 X97.868 Y123.288 E14.68231
G1 X97.22 Y123.243 E14.71256
G1 X96.583 Y123.118 E14.74279
G1 X95.965 Y122.916 E14.77306
G1 X95.415 Y122.66 E14.80131
G1 X95 Y122.435 E14.82329
G1 X91.907 Y120.649 E14.9896
G1 X91.332 Y120.306 E15.02078
G1 X90.796 Y119.939 E15.05102
G1 X90.308 Y119.509 E15.08131
G1 X89.878 Y119.023 E15.11153
G1 X89.51 Y118.488 E15.14176
G1 X89.21 Y117.911 E15.17205
G1 X88.984 Y117.302 E15.20229
G1 X88.834 Y116.67 E15.23254
G1 X88.763 Y116.025 E15.26275
G1 X88.77 Y115.4 E15.29186
G1 X88.782 Y115.224 E15.30007
G1 X88.935 Y112.492 E15.42749
G1 X89.009 Y109.82 E15.55195
G1 X89.007 Y107.15 E15.67628
G1 X88.929 Y104.444 E15.80233
G1 X88.778 Y101.816 E15.92491
G1 X88.546 Y99.118 E16.051
G1 X88.244 Y96.479 E16.17469
G1 X87.824 Y93.678 E16.30657
G1 X87.69 Y92.732 E16.35106
G1 X87.639 Y92.084 E16.38133
G1 X87.667 Y91.435 E16.41157
G1 X87.775 Y90.794 E16.44184
G1 X87.961 Y90.172 E16.47207
G1 X88.222 Y89.577 E16.50233
G1 X88.554 Y89.019 E16.53256
G1 X88.952 Y88.505 E16.56283
M204 S3000
M205 X10 Y10
G1 F2400 E10.56283
;MESH:Sodastream_Flaschenhalshalterrakete_mk2.stl
G0 F3000 X94.377 Y91.315
G0 X94.377 Y92.829
G0 X101.231 Y99.172
G0 X108.285 Y104.006
M204 S1800
M205 X8 Y8
;TYPE:WALL-INNER
G1 F2400 E16.56283
G1 F1500 X115.695 Y104.006 E16.90787
G1 X115.695 Y105.692 E16.98638
G1 X108.322 Y105.692 E17.3297
G1 X107.753 Y107.105 E17.40063
G1 X107.427 Y107.698 E17.43214
G1 X107.035 Y108.237 E17.46317
G1 X106.583 Y108.722 E17.49404
G1 X106.054 Y109.161 E17.52605
G1 X105.489 Y109.52 E17.55722
G1 X104.894 Y109.8 E17.58784
G1 X104.243 Y110.011 E17.61971
G1 X103.594 Y110.135 E17.65047
G1 X102.927 Y110.177 E17.68159
G1 X102.24 Y110.133 E17.71365
G1 X100.965 Y109.933 E17.77374
G1 X97.401 Y116.108 E18.10573
G1 X96.181 Y115.404 E18.17132
G1 X95.939 Y115.264 E18.18434
G1 X96.079 Y115.022 E18.19275
G1 X99.5 Y109.097 E18.51133
G1 X98.629 Y107.996 E18.5767
G1 X98.257 Y107.417 E18.60874
G1 X97.976 Y106.819 E18.63951
G1 X97.768 Y106.184 E18.67062
G1 X97.645 Y105.53 E18.70161
G1 X97.6 Y104.854 E18.73316
G1 X97.641 Y104.197 E18.76381
G1 X97.766 Y103.525 E18.79564
G1 X97.967 Y102.903 E18.82608
G1 X98.255 Y102.29 E18.85761
G1 X98.622 Y101.708 E18.88965
G1 X99.498 Y100.608 E18.95513
G1 X97.703 Y97.49 E19.12266
G1 X95.572 Y93.799 E19.32111
G1 X95.33 Y93.38 E19.34364
G1 X95.813 Y93.38 E19.35639
G1 X95.814 Y93.38 E19.35644
G1 X97.279 Y93.38 E19.42465
G1 X100.949 Y99.739 E19.76653
G1 X102.598 Y99.533 E19.84391
G1 X103.253 Y99.533 E19.87441
G1 X103.93 Y99.619 E19.90619
G1 X104.57 Y99.781 E19.93693
G1 X105.208 Y100.034 E19.96889
G1 X105.769 Y100.344 E19.99873
G1 X106.32 Y100.743 E20.03041
G1 X106.809 Y101.204 E20.0617
G1 X107.229 Y101.709 E20.09229
G1 X107.589 Y102.273 E20.12345
G1 X107.888 Y102.909 E20.15617
G1 X108.285 Y104.006 E20.21049
M204 S3000
M205 X10 Y10
G0 F3000 X108.678 Y103.446
M204 S1800
M205 X8 Y8
G1 F1500 X116.255 Y103.446 E20.56331
G1 X116.255 Y106.252 E20.69397
G1 X108.7 Y106.252 E21.04576
G1 X108.257 Y107.352 E21.10098
G1 X107.903 Y107.996 E21.1352
G1 X107.469 Y108.593 E21.16957
G1 X106.964 Y109.134 E21.20403
G1 X106.382 Y109.617 E21.23925
G1 X105.764 Y110.01 E21.27335
G1 X105.098 Y110.323 E21.30761
G1 X104.386 Y110.554 E21.34247
G1 X103.663 Y110.692 E21.37674
G1 X102.927 Y110.738 E21.41108
G1 X102.182 Y110.691 E21.44584
G1 X101.258 Y110.546 E21.48939
G1 X97.606 Y116.873 E21.82956
G1 X95.416 Y115.609 E21.9473
G1 X95.174 Y115.469 E21.96032
G1 X95.314 Y115.227 E21.96873
G1 X98.825 Y109.146 E22.29569
G1 X98.177 Y108.328 E22.34429
G1 X97.764 Y107.684 E22.37991
G1 X97.456 Y107.029 E22.41361
G1 X97.225 Y106.323 E22.4482
G1 X97.088 Y105.597 E22.48261
G1 X97.039 Y104.857 E22.51714
G1 X97.084 Y104.126 E22.55124
G1 X97.221 Y103.389 E22.58615
G1 X97.445 Y102.697 E22.62002
G1 X97.764 Y102.018 E22.65495
G1 X98.163 Y101.386 E22.68975
G1 X98.823 Y100.557 E22.73909
G1 X97.218 Y97.769 E22.88889
G1 X94.602 Y93.24 E23.13243
G1 X94.36 Y92.82 E23.155
G1 X94.844 Y92.82 E23.16778
G1 X94.845 Y92.82 E23.16783
G1 X97.602 Y92.82 E23.29621
G1 X101.248 Y99.137 E23.63583
G1 X102.561 Y98.973 E23.69744
G1 X103.291 Y98.973 E23.73144
G1 X104.034 Y99.067 E23.76631
G1 X104.746 Y99.248 E23.80052
G1 X105.439 Y99.523 E23.83523
G1 X106.072 Y99.872 E23.86889
G1 X106.68 Y100.313 E23.90387
G1 X107.218 Y100.819 E23.93826
G1 X107.68 Y101.375 E23.97192
G1 X108.083 Y102.007 E24.00682
G1 X108.405 Y102.691 E24.04202
G1 X108.678 Y103.446 E24.07941
M204 S3000
M205 X10 Y10
G0 F3000 X109.071 Y102.886
M204 S1800
M205 X8 Y8
;TYPE:WALL-OUTER
G1 F1500 X116.815 Y102.886 E24.44
G1 X116.815 Y106.812 E24.62281
G1 X109.078 Y106.812 E24.98308
G1 X108.766 Y107.588 E25.02202
G1 X108.377 Y108.297 E25.05968
G1 X107.903 Y108.949 E25.09722
G1 X107.345 Y109.546 E25.13527
G1 X106.716 Y110.068 E25.17333
G1 X106.033 Y110.503 E25.21103
G1 X105.302 Y110.846 E25.24863
G1 X104.529 Y111.097 E25.28648
G1 X103.732 Y111.249 E25.32426
G1 X102.927 Y111.299 E25.36181
G1 X102.124 Y111.249 E25.39928
G1 X101.551 Y111.159 E25.42629
G1 X97.811 Y117.638 E25.77463
G1 X94.651 Y115.814 E25.94453
G1 X94.409 Y115.674 E25.95755
G1 X94.549 Y115.432 E25.96596
G1 X98.15 Y109.196 E26.30127
G1 X97.719 Y108.653 E26.33355
G1 X97.276 Y107.96 E26.37185
G1 X96.934 Y107.235 E26.40917
G1 X96.682 Y106.462 E26.44703
G1 X96.531 Y105.664 E26.48485
G1 X96.478 Y104.86 E26.52237
G1 X96.527 Y104.053 E26.56001
G1 X96.676 Y103.254 E26.59786
G1 X96.923 Y102.491 E26.6352
G1 X97.27 Y101.752 E26.67322
G1 X97.709 Y101.058 E26.71146
G1 X98.148 Y100.506 E26.7443
G1 X96.733 Y98.048 E26.87636
G1 X93.633 Y92.679 E27.16505
G1 X93.391 Y92.26 E27.18758
G1 X93.874 Y92.26 E27.20033
G1 X93.875 Y92.26 E27.20037
G1 X97.925 Y92.26 E27.38896
G1 X101.547 Y98.535 E27.72633
G1 X102.524 Y98.413 E27.77218
G1 X103.329 Y98.413 E27.80966
G1 X104.138 Y98.515 E27.84763
G1 X104.919 Y98.714 E27.88516
G1 X105.673 Y99.013 E27.92293
G1 X106.375 Y99.4 E27.96025
G1 X107.04 Y99.883 E27.99852
G1 X107.622 Y100.43 E28.03571
G1 X108.139 Y101.051 E28.07334
G1 X108.574 Y101.735 E28.11109
G1 X108.919 Y102.467 E28.14877
G1 X109.071 Y102.886 E28.16952
M204 S3000
M205 X10 Y10
G0 F3000 X109.271 Y102.886
G0 X109.271 Y103.546
G0 X107.378 Y103.115
M204 S1800
M205 X8 Y8
;TYPE:SKIN
G1 F1500 X107.9 Y104.556 E28.24089
G1 X115.145 Y104.556 E28.57824
G1 X115.145 Y105.142 E28.60553
G1 X107.951 Y105.142 E28.94051
G1 X107.255 Y106.869 E29.02721
G1 X106.961 Y107.405 E29.05568
G1 X106.614 Y107.881 E29.08311
G1 X106.2 Y108.325 E29.11138
G1 X105.731 Y108.715 E29.13978
G1 X105.22 Y109.04 E29.16798
G1 X104.694 Y109.287 E29.19504
G1 X104.108 Y109.476 E29.22371
G1 X103.518 Y109.589 E29.25168
G1 X102.927 Y109.627 E29.27926
G1 X102.317 Y109.587 E29.30772
G1 X100.678 Y109.332 E29.38496
G1 X97.199 Y115.357 E29.70892
G1 X96.69 Y115.063 E29.73629
G1 X100.163 Y109.048 E30.05971
G1 X99.076 Y107.673 E30.14133
G1 X98.736 Y107.145 E30.17057
G1 X98.49 Y106.623 E30.19744
G1 X98.301 Y106.042 E30.22589
G1 X98.191 Y105.458 E30.25356
G1 X98.15 Y104.851 E30.28189
G1 X98.187 Y104.266 E30.30918
G1 X98.299 Y103.664 E30.3377
G1 X98.481 Y103.101 E30.36525
G1 X98.738 Y102.553 E30.39343
G1 X99.072 Y102.026 E30.42248
G1 X100.162 Y100.657 E30.50397
