;FLAVOR:Marlin
;TIME:710
;Filament used: 0.626979m
;Layer height: 0.2
;MINX:90.736
;MINY:90.122
;MINZ:0.2
;MAXX:119.276
;MAXY:119.864
;MAXZ:24.4
;Generated with Cura_SteamEngine 4.8.0
M140 S60
M105
M190 S60
M104 S200
M105
M109 S200
M82 ;absolute extrusion mode
; Script based on an original created by tjjfvi (https://github.com/tjjfvi)
; An up-to-date version of the tjjfvi's original script can be found
; here:  https://csi.t6.fyi/
; Note - This script will only work in Cura V4.2 and above!
; --- Global Settings
; layer_height = 0.2
; smooth_spiralized_contours = True
; magic_mesh_surface_mode = normal
; machine_extruder_count = 1
; --- Single Extruder Settings
; speed_z_hop = 10
; retraction_amount = 6
; retraction_hop = 0.075
; retraction_hop_enabled = True
; retraction_enable = True
; retraction_speed = 40
; retraction_retract_speed = 40
; retraction_prime_speed = 40
; speed_travel = 100


G21 ;metric values
G90 ;absolute positioning
M82 ;set extruder to absolute mode
M107 ;start with the fan off
G28 X0 Y0 ;move X/Y to min endstops
G28 Z0 ;move Z to min endstops
G1 Z15.0 F100 ;move the platform down 15mm
G92 E0 ;zero the extruded length
G1 F200 E3 ;extrude 3mm of feed stock
G92 E0 ;zero the extruded length again
G1 F100
G0 Y20 F100
M117 Printing...
G5
G92 E0
G92 E0
G1 F2400 E-6
;LAYER_COUNT:122
;LAYER:0
M106 S255
M204 S3000
M205 X10 Y10
G1 F600 Z0.275
G0 F3000 X92.589 Y92.029 Z0.275
M204 S1800
M205 X8 Y8
;TYPE:SKIRT
G1 F600 Z0.2
G1 F2400 E0
G1 X93.12 Y91.55 E0.0333
G1 X93.701 Y91.133 E0.0666
G1 X94.325 Y90.783 E0.09991
G1 X94.985 Y90.505 E0.13326
G1 X95.671 Y90.303 E0.16656
G1 X96.375 Y90.178 E0.19985
G1 X97.039 Y90.134 E0.23084
G1 X97.859 Y90.122 E0.26903
G1 X99.791 Y90.122 E0.35899
G1 X100.596 Y90.134 E0.39648
G1 X101.309 Y90.185 E0.42976
G1 X102.013 Y90.315 E0.4631
G1 X102.697 Y90.523 E0.49639
G1 X103.354 Y90.806 E0.5297
G1 X103.928 Y91.131 E0.56041
G1 X106.285 Y92.628 E0.69043
G1 X108.554 Y93.982 E0.81347
G1 X110.9 Y95.292 E0.93858
G1 X113.226 Y96.506 E1.06076
G1 X115.666 Y97.693 E1.1871
G1 X116.291 Y98.041 E1.22041
G1 X116.873 Y98.457 E1.25373
G1 X117.405 Y98.935 E1.28703
G1 X117.88 Y99.469 E1.32031
G1 X118.293 Y100.054 E1.35365
G1 X118.638 Y100.68 E1.38693
G1 X118.91 Y101.341 E1.42022
G1 X119.108 Y102.029 E1.45355
G1 X119.227 Y102.734 E1.48685
G1 X119.265 Y103.27 E1.51187
G1 X119.276 Y103.771 E1.5352
G1 X119.275 Y105.714 E1.62568
G1 X119.265 Y106.442 E1.65958
G1 X119.216 Y107.155 E1.69286
G1 X119.087 Y107.859 E1.72618
G1 X118.88 Y108.544 E1.7595
G1 X118.598 Y109.201 E1.7928
G1 X118.244 Y109.823 E1.82612
G1 X117.824 Y110.401 E1.85939
G1 X117.341 Y110.929 E1.89271
G1 X116.803 Y111.4 E1.92601
G1 X116.215 Y111.808 E1.95933
G1 X115.679 Y112.103 E1.98782
G1 X115.042 Y112.415 E2.02085
G1 X112.649 Y113.623 E2.14567
G1 X110.315 Y114.885 E2.26922
G1 X108.014 Y116.215 E2.39297
G1 X105.749 Y117.61 E2.51684
G1 X104.601 Y118.353 E2.58052
G1 X103.896 Y118.816 E2.61979
G1 X103.277 Y119.175 E2.65311
G1 X102.622 Y119.462 E2.68641
G1 X101.939 Y119.674 E2.71971
G1 X101.236 Y119.809 E2.75304
G1 X100.523 Y119.864 E2.78634
G1 X99.808 Y119.84 E2.81965
G1 X99.101 Y119.736 E2.85293
G1 X98.409 Y119.554 E2.88625
G1 X97.742 Y119.295 E2.91956
G1 X97.024 Y118.924 E2.9572
G1 X96.874 Y118.841 E2.96518
G1 X95.18 Y117.863 E3.05626
G1 X94.593 Y117.514 E3.08806
G1 X94 Y117.115 E3.12134
G1 X93.455 Y116.652 E3.15464
G1 X92.965 Y116.131 E3.18794
G1 X92.536 Y115.558 E3.22127
G1 X92.173 Y114.942 E3.25457
G1 X91.882 Y114.288 E3.2879
G1 X91.666 Y113.607 E3.32117
G1 X91.526 Y112.905 E3.3545
G1 X91.465 Y111.927 E3.40013
G1 X91.481 Y110.781 E3.45349
G1 X91.494 Y110.334 E3.47432
G1 X91.496 Y107.697 E3.59711
G1 X91.421 Y105.02 E3.72181
G1 X91.272 Y102.373 E3.84526
G1 X91.05 Y99.742 E3.9682
G1 X90.899 Y98.327 E4.03447
G1 X90.777 Y97.26 E4.08447
G1 X90.736 Y96.546 E4.11778
G1 X90.775 Y95.832 E4.15107
G1 X90.893 Y95.126 E4.1844
G1 X91.088 Y94.438 E4.2177
G1 X91.36 Y93.777 E4.25098
G1 X91.704 Y93.149 E4.28433
G1 X92.115 Y92.564 E4.31762
G1 X92.589 Y92.029 E4.3509
M204 S3000
M205 X10 Y10
G0 F3000 X93.163 Y92.253
M204 S1800
M205 X8 Y8
G1 F2400 X93.69 Y91.818 E4.38272
G1 X94.264 Y91.448 E4.41452
G1 X94.878 Y91.147 E4.44636
G1 X95.522 Y90.92 E4.47816
G1 X96.189 Y90.77 E4.50999
G1 X97.047 Y90.694 E4.5501
G1 X97.859 Y90.682 E4.58791
G1 X99.882 Y90.683 E4.68211
G1 X100.587 Y90.694 E4.71494
G1 X101.268 Y90.744 E4.74674
G1 X101.939 Y90.874 E4.77856
G1 X102.59 Y91.081 E4.81037
G1 X103.213 Y91.363 E4.84222
G1 X103.628 Y91.604 E4.86456
G1 X105.991 Y93.105 E4.99492
G1 X108.272 Y94.466 E5.1186
G1 X110.618 Y95.776 E5.24371
G1 X112.972 Y97.005 E5.36737
G1 X115.421 Y98.196 E5.49417
G1 X116.017 Y98.53 E5.52599
G1 X116.57 Y98.932 E5.55782
G1 X117.072 Y99.395 E5.58962
G1 X117.516 Y99.914 E5.62142
G1 X117.897 Y100.481 E5.65323
G1 X118.209 Y101.089 E5.68505
G1 X118.448 Y101.729 E5.71686
G1 X118.611 Y102.393 E5.7487
G1 X118.705 Y103.285 E5.79047
G1 X118.716 Y103.771 E5.8131
G1 X118.715 Y105.706 E5.9032
G1 X118.705 Y106.434 E5.93711
G1 X118.656 Y107.116 E5.96894
G1 X118.528 Y107.787 E6.00075
G1 X118.321 Y108.438 E6.03256
G1 X118.041 Y109.061 E6.06437
G1 X117.689 Y109.647 E6.0962
G1 X117.272 Y110.188 E6.128
G1 X116.794 Y110.676 E6.15981
G1 X116.262 Y111.105 E6.19163
G1 X115.433 Y111.6 E6.23659
G1 X114.773 Y111.923 E6.27081
G1 X112.38 Y113.131 E6.39563
G1 X110.061 Y114.385 E6.51839
G1 X107.744 Y115.724 E6.643
G1 X105.44 Y117.144 E6.76902
G1 X104.297 Y117.883 E6.8324
G1 X103.588 Y118.348 E6.87188
G1 X102.996 Y118.689 E6.90369
G1 X102.368 Y118.959 E6.93552
G1 X101.713 Y119.153 E6.96733
G1 X101.04 Y119.269 E6.99913
G1 X100.358 Y119.306 E7.03094
G1 X99.676 Y119.263 E7.06276
G1 X99.004 Y119.141 E7.09456
G1 X98.351 Y118.941 E7.12636
G1 X97.603 Y118.601 E7.16462
G1 X97.154 Y118.356 E7.18843
G1 X95.466 Y117.382 E7.27918
G1 X94.879 Y117.033 E7.31098
G1 X94.314 Y116.65 E7.34276
G1 X93.796 Y116.203 E7.37462
G1 X93.335 Y115.7 E7.40639
G1 X92.935 Y115.146 E7.43821
G1 X92.603 Y114.548 E7.47006
G1 X92.343 Y113.917 E7.50184
G1 X92.158 Y113.259 E7.53367
G1 X92.052 Y112.584 E7.56548
G1 X92.025 Y111.935 E7.59573
G1 X92.04 Y110.798 E7.64868
G1 X92.054 Y110.316 E7.67113
G1 X92.056 Y107.681 E7.79383
G1 X91.981 Y105.008 E7.91834
G1 X91.831 Y102.332 E8.04314
G1 X91.607 Y99.682 E8.16698
G1 X91.451 Y98.218 E8.23554
G1 X91.334 Y97.196 E8.28343
G1 X91.296 Y96.514 E8.31524
G1 X91.338 Y95.832 E8.34706
G1 X91.46 Y95.16 E8.37886
G1 X91.659 Y94.506 E8.41069
G1 X91.933 Y93.881 E8.44247
G1 X92.278 Y93.291 E8.47429
G1 X92.69 Y92.746 E8.50611
G1 X93.163 Y92.253 E8.53792
M204 S3000
M205 X10 Y10
G0 F3000 X93.265 Y92.942
M204 S1800
M205 X8 Y8
G1 F2400 X93.736 Y92.494 E8.56819
G1 X94.257 Y92.107 E8.59841
G1 X94.823 Y91.787 E8.62868
G1 X95.423 Y91.539 E8.65892
G1 X96.049 Y91.366 E8.68916
G1 X96.692 Y91.272 E8.71942
G1 X97.056 Y91.254 E8.73639
G1 X97.859 Y91.242 E8.77378
G1 X99.791 Y91.242 E8.86374
G1 X100.578 Y91.254 E8.90039
G1 X101.226 Y91.304 E8.93066
G1 X101.863 Y91.433 E8.96092
G1 X102.479 Y91.639 E8.99117
G1 X103.328 Y92.076 E9.03563
G1 X105.723 Y93.598 E9.16776
G1 X107.99 Y94.949 E9.29065
G1 X110.364 Y96.275 E9.41727
G1 X112.719 Y97.505 E9.54098
G1 X115.176 Y98.7 E9.6682
G1 X115.742 Y99.019 E9.69846
G1 X116.264 Y99.406 E9.72871
G1 X116.735 Y99.854 E9.75898
G1 X117.147 Y100.356 E9.78922
G1 X117.494 Y100.905 E9.81946
G1 X117.771 Y101.492 E9.84969
G1 X117.974 Y102.109 E9.87993
G1 X118.1 Y102.747 E9.91021
G1 X118.145 Y103.301 E9.9361
G1 X118.156 Y103.771 E9.95799
G1 X118.156 Y105.699 E10.04776
G1 X118.146 Y106.427 E10.08166
G1 X118.097 Y107.074 E10.11188
G1 X117.969 Y107.711 E10.14213
G1 X117.763 Y108.327 E10.17238
G1 X117.484 Y108.914 E10.20264
G1 X117.135 Y109.462 E10.23289
G1 X116.721 Y109.962 E10.26312
G1 X116.248 Y110.408 E10.29339
G1 X115.725 Y110.793 E10.32363
G1 X115.187 Y111.097 E10.35241
G1 X114.527 Y111.42 E10.38662
G1 X112.14 Y112.625 E10.51113
G1 X109.75 Y113.917 E10.63764
G1 X107.462 Y115.239 E10.76068
G1 X105.164 Y116.656 E10.88639
G1 X103.993 Y117.413 E10.95132
G1 X103.281 Y117.88 E10.99097
G1 X102.717 Y118.203 E11.02124
G1 X102.118 Y118.453 E11.05146
G1 X101.492 Y118.628 E11.08173
G1 X100.85 Y118.725 E11.11196
G1 X100.201 Y118.743 E11.14219
G1 X99.554 Y118.68 E11.17246
G1 X98.92 Y118.539 E11.2027
G1 X98.308 Y118.321 E11.23296
G1 X97.557 Y117.94 E11.27217
G1 X97.434 Y117.871 E11.27873
G1 X95.753 Y116.9 E11.36913
G1 X95.166 Y116.551 E11.40093
G1 X94.629 Y116.186 E11.43116
G1 X94.141 Y115.757 E11.46142
G1 X93.709 Y115.271 E11.4917
G1 X93.341 Y114.736 E11.52193
G1 X93.04 Y114.16 E11.5522
G1 X92.813 Y113.552 E11.58242
G1 X92.662 Y112.92 E11.61267
G1 X92.59 Y112.274 E11.64294
G1 X92.584 Y111.942 E11.6584
G1 X92.6 Y110.814 E11.71093
G1 X92.614 Y110.332 E11.73338
G1 X92.616 Y107.665 E11.85757
G1 X92.541 Y104.997 E11.98185
G1 X92.389 Y102.288 E12.10819
G1 X92.164 Y99.622 E12.23277
G1 X92.012 Y98.2 E12.29937
G1 X91.89 Y97.133 E12.34937
G1 X91.856 Y96.484 E12.37964
G1 X91.902 Y95.836 E12.40989
G1 X92.027 Y95.199 E12.44011
G1 X92.23 Y94.581 E12.4704
G1 X92.507 Y93.994 E12.50063
G1 X92.854 Y93.444 E12.53091
G1 X93.265 Y92.942 E12.56112
M204 S3000
M205 X10 Y10
G1 F2400 E6.56112
;MESH:Sodastream_Flaschenhalshalterrakete_mk2.stl
G0 F3000 X98.596 Y95.857
G0 X98.596 Y97.371
G0 X102.032 Y102.23
M204 S1800
M205 X8 Y8
;TYPE:WALL-INNER
G1 F2400 E12.56112
G1 F1500 X101.993 Y102.162 E12.56477
G1 X99.585 Y97.984 E12.78931
G1 X99.549 Y97.922 E12.79265
G1 X99.691 Y97.922 E12.79536
G1 X102.101 Y102.099 E12.8449
G1 X103.469 Y101.928 E12.9091
G1 X104.223 Y101.977 E12.94428
G1 X104.922 Y102.207 E12.97855
G1 X105.549 Y102.606 E13.01315
G1 X106.058 Y103.146 E13.04771
G1 X106.426 Y103.818 E13.08338
G1 X106.799 Y104.841 E13.13408
G1 X106.867 Y104.841 E13.13725
G1 X111.476 Y104.841 E13.35187
G1 X111.476 Y104.962 E13.3575
G1 X106.867 Y104.962 E13.40387
G1 X106.257 Y106.342 E13.47413
G1 X105.833 Y106.929 E13.50785
G1 X105.236 Y107.425 E13.54399
G1 X104.565 Y107.738 E13.57846
G1 X103.829 Y107.876 E13.61333
G1 X103.469 Y107.876 E13.6301
G1 X102.101 Y107.705 E13.69429
G1 X99.873 Y111.566 E13.90186
G1 X99.766 Y111.505 E13.9076
G1 X101.991 Y107.653 E13.95272
G1 X101.134 Y106.497 E14.01973
G1 X100.815 Y105.823 E14.05445
G1 X100.677 Y105.084 E14.08946
G1 X100.722 Y104.337 E14.1243
G1 X100.948 Y103.645 E14.1582
G1 X101.359 Y102.993 E14.19409
G1 X102.032 Y102.23 E14.24146
M204 S3000
M205 X10 Y10
G0 F3000 X101.346 Y102.161
M204 S1800
M205 X8 Y8
G1 F1500 X99.722 Y99.341 E14.39299
G1 X98.821 Y97.782 E14.47684
G1 X98.579 Y97.362 E14.49941
G1 X99.063 Y97.362 E14.51219
G1 X99.064 Y97.362 E14.51224
G1 X100.014 Y97.362 E14.55647
G1 X102.4 Y101.497 E14.77877
G1 X103.432 Y101.368 E14.8272
G1 X103.867 Y101.368 E14.84746
G1 X104.324 Y101.425 E14.8689
G1 X104.739 Y101.532 E14.88886
G1 X105.159 Y101.698 E14.90988
G1 X105.545 Y101.911 E14.93041
G1 X105.904 Y102.171 E14.95105
G1 X106.227 Y102.476 E14.97174
G1 X106.511 Y102.815 E14.99233
G1 X106.747 Y103.187 E15.01285
G1 X106.945 Y103.606 E15.03442
G1 X107.191 Y104.281 E15.06788
G1 X112.036 Y104.281 E15.29348
G1 X112.036 Y105.522 E15.35127
G1 X107.232 Y105.522 E15.57496
G1 X106.753 Y106.605 E15.6301
G1 X106.517 Y106.98 E15.65074
G1 X106.24 Y107.316 E15.67101
G1 X105.906 Y107.63 E15.69236
G1 X105.541 Y107.896 E15.71339
G1 X105.16 Y108.105 E15.73362
G1 X104.739 Y108.271 E15.7547
G1 X104.321 Y108.379 E15.7748
G1 X103.867 Y108.436 E15.7961
G1 X103.432 Y108.436 E15.81636
G1 X102.4 Y108.307 E15.86479
G1 X100.078 Y112.331 E16.08112
G1 X99.243 Y111.849 E16.12601
G1 X99.001 Y111.71 E16.13901
G1 X99.141 Y111.468 E16.14742
G1 X101.322 Y107.691 E16.35051
G1 X100.664 Y106.804 E16.40193
G1 X100.449 Y106.415 E16.42263
G1 X100.283 Y106 E16.44344
G1 X100.175 Y105.583 E16.4635
G1 X100.117 Y105.124 E16.48504
G1 X100.114 Y104.69 E16.50525
G1 X100.17 Y104.238 E16.52646
G1 X100.278 Y103.818 E16.54665
G1 X100.44 Y103.407 E16.56723
G1 X100.656 Y103.013 E16.58815
G1 X100.924 Y102.639 E16.60957
G1 X101.346 Y102.161 E16.63926
M204 S3000
M205 X10 Y10
G0 F3000 X100.66 Y102.092
M204 S1800
M205 X8 Y8
;TYPE:WALL-OUTER
G1 F1500 X99.237 Y99.62 E16.77208
G1 X97.852 Y97.221 E16.90107
G1 X97.61 Y96.802 E16.9236
G1 X98.093 Y96.802 E16.93634
G1 X98.094 Y96.802 E16.93639
G1 X100.337 Y96.802 E17.04083
G1 X102.699 Y100.895 E17.26088
G1 X103.394 Y100.808 E17.29349
G1 X103.905 Y100.808 E17.31729
G1 X104.422 Y100.873 E17.34155
G1 X104.917 Y101 E17.36535
G1 X105.396 Y101.189 E17.38933
G1 X105.845 Y101.437 E17.41321
G1 X106.264 Y101.741 E17.43731
G1 X106.635 Y102.09 E17.46103
G1 X106.964 Y102.484 E17.48493
G1 X107.238 Y102.916 E17.50875
G1 X107.462 Y103.389 E17.53312
G1 X107.583 Y103.721 E17.54958
G1 X112.596 Y103.721 E17.783
G1 X112.596 Y106.082 E17.89294
G1 X107.597 Y106.082 E18.12572
G1 X107.248 Y106.871 E18.16589
G1 X106.974 Y107.305 E18.18979
G1 X106.648 Y107.702 E18.21371
G1 X106.263 Y108.063 E18.23828
G1 X105.846 Y108.367 E18.26231
G1 X105.396 Y108.614 E18.28622
G1 X104.918 Y108.803 E18.31015
G1 X104.42 Y108.931 E18.33409
G1 X103.905 Y108.996 E18.35826
G1 X103.394 Y108.996 E18.38206
G1 X102.699 Y108.909 E18.41467
G1 X100.283 Y113.096 E18.63977
G1 X98.478 Y112.054 E18.73682
G1 X98.236 Y111.915 E18.74981
G1 X98.376 Y111.673 E18.75822
G1 X100.653 Y107.729 E18.97028
G1 X100.192 Y107.107 E19.00633
G1 X99.942 Y106.655 E19.03038
G1 X99.751 Y106.177 E19.05435
G1 X99.623 Y105.683 E19.07811
G1 X99.557 Y105.165 E19.10243
G1 X99.554 Y104.655 E19.12618
G1 X99.618 Y104.139 E19.15039
G1 X99.745 Y103.643 E19.17423
G1 X99.933 Y103.165 E19.19815
G1 X100.181 Y102.714 E19.22211
G1 X100.486 Y102.289 E19.24647
G1 X100.66 Y102.092 E19.25871
M204 S3000
M205 X10 Y10
G0 F3000 X100.561 Y101.919
G0 X101.132 Y101.591
G0 X101.797 Y103.328
M204 S1800
M205 X8 Y8
;TYPE:SKIN
G1 F1500 X102.429 Y102.612 E19.30318
G1 X103.491 Y102.48 E19.35301
G1 X104.112 Y102.521 E19.38199
G1 X104.687 Y102.71 E19.41017
G1 X105.197 Y103.033 E19.43828
G1 X105.608 Y103.469 E19.46618
G1 X105.925 Y104.048 E19.49692
G1 X106.261 Y104.972 E19.5427
G1 X105.778 Y106.066 E19.59839
G1 X105.428 Y106.55 E19.6262
G1 X104.939 Y106.956 E19.6558
G1 X104.393 Y107.212 E19.68387
G1 X103.781 Y107.326 E19.71286
G1 X103.505 Y107.326 E19.72571
G1 X102.323 Y107.178 E19.78118
G1 X101.606 Y106.211 E19.83724
G1 X101.342 Y105.651 E19.86607
G1 X101.23 Y105.052 E19.89444
G1 X101.267 Y104.442 E19.9229
G1 X101.451 Y103.878 E19.95052
G1 X101.797 Y103.328 E19.98078
M204 S3000
M205 X10 Y10
G0 F3000 X104.509 Y102.925
M204 S1800
M205 X8 Y8
G1 F1500 X105.622 Y104.038 E20.05407
M204 S3000
M205 X10 Y10
G0 F3000 X105.911 Y105.119
M204 S1800
M205 X8 Y8
G1 F1500 X103.535 Y102.744 E20.2105
M204 S3000
M205 X10 Y10
G0 F3000 X102.825 Y102.825
M204 S1800
M205 X8 Y8
G1 F1500 X105.668 Y105.668 E20.39772
M204 S3000
M205 X10 Y10
G0 F3000 X105.38 Y106.172
M204 S1800
M205 X8 Y8
G1 F1500 X102.326 Y103.118 E20.59883
M204 S3000
M205 X10 Y10
G0 F3000 X101.964 Y103.548
M204 S1800
M205 X8 Y8
G1 F1500 X104.99 Y106.574 E20.7981
M204 S3000
M205 X10 Y10
G0 F3000 X104.497 Y106.873
M204 S1800
M205 X8 Y8
G1 F1500 X101.669 Y104.045 E20.98433
M204 S3000
M205 X10 Y10
G0 F3000 X101.512 Y104.68
M204 S1800
M205 X8 Y8
G1 F1500 X103.875 Y107.043 E21.13993
M204 S3000
M205 X10 Y10
G0 F3000 X103.045 Y107.005
M204 S1800
M205 X8 Y8
G1 F1500 X101.585 Y105.545 E21.23608
G1 X101.515 Y105.475
M204 S3000
M205 X10 Y10
;MESH:NONMESH
G0 F600 X101.515 Y105.475 Z0.4
G0 F3000 X107.084 Y104.441
;TIME_ELAPSED:20.424983
;LAYER:1
M204 S1800
M205 X8 Y8
;TYPE:WALL-INNER
;MESH:Sodastream_Flaschenhalshalterrakete_mk2.stl
G1 F2250 X111.876 Y104.441 E21.39546
G1 X111.876 Y105.362 E21.42609
G1 X107.127 Y105.362 E21.58404
G1 X106.615 Y106.521 E21.62619
G1 X106.399 Y106.869 E21.63981
G1 X106.131 Y107.196 E21.65387
G1 X105.799 Y107.51 E21.66907
G1 X105.451 Y107.762 E21.68336
G1 X105.099 Y107.957 E21.69675
G1 X104.702 Y108.113 E21.71093
G1 X104.272 Y108.223 E21.72569
G1 X103.861 Y108.276 E21.73948
G1 X103.436 Y108.276 E21.75361
G1 X102.314 Y108.135 E21.79122
G1 X100.02 Y112.112 E21.94393
G1 X99.393 Y111.75 E21.96801
G1 X99.22 Y111.651 E21.97464
G1 X99.32 Y111.478 E21.97893
G1 X101.514 Y107.678 E22.12487
G1 X100.811 Y106.733 E22.16405
G1 X100.598 Y106.353 E22.17853
