;FLAVOR:Marlin
;TIME:366
;Filament used: 0.25445m
;Layer height: 0.2
;MINX:91.054
;MINY:90.766
;MINZ:0.2
;MAXX:118.946
;MAXY:119.247
;MAXZ:11.075
;Generated with Cura_SteamEngine 4.8.0
M140 S60
M105
M190 S60
M104 S200
M105
M109 S200
M82 ;absolute extrusion mode
; Script based on an original created by tjjfvi (https://github.com/tjjfvi)
; An up-to-date version of the tjjfvi's original script can be found
; here:  https://csi.t6.fyi/
; Note - This script will only work in Cura V4.2 and above!
; --- Global Settings
; layer_height = 0.2
; smooth_spiralized_contours = True
; magic_mesh_surface_mode = normal
; machine_extruder_count = 1
; --- Single Extruder Settings
; speed_z_hop = 10
; retraction_amount = 6
; retraction_hop = 0.075
; retraction_hop_enabled = True
; retraction_enable = True
; retraction_speed = 40
; retraction_retract_speed = 40
; retraction_prime_speed = 40
; speed_travel = 100


G21 ;metric values
G90 ;absolute positioning
M82 ;set extruder to absolute mode
M107 ;start with the fan off
G28 X0 Y0 ;move X/Y to min endstops
G28 Z0 ;move Z to min endstops
G1 Z15.0 F100 ;move the platform down 15mm
G92 E0 ;zero the extruded length
G1 F200 E3 ;extrude 3mm of feed stock
G92 E0 ;zero the extruded length again
G1 F100
G0 Y20 F100
M117 Printing...
G5
G92 E0
G92 E0
G1 F2400 E-6
;LAYER_COUNT:55
;LAYER:0
M106 S255
M204 S3000
M205 X10 Y10
G1 F600 Z0.275
G0 F3000 X95.072 Y94.918 Z0.275
M204 S1800
M205 X8 Y8
;TYPE:SKIRT
G1 F600 Z0.2
G1 F2400 E0
G1 X95.703 Y94.349 E0.03956
G1 X96.534 Y93.688 E0.08901
G1 X96.77 Y93.508 E0.10283
G1 X97.332 Y93.09 E0.13544
G1 X97.954 Y92.678 E0.17018
G1 X98.706 Y92.294 E0.2095
G1 X99.65 Y91.884 E0.25742
G1 X99.99 Y91.744 E0.27454
G1 X100.597 Y91.503 E0.30495
G1 X101.304 Y91.265 E0.33969
G1 X102.123 Y91.09 E0.37869
G1 X103.015 Y90.955 E0.4207
G1 X103.382 Y90.906 E0.43794
G1 X104.164 Y90.814 E0.4746
G1 X104.908 Y90.766 E0.50932
G1 X105.767 Y90.811 E0.54937
G1 X106.799 Y90.93 E0.59774
G1 X107.13 Y90.974 E0.61329
G1 X107.784 Y91.069 E0.64406
G1 X108.515 Y91.216 E0.67878
G1 X109.332 Y91.48 E0.71876
G1 X110.168 Y91.809 E0.7606
G1 X110.619 Y91.996 E0.78333
G1 X111.221 Y92.255 E0.81385
G1 X111.889 Y92.586 E0.84856
G1 X112.614 Y93.056 E0.88879
G1 X113.461 Y93.685 E0.93792
G1 X113.686 Y93.858 E0.95114
G1 X114.233 Y94.289 E0.98356
G1 X114.793 Y94.782 E1.0183
G1 X115.377 Y95.429 E1.05889
G1 X115.989 Y96.201 E1.10476
G1 X116.222 Y96.506 E1.12263
G1 X116.623 Y97.045 E1.15392
G1 X117.036 Y97.666 E1.18864
G1 X117.421 Y98.423 E1.22819
G1 X117.82 Y99.342 E1.27484
G1 X117.969 Y99.703 E1.29303
G1 X118.202 Y100.286 E1.32226
G1 X118.441 Y100.993 E1.35701
G1 X118.621 Y101.829 E1.39683
G1 X118.774 Y102.851 E1.44495
G1 X118.816 Y103.174 E1.46012
G1 X118.898 Y103.871 E1.4928
G1 X118.946 Y104.615 E1.52751
G1 X118.902 Y105.467 E1.56724
G1 X118.778 Y106.551 E1.61804
G1 X118.738 Y106.844 E1.63181
G1 X118.643 Y107.497 E1.66254
G1 X118.497 Y108.228 E1.69725
G1 X118.232 Y109.045 E1.73724
G1 X117.863 Y109.98 E1.78405
G1 X117.719 Y110.329 E1.80163
G1 X117.459 Y110.934 E1.83229
G1 X117.128 Y111.603 E1.86705
G1 X116.657 Y112.328 E1.9073
G1 X116.064 Y113.128 E1.95367
G1 X115.834 Y113.428 E1.97128
G1 X115.411 Y113.964 E2.00307
G1 X114.918 Y114.524 E2.03781
G1 X114.448 Y114.96 E2.06766
G1 X114.084 Y115.269 E2.0899
G1 X112.103 Y116.906 E2.20956
G1 X111.334 Y117.564 E2.25669
G1 X110.743 Y118.018 E2.29139
G1 X110.106 Y118.406 E2.32612
G1 X109.431 Y118.724 E2.36086
G1 X108.726 Y118.968 E2.3956
G1 X107.999 Y119.134 E2.43032
G1 X107.021 Y119.234 E2.4761
G1 X106.482 Y119.247 E2.50121
G1 X103.796 Y119.246 E2.62628
G1 X103.093 Y119.236 E2.65902
G1 X102.349 Y119.186 E2.69374
G1 X101.614 Y119.056 E2.72849
G1 X100.898 Y118.848 E2.76321
G1 X100.208 Y118.565 E2.79794
G1 X99.552 Y118.209 E2.83269
G1 X98.747 Y117.633 E2.87879
G1 X98.272 Y117.237 E2.90758
G1 X96.934 Y116.094 E2.98952
G1 X95.979 Y115.319 E3.04679
G1 X95.614 Y115.014 E3.06894
G1 X95.068 Y114.506 E3.10367
G1 X94.627 Y114.002 E3.13485
G1 X94.014 Y113.228 E3.18083
G1 X93.76 Y112.897 E3.20025
G1 X93.375 Y112.379 E3.23031
G1 X92.963 Y111.757 E3.26505
G1 X92.577 Y111 E3.30461
G1 X92.162 Y110.042 E3.35323
G1 X92.035 Y109.732 E3.36883
G1 X91.791 Y109.118 E3.39959
G1 X91.553 Y108.411 E3.43433
G1 X91.377 Y107.59 E3.47343
G1 X91.242 Y106.698 E3.51543
G1 X91.183 Y106.25 E3.53648
G1 X91.101 Y105.551 E3.56925
G1 X91.054 Y104.806 E3.60401
G1 X91.099 Y103.952 E3.64383
G1 X91.222 Y102.878 E3.69416
G1 X91.261 Y102.585 E3.70793
G1 X91.356 Y101.931 E3.7387
G1 X91.503 Y101.2 E3.77342
G1 X91.766 Y100.387 E3.81321
G1 X92.151 Y99.41 E3.86211
G1 X92.28 Y99.103 E3.87761
G1 X92.54 Y98.497 E3.90832
G1 X92.87 Y97.828 E3.94305
G1 X93.343 Y97.098 E3.98356
G1 X93.947 Y96.284 E4.03075
G1 X94.183 Y95.978 E4.04875
G1 X94.579 Y95.477 E4.07848
G1 X95.072 Y94.918 E4.11319
M204 S3000
M205 X10 Y10
G0 F3000 X95.492 Y95.289
M204 S1800
M205 X8 Y8
G1 F2400 X96.052 Y94.787 E4.14821
G1 X96.875 Y94.133 E4.19716
G1 X97.104 Y93.958 E4.21058
G1 X97.666 Y93.54 E4.24319
G1 X98.263 Y93.146 E4.2765
G1 X98.93 Y92.808 E4.31132
G1 X99.864 Y92.402 E4.35874
G1 X100.196 Y92.265 E4.37546
G1 X100.803 Y92.024 E4.40588
G1 X101.482 Y91.797 E4.43921
G1 X102.207 Y91.644 E4.47371
G1 X103.232 Y91.49 E4.52198
G1 X103.532 Y91.452 E4.53606
G1 X104.229 Y91.37 E4.56874
G1 X104.943 Y91.326 E4.60205
G1 X105.704 Y91.367 E4.63754
G1 X106.726 Y91.485 E4.68544
G1 X107.049 Y91.528 E4.70061
G1 X107.703 Y91.623 E4.73139
G1 X108.404 Y91.766 E4.7647
G1 X109.127 Y92.002 E4.80011
G1 X110.065 Y92.372 E4.84707
G1 X110.397 Y92.51 E4.86381
G1 X110.999 Y92.769 E4.89432
G1 X111.64 Y93.088 E4.92766
G1 X112.28 Y93.506 E4.96326
G1 X113.12 Y94.13 E5.01198
G1 X113.339 Y94.298 E5.02483
G1 X113.886 Y94.729 E5.05726
G1 X114.422 Y95.202 E5.09055
G1 X114.938 Y95.777 E5.12652
G1 X115.545 Y96.544 E5.17207
G1 X115.773 Y96.84 E5.18947
G1 X116.174 Y97.379 E5.22075
G1 X116.568 Y97.976 E5.25406
G1 X116.908 Y98.646 E5.28904
G1 X117.303 Y99.556 E5.33523
G1 X117.449 Y99.911 E5.35311
G1 X117.682 Y100.494 E5.38234
G1 X117.91 Y101.172 E5.41565
G1 X118.067 Y101.913 E5.45092
G1 X118.219 Y102.925 E5.49857
G1 X118.26 Y103.239 E5.51332
G1 X118.342 Y103.936 E5.546
G1 X118.386 Y104.65 E5.57931
G1 X118.345 Y105.404 E5.61447
G1 X118.223 Y106.478 E5.6648
G1 X118.184 Y106.763 E5.67819
G1 X118.089 Y107.416 E5.70892
G1 X117.947 Y108.117 E5.74222
G1 X117.711 Y108.84 E5.77764
G1 X117.345 Y109.767 E5.82405
G1 X117.204 Y110.108 E5.84123
G1 X116.944 Y110.713 E5.87189
G1 X116.625 Y111.353 E5.90519
G1 X116.207 Y111.995 E5.94086
G1 X115.619 Y112.788 E5.98683
G1 X115.394 Y113.081 E6.00403
G1 X114.971 Y113.617 E6.03583
G1 X114.497 Y114.153 E6.06914
G1 X114.086 Y114.533 E6.09521
G1 X113.727 Y114.837 E6.11711
G1 X111.779 Y116.446 E6.23476
G1 X110.97 Y117.139 E6.28436
G1 X110.402 Y117.573 E6.31765
G1 X109.788 Y117.941 E6.35098
G1 X109.138 Y118.238 E6.38426
G1 X108.458 Y118.461 E6.41758
G1 X107.758 Y118.606 E6.45087
G1 X107.004 Y118.674 E6.48612
G1 X106.482 Y118.687 E6.51043
G1 X103.804 Y118.686 E6.63513
G1 X103.101 Y118.676 E6.66787
G1 X102.387 Y118.626 E6.7012
G1 X101.684 Y118.497 E6.73448
G1 X100.999 Y118.29 E6.7678
G1 X100.342 Y118.007 E6.80111
G1 X99.721 Y117.654 E6.83437
G1 X99.105 Y117.202 E6.86995
G1 X98.635 Y116.811 E6.89842
G1 X97.277 Y115.651 E6.98158
G1 X96.338 Y114.889 E7.03789
G1 X95.973 Y114.584 E7.06004
G1 X95.451 Y114.096 E7.09331
G1 X95.066 Y113.654 E7.12061
G1 X94.458 Y112.887 E7.16618
G1 X94.209 Y112.563 E7.18521
G1 X93.824 Y112.045 E7.21526
G1 X93.43 Y111.448 E7.24857
G1 X93.091 Y110.777 E7.28357
G1 X92.68 Y109.828 E7.33173
G1 X92.555 Y109.526 E7.34695
G1 X92.311 Y108.912 E7.37771
G1 X92.085 Y108.233 E7.41104
G1 X91.931 Y107.506 E7.44564
G1 X91.796 Y106.614 E7.48765
G1 X91.74 Y106.185 E7.50779
G1 X91.658 Y105.486 E7.54057
G1 X91.614 Y104.772 E7.57388
G1 X91.655 Y104.015 E7.60918
G1 X91.777 Y102.951 E7.65905
G1 X91.815 Y102.666 E7.67243
G1 X91.91 Y102.012 E7.70321
G1 X92.053 Y101.311 E7.73652
G1 X92.287 Y100.592 E7.77173
G1 X92.668 Y99.625 E7.82012
G1 X92.794 Y99.324 E7.83532
G1 X93.054 Y98.718 E7.86602
G1 X93.373 Y98.077 E7.89936
G1 X93.793 Y97.432 E7.9352
G1 X94.392 Y96.625 E7.982
G1 X94.622 Y96.325 E7.9996
G1 X95.018 Y95.824 E8.02934
G1 X95.492 Y95.289 E8.06262
M204 S3000
M205 X10 Y10
G0 F3000 X95.912 Y95.661
M204 S1800
M205 X8 Y8
G1 F2400 X96.401 Y95.225 E8.09313
G1 X97.215 Y94.577 E8.14158
G1 X97.439 Y94.407 E8.15467
G1 X98.001 Y93.989 E8.18728
G1 X98.572 Y93.614 E8.21909
G1 X99.154 Y93.321 E8.24943
G1 X100.079 Y92.919 E8.2964
G1 X100.403 Y92.785 E8.31272
G1 X101.01 Y92.544 E8.34313
G1 X101.659 Y92.33 E8.37496
G1 X102.291 Y92.198 E8.40502
G1 X103.304 Y92.046 E8.45272
G1 X103.598 Y92.008 E8.46652
G1 X104.295 Y91.926 E8.4992
G1 X104.977 Y91.886 E8.53101
G1 X105.64 Y91.924 E8.56193
G1 X106.653 Y92.04 E8.60941
G1 X106.969 Y92.083 E8.62426
G1 X107.623 Y92.178 E8.65503
G1 X108.292 Y92.315 E8.68683
G1 X108.922 Y92.523 E8.71772
G1 X109.851 Y92.889 E8.76422
G1 X110.176 Y93.024 E8.78061
G1 X110.778 Y93.283 E8.81112
G1 X111.389 Y93.59 E8.84296
G1 X111.947 Y93.956 E8.87403
G1 X112.779 Y94.574 E8.92229
G1 X112.992 Y94.738 E8.93481
G1 X113.539 Y95.169 E8.96724
G1 X114.05 Y95.622 E8.99904
G1 X114.499 Y96.125 E9.03043
G1 X115.102 Y96.886 E9.07564
G1 X115.324 Y97.174 E9.09258
G1 X115.725 Y97.713 E9.12386
G1 X116.1 Y98.284 E9.15567
G1 X116.394 Y98.87 E9.1862
G1 X116.785 Y99.771 E9.23193
G1 X116.929 Y100.119 E9.24947
G1 X117.162 Y100.702 E9.2787
G1 X117.378 Y101.35 E9.31051
G1 X117.513 Y101.996 E9.34124
G1 X117.664 Y102.999 E9.38847
G1 X117.704 Y103.305 E9.40284
G1 X117.786 Y104.002 E9.43552
G1 X117.826 Y104.684 E9.46733
G1 X117.789 Y105.341 E9.49797
G1 X117.668 Y106.404 E9.54779
G1 X117.63 Y106.683 E9.5609
G1 X117.535 Y107.336 E9.59162
G1 X117.397 Y108.005 E9.62343
G1 X117.19 Y108.635 E9.65431
G1 X116.827 Y109.554 E9.70032
G1 X116.69 Y109.887 E9.71709
G1 X116.43 Y110.492 E9.74775
G1 X116.123 Y111.103 E9.77959
G1 X115.757 Y111.661 E9.81066
G1 X115.174 Y112.447 E9.85623
G1 X114.954 Y112.734 E9.87307
G1 X114.531 Y113.27 E9.90486
G1 X114.077 Y113.781 E9.93669
G1 X113.428 Y114.357 E9.9771
G1 X111.395 Y116.038 E10.09993
G1 X110.606 Y116.713 E10.14828
G1 X110.062 Y117.127 E10.18012
G1 X109.473 Y117.473 E10.21192
G1 X108.848 Y117.749 E10.24374
G1 X108.195 Y117.95 E10.27555
G1 X107.523 Y118.073 E10.30736
G1 X106.987 Y118.114 E10.33239
G1 X106.482 Y118.127 E10.35592
G1 X103.812 Y118.126 E10.48024
G1 X103.109 Y118.116 E10.51298
G1 X102.428 Y118.067 E10.54477
G1 X101.757 Y117.938 E10.57659
G1 X101.105 Y117.731 E10.60844
G1 X100.482 Y117.45 E10.64027
G1 X99.897 Y117.099 E10.67203
G1 X99.462 Y116.771 E10.6974
G1 X98.999 Y116.386 E10.72544
G1 X97.612 Y115.201 E10.81039
G1 X96.697 Y114.459 E10.86524
G1 X96.332 Y114.154 E10.88739
G1 X95.835 Y113.686 E10.91918
G1 X95.504 Y113.306 E10.94264
G1 X94.902 Y112.546 E10.98779
G1 X94.659 Y112.229 E11.00639
G1 X94.274 Y111.711 E11.03644
G1 X93.899 Y111.139 E11.06829
G1 X93.604 Y110.553 E11.09884
G1 X93.197 Y109.614 E11.14649
G1 X93.076 Y109.319 E11.16134
G1 X92.832 Y108.705 E11.19211
G1 X92.617 Y108.056 E11.22394
G1 X92.485 Y107.422 E11.2541
G1 X92.332 Y106.403 E11.30208
G1 X92.296 Y106.119 E11.31541
G1 X92.214 Y105.42 E11.34818
G1 X92.174 Y104.738 E11.37999
G1 X92.212 Y104.078 E11.41077
G1 X92.333 Y103.024 E11.46017
G1 X92.37 Y102.746 E11.47323
G1 X92.465 Y102.092 E11.50401
G1 X92.602 Y101.423 E11.5358
G1 X92.808 Y100.796 E11.56653
G1 X93.14 Y99.951 E11.60881
G1 X93.309 Y99.544 E11.62933
G1 X93.569 Y98.938 E11.66004
G1 X93.875 Y98.327 E11.69185
G1 X94.243 Y97.765 E11.72313
G1 X94.836 Y96.965 E11.7695
G1 X95.061 Y96.673 E11.78667
G1 X95.457 Y96.172 E11.81641
G1 X95.912 Y95.661 E11.84826
M204 S3000
M205 X10 Y10
G0 F3000 X96.33 Y96.035
M204 S1800
M205 X8 Y8
G1 F2400 X96.75 Y95.663 E11.87439
G1 X97.556 Y95.022 E11.92234
G1 X97.773 Y94.856 E11.93506
G1 X98.335 Y94.438 E11.96768
G1 X98.879 Y94.083 E11.99793
G1 X99.377 Y93.834 E12.02385
G1 X100.293 Y93.436 E12.07036
G1 X100.61 Y93.306 E12.08631
G1 X101.217 Y93.065 E12.11672
G1 X101.834 Y92.863 E12.14695
G1 X102.375 Y92.751 E12.17268
G1 X103.376 Y92.601 E12.21981
G1 X103.663 Y92.564 E12.23328
G1 X104.36 Y92.482 E12.26596
G1 X105.009 Y92.446 E12.29623
G1 X105.577 Y92.48 E12.32272
G1 X106.579 Y92.596 E12.36969
G1 X106.888 Y92.637 E12.38421
G1 X107.542 Y92.732 E12.41498
G1 X108.178 Y92.865 E12.44524
G1 X108.717 Y93.044 E12.47168
G1 X109.637 Y93.407 E12.51773
G1 X109.955 Y93.539 E12.53377
G1 X110.557 Y93.798 E12.56428
G1 X111.137 Y94.091 E12.59454
G1 X111.614 Y94.406 E12.62116
G1 X112.438 Y95.018 E12.66895
G1 X112.646 Y95.178 E12.68117
G1 X113.193 Y95.609 E12.7136
G1 X113.677 Y96.041 E12.74381
G1 X114.061 Y96.474 E12.77076
G1 X114.659 Y97.228 E12.81557
G1 X114.874 Y97.508 E12.83201
G1 X115.275 Y98.047 E12.86329
G1 X115.63 Y98.591 E12.89353
G1 X115.881 Y99.093 E12.91967
G1 X116.268 Y99.985 E12.96495
G1 X116.409 Y100.327 E12.98217
G1 X116.642 Y100.91 E13.01141
G1 X116.845 Y101.526 E13.04161
G1 X116.96 Y102.08 E13.06795
G1 X117.109 Y103.073 E13.11471
G1 X117.148 Y103.37 E13.12866
G1 X117.23 Y104.067 E13.16134
G1 X117.266 Y104.716 E13.1916
G1 X117.232 Y105.278 E13.21782
G1 X117.112 Y106.331 E13.26717
G1 X117.076 Y106.602 E13.2799
G1 X116.981 Y107.255 E13.31062
G1 X116.848 Y107.891 E13.34088
G1 X116.669 Y108.43 E13.36733
G1 X116.309 Y109.341 E13.41294
G1 X116.175 Y109.666 E13.42931
G1 X115.915 Y110.271 E13.45997
G1 X115.622 Y110.851 E13.49023
G1 X115.307 Y111.328 E13.51685
G1 X114.73 Y112.107 E13.56199
G1 X114.515 Y112.387 E13.57842
G1 X114.092 Y112.923 E13.61022
G1 X113.659 Y113.407 E13.64046
G1 X113.066 Y113.93 E13.67727
G1 X111.038 Y115.606 E13.79978
G1 X110.242 Y116.288 E13.84859
G1 X109.723 Y116.679 E13.87885
G1 X109.161 Y117.004 E13.90908
G1 X108.562 Y117.257 E13.93936
G1 X107.938 Y117.435 E13.96957
G1 X107.296 Y117.534 E13.99982
G1 X106.644 Y117.565 E14.03021
G1 X106.482 Y117.567 E14.03776
G1 X103.82 Y117.566 E14.16171
G1 X103.117 Y117.556 E14.19445
G1 X102.469 Y117.507 E14.22471
G1 X101.832 Y117.379 E14.25496
G1 X101.216 Y117.173 E14.28521
G1 X100.63 Y116.894 E14.31543
G1 X100.082 Y116.544 E14.34571
G1 X99.82 Y116.34 E14.36117
G1 X99.363 Y115.96 E14.38884
G1 X97.974 Y114.773 E14.47392
G1 X97.056 Y114.03 E14.52891
G1 X96.691 Y113.725 E14.55106
G1 X96.219 Y113.278 E14.58133
G1 X95.943 Y112.957 E14.60104
G1 X95.346 Y112.205 E14.64575
G1 X95.108 Y111.895 E14.66395
G1 X94.723 Y111.377 E14.69401
G1 X94.369 Y110.832 E14.72427
G1 X94.118 Y110.33 E14.7504
G1 X93.715 Y109.4 E14.7976
G1 X93.596 Y109.112 E14.81211
G1 X93.352 Y108.498 E14.84287
G1 X93.15 Y107.881 E14.8731
G1 X93.038 Y107.338 E14.89892
G1 X92.887 Y106.332 E14.94629
G1 X92.852 Y106.054 E14.95933
G1 X92.77 Y105.355 E14.99211
G1 X92.734 Y104.707 E15.02233
G1 X92.768 Y104.142 E15.04868
G1 X92.888 Y103.097 E15.09766
G1 X92.924 Y102.827 E15.11035
G1 X93.019 Y102.173 E15.14112
G1 X93.152 Y101.537 E15.17137
G1 X93.33 Y101.001 E15.19767
G1 X93.702 Y100.056 E15.24496
G1 X93.824 Y99.765 E15.25965
G1 X94.084 Y99.159 E15.29036
G1 X94.376 Y98.579 E15.3206
G1 X94.693 Y98.098 E15.34742
G1 X95.281 Y97.306 E15.39335
G1 X95.501 Y97.02 E15.41015
G1 X95.897 Y96.519 E15.43989
G1 X96.33 Y96.035 E15.47013
M204 S3000
M205 X10 Y10
G1 F2400 E9.47013
;MESH:button..stl
G0 F3000 X99.735 Y99.169
G0 X100.662 Y100.376
G0 X105 Y99.79
G0 X106.273 Y99.958
G0 X107.341 Y100.4
G0 X109.718 Y101.986
M204 S1800
M205 X8 Y8
;TYPE:WALL-INNER
G1 F2400 E15.47013
G1 F1500 X108.844 Y100.854 E15.53672
G1 X107.723 Y99.995 E15.60248
G1 X106.409 Y99.45 E15.66872
G1 X105 Y99.265 E15.7349
G1 X103.711 Y99.435 E15.79544
G1 X103.585 Y99.463 E15.80145
G1 X103.522 Y99.477 E15.80445
G1 X102.275 Y99.996 E15.86735
G1 X101.15 Y100.86 E15.9334
G1 X100.281 Y101.986 E15.99963
G1 X99.735 Y103.303 E16.06601
G1 X99.55 Y104.714 E16.13228
G1 X99.74 Y106.135 E16.19903
G1 X100.282 Y107.441 E16.26488
G1 X101.156 Y108.573 E16.33147
G1 X102.277 Y109.432 E16.39723
G1 X103.601 Y109.979 E16.46394
G1 X104.643 Y110.114 E16.51286
G1 X105.012 Y110.162 E16.53019
G1 X105.355 Y110.116 E16.5463
G1 X106.421 Y109.973 E16.59638
G1 X107.725 Y109.431 E16.66214
G1 X108.85 Y108.567 E16.72819
G1 X109.719 Y107.441 E16.79442
G1 X110.265 Y106.124 E16.86081
