;FLAVOR:Marlin
;TIME:713
;Filament used: 0.691776m
;Layer height: 0.2
;MINX:88.351
;MINY:94.007
;MINZ:0.2
;MAXX:121.648
;MAXY:116.004
;MAXZ:20
;Generated with Cura_SteamEngine 4.8.0
M140 S60
M105
M190 S60
M104 S200
M105
M109 S200
M82 ;absolute extrusion mode
; Script based on an original created by tjjfvi (https://github.com/tjjfvi)
; An up-to-date version of the tjjfvi's original script can be found
; here:  https://csi.t6.fyi/
; Note - This script will only work in Cura V4.2 and above!
; --- Global Settings
; layer_height = 0.2
; smooth_spiralized_contours = True
; magic_mesh_surface_mode = normal
; machine_extruder_count = 1
; --- Single Extruder Settings
; speed_z_hop = 10
; retraction_amount = 6
; retraction_hop = 0.075
; retraction_hop_enabled = True
; retraction_enable = True
; retraction_speed = 40
; retraction_retract_speed = 40
; retraction_prime_speed = 40
; speed_travel = 100


G21 ;metric values
G90 ;absolute positioning
M82 ;set extruder to absolute mode
M107 ;start with the fan off
G28 X0 Y0 ;move X/Y to min endstops
G28 Z0 ;move Z to min endstops
G1 Z15.0 F100 ;move the platform down 15mm
G92 E0 ;zero the extruded length
G1 F200 E3 ;extrude 3mm of feed stock
G92 E0 ;zero the extruded length again
G1 F100
G0 Y20 F100
M117 Printing...
G5
G92 E0
G92 E0
G1 F2400 E-6
;LAYER_COUNT:100
;LAYER:0
M106 S255
M204 S3000
M205 X10 Y10
G1 F600 Z0.275
G0 F3000 X90.882 Y97.868 Z0.275
M204 S1800
M205 X8 Y8
;TYPE:SKIRT
G1 F600 Z0.2
G1 F2400 E0
G1 X91.091 Y97.689 E0.01281
G1 X91.659 Y97.255 E0.0461
G1 X92.533 Y96.757 E0.09294
G1 X95.135 Y95.535 E0.2268
G1 X96.059 Y95.076 E0.27484
G1 X96.359 Y94.936 E0.29025
G1 X96.954 Y94.678 E0.32045
G1 X97.264 Y94.552 E0.33603
G1 X97.942 Y94.324 E0.36934
G1 X98.684 Y94.168 E0.40465
G1 X99.356 Y94.071 E0.43626
G1 X99.558 Y94.048 E0.44573
G1 X100.272 Y94.007 E0.47903
G1 X100.999 Y94.047 E0.51293
G1 X101.698 Y94.13 E0.54571
G1 X101.894 Y94.159 E0.55494
G1 X102.604 Y94.306 E0.5887
G1 X102.736 Y94.341 E0.59506
G1 X105.351 Y94.989 E0.7205
G1 X107.973 Y95.563 E0.84549
G1 X110.23 Y95.99 E0.95245
G1 X111.114 Y96.148 E0.99426
G1 X111.81 Y96.312 E1.02756
G1 X112.341 Y96.495 E1.05371
G1 X112.579 Y96.589 E1.06563
G1 X113.229 Y96.889 E1.09896
G1 X114.046 Y97.406 E1.14398
G1 X114.272 Y97.574 E1.15709
G1 X114.821 Y98.032 E1.19039
G1 X115.09 Y98.298 E1.208
G1 X115.607 Y98.842 E1.24295
G1 X116.496 Y99.804 E1.30394
G1 X119.121 Y102.457 E1.47772
G1 X119.708 Y103.029 E1.51589
G1 X120.191 Y103.556 E1.54918
G1 X120.613 Y104.133 E1.58246
G1 X120.967 Y104.755 E1.61579
G1 X121.25 Y105.412 E1.6491
G1 X121.458 Y106.096 E1.68239
G1 X121.588 Y106.799 E1.71568
G1 X121.634 Y107.323 E1.74017
G1 X121.648 Y107.949 E1.76933
G1 X121.639 Y108.679 E1.80332
G1 X121.582 Y109.447 E1.83918
G1 X121.483 Y110.042 E1.86727
G1 X121.423 Y110.322 E1.8806
G1 X121.234 Y111.012 E1.91391
G1 X120.97 Y111.676 E1.94719
G1 X120.634 Y112.306 E1.98043
G1 X120.333 Y112.774 E2.00634
G1 X120.191 Y112.977 E2.01788
G1 X119.749 Y113.54 E2.05121
G1 X119.247 Y114.049 E2.0845
G1 X118.501 Y114.631 E2.12856
G1 X118.218 Y114.82 E2.1444
G1 X117.602 Y115.184 E2.17772
G1 X116.95 Y115.476 E2.21098
G1 X116.471 Y115.638 E2.23453
G1 X116.189 Y115.721 E2.24822
G1 X115.493 Y115.884 E2.2815
G1 X114.499 Y115.98 E2.328
G1 X113.455 Y115.998 E2.37662
G1 X96.423 Y116.004 E3.16971
G1 X95.88 Y115.996 E3.19499
G1 X95.015 Y115.943 E3.23535
G1 X94.306 Y115.85 E3.26864
G1 X93.612 Y115.679 E3.30192
G1 X92.892 Y115.409 E3.33773
G1 X92.233 Y115.089 E3.37184
G1 X91.615 Y114.728 E3.40517
G1 X91.042 Y114.3 E3.43847
G1 X90.427 Y113.712 E3.47809
G1 X90.033 Y113.266 E3.5058
G1 X89.598 Y112.697 E3.53915
G1 X89.231 Y112.084 E3.57242
G1 X88.894 Y111.329 E3.61092
G1 X88.694 Y110.75 E3.63944
G1 X88.511 Y110.059 E3.67273
G1 X88.4 Y109.275 E3.7096
G1 X88.365 Y108.673 E3.73768
G1 X88.351 Y107.779 E3.77931
G1 X88.352 Y104.04 E3.95342
G1 X88.363 Y103.333 E3.98634
G1 X88.403 Y102.711 E4.01536
G1 X88.434 Y102.438 E4.02816
G1 X88.554 Y101.733 E4.06146
G1 X88.752 Y101.046 E4.09475
G1 X89.022 Y100.394 E4.12761
G1 X89.184 Y100.056 E4.14506
G1 X89.528 Y99.429 E4.17836
G1 X89.941 Y98.845 E4.21167
G1 X90.356 Y98.371 E4.24101
G1 X90.446 Y98.278 E4.24703
G1 X90.882 Y97.868 E4.2749
M204 S3000
M205 X10 Y10
G0 F3000 X91.246 Y98.293
M204 S1800
M205 X8 Y8
G1 F2400 X91.455 Y98.114 E4.28771
G1 X91.999 Y97.701 E4.31952
G1 X92.771 Y97.264 E4.36082
G1 X95.353 Y96.051 E4.49366
G1 X96.308 Y95.577 E4.5433
G1 X96.582 Y95.45 E4.55737
G1 X97.177 Y95.192 E4.58757
G1 X97.471 Y95.072 E4.60235
G1 X98.12 Y94.857 E4.63419
G1 X98.767 Y94.722 E4.66496
G1 X99.419 Y94.627 E4.69564
G1 X99.621 Y94.604 E4.70511
G1 X100.304 Y94.567 E4.73696
G1 X100.936 Y94.604 E4.76644
G1 X101.616 Y94.684 E4.79832
G1 X101.812 Y94.713 E4.80755
G1 X102.46 Y94.847 E4.83836
G1 X102.58 Y94.879 E4.84414
G1 X105.24 Y95.538 E4.97175
G1 X107.852 Y96.109 E5.09625
G1 X110.12 Y96.539 E5.20373
G1 X111.016 Y96.699 E5.24612
G1 X111.68 Y96.858 E5.27791
G1 X112.373 Y97.11 E5.31224
G1 X112.993 Y97.398 E5.34408
G1 X113.712 Y97.855 E5.38375
G1 X113.938 Y98.023 E5.39686
G1 X114.684 Y98.684 E5.44327
G1 X115.196 Y99.222 E5.47785
G1 X116.097 Y100.197 E5.53967
G1 X118.7 Y102.827 E5.71197
G1 X119.317 Y103.429 E5.75211
G1 X119.777 Y103.934 E5.78392
G1 X120.176 Y104.489 E5.81575
G1 X120.506 Y105.087 E5.84755
G1 X120.765 Y105.719 E5.87936
G1 X120.948 Y106.378 E5.9112
G1 X121.074 Y107.348 E5.95675
G1 X121.088 Y107.955 E5.98502
G1 X121.079 Y108.671 E6.01837
G1 X121.027 Y109.372 E6.0511
G1 X120.935 Y109.925 E6.0772
G1 X120.875 Y110.205 E6.09053
G1 X120.693 Y110.863 E6.12232
G1 X120.436 Y111.496 E6.15414
G1 X120.155 Y112.015 E6.18162
G1 X119.874 Y112.453 E6.20585
G1 X119.732 Y112.656 E6.21739
G1 X119.309 Y113.192 E6.24918
G1 X118.825 Y113.675 E6.28102
G1 X118.19 Y114.166 E6.3184
G1 X117.907 Y114.355 E6.33424
G1 X117.318 Y114.7 E6.36603
G1 X116.692 Y114.974 E6.39785
G1 X116.031 Y115.183 E6.43013
G1 X115.365 Y115.338 E6.46197
G1 X114.489 Y115.42 E6.50294
G1 X113.454 Y115.438 E6.55114
G1 X96.431 Y115.444 E7.3438
G1 X95.888 Y115.436 E7.36909
G1 X95.057 Y115.385 E7.40785
G1 X94.38 Y115.294 E7.43966
G1 X93.718 Y115.125 E7.47148
G1 X93.119 Y114.898 E7.5013
G1 X92.488 Y114.59 E7.534
G1 X91.899 Y114.244 E7.56581
G1 X91.355 Y113.831 E7.59761
G1 X90.84 Y113.334 E7.63094
G1 X90.458 Y112.901 E7.65782
G1 X90.045 Y112.357 E7.68963
G1 X89.698 Y111.769 E7.72142
G1 X89.419 Y111.134 E7.75372
G1 X89.227 Y110.577 E7.78115
G1 X89.054 Y109.916 E7.81297
G1 X88.958 Y109.231 E7.84517
G1 X88.925 Y108.664 E7.87162
G1 X88.911 Y107.779 E7.91283
G1 X88.912 Y104.049 E8.08652
G1 X88.923 Y103.342 E8.11944
G1 X88.959 Y102.774 E8.14595
G1 X88.99 Y102.501 E8.15874
G1 X89.107 Y101.828 E8.19055
G1 X89.301 Y101.173 E8.22236
G1 X89.527 Y100.636 E8.24949
G1 X89.689 Y100.298 E8.26694
G1 X90.019 Y99.7 E8.29874
G1 X90.418 Y99.145 E8.33057
G1 X90.758 Y98.761 E8.35445
G1 X90.848 Y98.668 E8.36048
G1 X91.246 Y98.293 E8.38594
M204 S3000
M205 X10 Y10
G0 F3000 X91.819 Y98.54
M204 S1800
M205 X8 Y8
G1 F2400 X92.338 Y98.148 E8.41623
G1 X93.009 Y97.771 E8.45207
G1 X95.608 Y96.55 E8.58578
G1 X96.557 Y96.079 E8.63511
G1 X96.804 Y95.964 E8.6478
G1 X97.399 Y95.706 E8.67799
G1 X97.678 Y95.592 E8.69203
G1 X98.296 Y95.389 E8.72232
G1 X98.85 Y95.275 E8.74865
G1 X99.483 Y95.184 E8.77843
G1 X99.685 Y95.161 E8.7879
G1 X100.333 Y95.127 E8.81811
G1 X100.873 Y95.16 E8.84331
G1 X101.534 Y95.238 E8.8743
G1 X101.73 Y95.267 E8.88352
G1 X102.316 Y95.388 E8.91139
G1 X102.464 Y95.427 E8.91851
G1 X105.094 Y96.079 E9.04468
G1 X107.738 Y96.658 E9.17072
G1 X110.009 Y97.088 E9.27834
G1 X110.918 Y97.25 E9.32134
G1 X111.549 Y97.403 E9.35157
G1 X112.168 Y97.631 E9.38229
G1 X112.756 Y97.907 E9.41253
G1 X113.378 Y98.305 E9.44692
G1 X113.604 Y98.473 E9.46003
G1 X114.279 Y99.07 E9.50199
G1 X114.784 Y99.602 E9.53615
G1 X115.683 Y100.575 E9.59783
G1 X118.307 Y103.226 E9.77152
G1 X118.926 Y103.83 E9.81179
G1 X119.362 Y104.312 E9.84205
G1 X119.736 Y104.843 E9.8723
G1 X120.042 Y105.416 E9.90254
G1 X120.275 Y106.022 E9.93278
G1 X120.432 Y106.653 E9.96305
G1 X120.515 Y107.373 E9.9968
G1 X120.528 Y107.961 E10.02419
G1 X120.519 Y108.663 E10.05688
G1 X120.472 Y109.297 E10.08648
G1 X120.388 Y109.807 E10.11055
G1 X120.328 Y110.087 E10.12388
G1 X120.153 Y110.713 E10.15415
G1 X119.902 Y111.312 E10.18439
G1 X119.601 Y111.849 E10.21306
G1 X119.274 Y112.335 E10.24033
G1 X118.869 Y112.844 E10.27062
G1 X118.405 Y113.299 E10.30088
G1 X117.879 Y113.7 E10.33168
G1 X117.596 Y113.889 E10.34753
G1 X117.035 Y114.216 E10.37776
G1 X116.155 Y114.563 E10.42181
G1 X115.873 Y114.646 E10.4355
G1 X115.24 Y114.791 E10.46574
G1 X114.479 Y114.86 E10.50132
G1 X113.454 Y114.878 E10.54905
G1 X96.439 Y114.884 E11.34134
G1 X95.896 Y114.876 E11.36663
G1 X95.099 Y114.826 E11.40381
G1 X94.455 Y114.738 E11.43408
G1 X93.827 Y114.572 E11.46433
G1 X93.347 Y114.386 E11.4883
G1 X92.743 Y114.092 E11.51958
G1 X92.184 Y113.761 E11.54983
G1 X91.67 Y113.364 E11.58007
G1 X91.253 Y112.956 E11.60723
G1 X90.883 Y112.537 E11.63326
G1 X90.492 Y112.019 E11.66348
G1 X90.167 Y111.456 E11.69375
G1 X89.944 Y110.939 E11.71997
G1 X89.759 Y110.404 E11.74633
G1 X89.596 Y109.775 E11.77659
G1 X89.516 Y109.187 E11.80422
G1 X89.485 Y108.655 E11.82903
G1 X89.471 Y107.779 E11.86983
G1 X89.472 Y104.058 E12.04309
G1 X89.483 Y103.351 E12.07602
G1 X89.516 Y102.837 E12.1
G1 X89.547 Y102.564 E12.11279
G1 X89.66 Y101.925 E12.14301
G1 X89.85 Y101.303 E12.17329
G1 X90.194 Y100.54 E12.21227
G1 X90.51 Y99.973 E12.24249
G1 X90.893 Y99.448 E12.27275
G1 X91.251 Y99.057 E12.29744
G1 X91.819 Y98.54 E12.3332
M204 S3000
M205 X10 Y10
G1 F2400 E6.3332
;MESH:clip_filamento.stl
G0 F3000 X94.666 Y102.177
G0 X95.489 Y103.177
G0 X95.91 Y103.566
M204 S1800
M205 X8 Y8
;TYPE:WALL-INNER
G1 F2400 E12.3332
G1 F1500 X95.91 Y108.446 E12.56044
G1 X114.269 Y108.446 E13.41531
G1 X114.381 Y108.446 E13.42052
G1 X114.409 Y108.446 E13.42183
G1 X114.381 Y108.664 E13.42748
G1 X114.269 Y108.758 E13.43132
G1 X95.911 Y108.764 E13.91215
G1 X95.888 Y108.765 E13.91322
G1 X95.85 Y108.758 E13.91463
G1 X95.663 Y108.721 E13.92179
G1 X95.603 Y108.563 E13.92966
G1 X95.591 Y108.531 E13.93092
G1 X95.591 Y108.446 E13.93405
G1 X95.591 Y103.566 E14.06349
G1 X95.591 Y103.477 E14.06763
G1 X95.638 Y103.317 E14.0754
G1 X95.795 Y103.259 E14.08319
G1 X95.826 Y103.247 E14.08474
G1 X95.909 Y103.247 E14.0886
G1 X98.46 Y103.246 E14.20739
G1 X98.46 Y103.566 E14.22229
G1 X95.91 Y103.566 E14.28992
M204 S3000
M205 X10 Y10
G0 F3000 X99.024 Y102.566
G0 X99.639 Y101.761
G0 X100.64 Y101.629
G0 X101.445 Y102.246
G0 X109.742 Y103.559
M204 S1800
M205 X8 Y8
G1 F1500 X109.695 Y103.566 E14.29213
G1 X102.14 Y103.566 E14.64392
G1 X102.14 Y103.246 E14.65882
G1 X109.697 Y103.246 E14.85992
G1 X109.808 Y103.292 E14.86552
G1 X109.846 Y103.308 E14.86645
G1 X109.883 Y103.442 E14.87293
G1 X109.752 Y103.558 E14.87773
G1 X109.742 Y103.559
M204 S3000
M205 X10 Y10
G0 F3000 X101.619 Y102.886
G0 X101.233 Y101.969
G0 X100.3 Y101.584
G0 X96.01 Y104.126
G0 X96.47 Y104.126
M204 S1800
M205 X8 Y8
;TYPE:WALL-OUTER
G1 F1500 X96.47 Y107.886 E15.05281
G1 X114.03 Y107.886 E15.87048
G1 X114.03 Y107.652 E15.88138
G1 X114.03 Y107.651 E15.88142
G1 X114.03 Y107.129 E15.90573
G1 X114.465 Y107.419 E15.91934
G1 X114.97 Y107.756 E15.94761
G1 X114.969 Y108.578 E15.98588
G1 X114.91 Y108.881 E16.00026
G1 X114.755 Y109.112 E16.01321
G1 X114.515 Y109.272 E16.02664
G1 X114.345 Y109.318 E16.03484
G1 X95.859 Y109.325 E16.89563
G1 X95.566 Y109.298 E16.90933
G1 X95.316 Y109.174 E16.92232
G1 X95.131 Y108.963 E16.93539
G1 X95.031 Y108.607 E16.95261
G1 X95.031 Y103.448 E17.19283
G1 X95.056 Y103.229 E17.2031
G1 X95.184 Y102.971 E17.21651
G1 X95.393 Y102.787 E17.22947
G1 X95.75 Y102.687 E17.24674
G1 X98.098 Y102.686 E17.35607
G1 X98.146 Y102.329 E17.37284
G1 X98.369 Y101.792 E17.39992
G1 X98.727 Y101.326 E17.42728
G1 X99.186 Y100.975 E17.45419
G1 X99.726 Y100.752 E17.48139
G1 X100.3 Y100.677 E17.50834
G1 X100.878 Y100.752 E17.53548
G1 X101.416 Y100.975 E17.5626
G1 X101.879 Y101.331 E17.5898
G1 X102.232 Y101.792 E17.61683
G1 X102.455 Y102.33 E17.64395
G1 X102.503 Y102.686 E17.66068
G1 X109.735 Y102.686 E17.99743
G1 X109.934 Y102.713 E18.00678
G1 X110.256 Y102.897 E18.02405
G1 X110.443 Y103.22 E18.04143
G1 X110.443 Y103.592 E18.05875
G1 X110.257 Y103.914 E18.07607
G1 X109.936 Y104.099 E18.09332
G1 X109.728 Y104.126 E18.10309
G1 X101.882 Y104.126 E18.46843
G1 X101.58 Y103.825 E18.48828
G1 X101.58 Y102.888 E18.53191
G1 X101.539 Y102.575 E18.54661
G1 X101.411 Y102.265 E18.56223
G1 X101.205 Y101.997 E18.57797
G1 X100.938 Y101.794 E18.59359
G1 X100.63 Y101.667 E18.6091
G1 X100.3 Y101.624 E18.6246
G1 X99.971 Y101.667 E18.64005
G1 X99.659 Y101.795 E18.65575
G1 X99.391 Y102.002 E18.67152
G1 X99.189 Y102.267 E18.68703
G1 X99.062 Y102.576 E18.70259
G1 X99.02 Y102.892 E18.71743
G1 X99.02 Y103.825 E18.76088
G1 X98.719 Y104.126 E18.7807
G1 X96.47 Y104.126 E18.88542
M204 S3000
M205 X10 Y10
G0 F3000 X96.47 Y104.326
G0 X96.01 Y104.326
G0 X98.349 Y103.147
G0 X98.404 Y102.929
M204 S1800
M205 X8 Y8
;TYPE:SKIN
G1 F1500 X98.562 Y102.805 E18.89236
G1 X98.736 Y102.13 E18.91642
G1 X99.251 Y101.514 E18.94415
G1 X99.818 Y101.232 E18.96601
G1 X100.327 Y101.175 E18.98369
G1 X100.662 Y101.228 E18.9954
M204 S3000
M205 X10 Y10
G0 F3000 X101.173 Y101.173
M204 S1800
M205 X8 Y8
G1 F1500 X102.032 Y102.032 E19.01561
M204 S3000
M205 X10 Y10
G0 F3000 X101.978 Y102.544
M204 S1800
M205 X8 Y8
G1 F1500 X101.982 Y102.831 E19.03516
M204 S3000
M205 X10 Y10
G0 F3000 X102.198 Y102.48
M204 S1800
M205 X8 Y8
G1 F1500 X100.728 Y101.01 E19.06974
M204 S3000
M205 X10 Y10
;MESH:NONMESH
G0 F600 X100.728 Y101.01 Z0.4
G0 F3000 X98.385 Y102.545
G0 X96.01 Y103.806
G0 X96.15 Y103.806
;TIME_ELAPSED:19.132434
;LAYER:1
M204 S1800
M205 X8 Y8
;TYPE:WALL-INNER
;MESH:clip_filamento.stl
G1 F2250 X96.15 Y108.206 E19.21608
G1 X114.3 Y108.206 E19.81975
G1 X114.35 Y108.206 E19.82142
G1 X114.35 Y107.927 E19.8307
G1 X114.35 Y107.727 E19.83735
G1 X114.571 Y107.874 E19.84127
G1 X114.65 Y107.927 E19.84314
G1 X114.65 Y108.206 E19.8501
G1 X114.65 Y108.256 E19.85162
G1 X114.649 Y108.548 E19.86133
G1 X114.608 Y108.756 E19.86838
G1 X114.525 Y108.88 E19.87334
G1 X114.302 Y108.998 E19.88173
G1 X96.051 Y109.005 E20.48877
G1 X95.647 Y108.98 E20.50223
G1 X95.516 Y108.915 E20.50709
G1 X95.42 Y108.807 E20.5119
G1 X95.351 Y108.547 E20.52084
G1 X95.351 Y103.513 E20.68828
G1 X95.37 Y103.316 E20.69486
G1 X95.442 Y103.17 E20.70027
G1 X95.548 Y103.077 E20.70496
G1 X95.81 Y103.007 E20.71398
G1 X98.34 Y103.006 E20.79813
G1 X98.379 Y103.006 E20.79943
G1 X98.4 Y102.843 E20.80489
G1 X98.451 Y102.46 E20.81775
G1 X98.457 Y102.416 E20.81922
G1 X98.47 Y102.384 E20.82037
G1 X98.631 Y101.995 E20.83437
G1 X98.649 Y101.952 E20.83592
G1 X98.668 Y101.927 E20.83697
G1 X98.923 Y101.595 E20.85089
G1 X98.952 Y101.558 E20.85246
G1 X98.977 Y101.539 E20.8535
G1 X99.318 Y101.276 E20.86782
G1 X99.346 Y101.255 E20.86899
G1 X99.387 Y101.238 E20.87046
G1 X99.771 Y101.079 E20.88429
G1 X99.809 Y101.063 E20.88566
G1 X99.847 Y101.059 E20.88693
G1 X100.261 Y101.005 E20.90082
G1 X100.3 Y100.999 E20.90213
G1 X100.338 Y101.003 E20.9034
G1 X100.748 Y101.057 E20.91715
G1 X100.792 Y101.063 E20.91863
G1 X100.825 Y101.076 E20.91981
G1 X101.21 Y101.236 E20.93368
G1 X101.255 Y101.255 E20.9353
G1 X101.279 Y101.273 E20.9363
G1 X101.611 Y101.529 E20.95024
G1 X101.649 Y101.558 E20.95183
G1 X101.668 Y101.583 E20.95288
G1 X101.927 Y101.92 E20.96701
G1 X101.953 Y101.953 E20.96841
G1 X101.967 Y101.989 E20.9697
G1 X102.127 Y102.377 E20.98366
G1 X102.144 Y102.417 E20.9851
G1 X102.148 Y102.452 E20.98627
G1 X102.198 Y102.826 E20.99882
G1 X102.223 Y103.006 E21.00487
G1 X109.713 Y103.006 E21.25399
G1 X109.947 Y103.066 E21.26202
G1 X109.951 Y103.067 E21.26216
G1 X110.092 Y103.209 E21.26881
G1 X110.145 Y103.405 E21.27557
G1 X110.145 Y103.406 E21.2756
G1 X110.144 Y103.41 E21.27574
G1 X110.091 Y103.604 E21.28243
G1 X109.946 Y103.749 E21.28925
G1 X109.945 Y103.749 E21.28928
G1 X109.71 Y103.806 E21.29732
G1 X102.014 Y103.806 E21.55329
G1 X101.9 Y103.693 E21.55863
G1 X101.9 Y103.006 E21.581
G1 X101.9 Y102.867 E21.58444
G1 X101.851 Y102.492 E21.59388
G1 X101.69 Y102.103 E21.60435
G1 X101.43 Y101.766 E21.61495
