;FLAVOR:Marlin
;TIME:19784
;Filament used: 19.173m
;Layer height: 0.2
;MINX:23.6
;MINY:22.033
;MINZ:0.2
;MAXX:186.391
;MAXY:184.817
;MAXZ:42.4
;Generated with Cura_SteamEngine 4.8.0
M140 S55
M105
M190 S55
M104 S200
M105
M109 S200
M82 ;absolute extrusion mode
; Script based on an original created by tjjfvi (https://github.com/tjjfvi)
; An up-to-date version of the tjjfvi's original script can be found
; here:  https://csi.t6.fyi/
; Note - This script will only work in Cura V4.2 and above!
; --- Global Settings
; layer_height = 0.2
; smooth_spiralized_contours = True
; magic_mesh_surface_mode = normal
; machine_extruder_count = 1
; --- Single Extruder Settings
; speed_z_hop = 10
; retraction_amount = 6
; retraction_hop = 0.075
; retraction_hop_enabled = True
; retraction_enable = True
; retraction_speed = 40
; retraction_retract_speed = 40
; retraction_prime_speed = 40
; speed_travel = 100


G21 ;metric values
G90 ;absolute positioning
M82 ;set extruder to absolute mode
M107 ;start with the fan off
G28 X0 Y0 ;move X/Y to min endstops
G28 Z0 ;move Z to min endstops
G1 Z15.0 F100 ;move the platform down 15mm
G92 E0 ;zero the extruded length
G1 F200 E3 ;extrude 3mm of feed stock
G92 E0 ;zero the extruded length again
G1 F100
G0 Y20 F100
M117 Printing...
G5
G92 E0
G92 E0
G1 F2400 E-6
;LAYER_COUNT:212
;LAYER:0
M106 S255
M204 S3000
M205 X10 Y10
G1 F600 Z0.275
G0 F3000 X25.531 Y23.86 Z0.275
M204 S1800
M205 X8 Y8
;TYPE:SKIRT
G1 F600 Z0.2
G1 F2400 E0
G1 X26.07 Y23.389 E0.03333
G1 X26.657 Y22.981 E0.06662
G1 X27.286 Y22.641 E0.09991
G1 X27.95 Y22.373 E0.13325
G1 X28.639 Y22.181 E0.16656
G1 X29.345 Y22.068 E0.19985
G1 X30.031 Y22.033 E0.23184
G1 X31.028 Y22.037 E0.27826
G1 X35.921 Y22.142 E0.50615
G1 X36.952 Y22.179 E0.55419
G1 X37.13 Y22.188 E0.56249
G1 X42.232 Y22.515 E0.80055
G1 X44.46 Y22.706 E0.90467
G1 X49.153 Y23.208 E1.12445
G1 X50.183 Y23.333 E1.17276
G1 X50.36 Y23.357 E1.18108
G1 X55.306 Y24.098 E1.41395
G1 X55.443 Y24.12 E1.42041
G1 X57.589 Y24.49 E1.52181
G1 X62.233 Y25.388 E1.74206
G1 X63.228 Y25.595 E1.78939
G1 X63.404 Y25.634 E1.79778
G1 X68.272 Y26.791 E2.03077
G1 X70.42 Y27.35 E2.13412
G1 X75.006 Y28.647 E2.35604
G1 X76.114 Y28.978 E2.40989
G1 X76.283 Y29.031 E2.41813
G1 X81.134 Y30.632 E2.656
G1 X83.079 Y31.319 E2.75205
G1 X87.361 Y32.936 E2.96518
G1 X89.3 Y33.716 E3.0625
G1 X93.726 Y35.604 E3.28656
G1 X94.708 Y36.039 E3.33657
G1 X94.875 Y36.116 E3.34514
G1 X99.722 Y38.433 E3.5953
G1 X100.705 Y38.92 E3.64638
G1 X100.867 Y39.003 E3.65485
G1 X105.624 Y41.531 E3.9057
G1 X106.543 Y42.035 E3.9545
G1 X106.706 Y42.128 E3.96324
G1 X111.005 Y44.652 E4.19537
G1 X112.89 Y45.812 E4.29843
G1 X113.002 Y45.882 E4.30458
G1 X116.962 Y48.438 E4.52405
G1 X117.835 Y49.019 E4.57288
G1 X117.986 Y49.123 E4.58142
G1 X122.138 Y52.063 E4.81831
G1 X123.859 Y53.335 E4.91796
G1 X127.572 Y56.204 E5.13646
G1 X128.509 Y56.949 E5.1922
G1 X128.649 Y57.064 E5.20063
G1 X132.791 Y60.557 E5.45293
G1 X133.559 Y61.225 E5.50032
G1 X133.689 Y61.341 E5.50844
G1 X137.676 Y65.005 E5.76058
G1 X138.465 Y65.751 E5.81114
G1 X138.593 Y65.876 E5.81947
G1 X142.423 Y69.706 E6.07168
G1 X143.165 Y70.472 E6.12134
G1 X143.282 Y70.596 E6.12928
G1 X146.875 Y74.509 E6.37664
G1 X147.629 Y75.353 E6.42934
G1 X147.751 Y75.494 E6.43802
G1 X151.004 Y79.357 E6.67318
G1 X152.425 Y81.117 E6.77851
G1 X155.297 Y84.835 E6.99728
G1 X155.923 Y85.671 E7.04591
G1 X156.025 Y85.812 E7.05401
G1 X159.141 Y90.218 E7.3053
G1 X159.748 Y91.102 E7.35523
G1 X159.85 Y91.256 E7.36383
G1 X162.543 Y95.431 E7.59517
G1 X163.733 Y97.363 E7.70083
G1 X166.097 Y101.387 E7.91814
G1 X166.696 Y102.439 E7.97451
G1 X166.785 Y102.601 E7.98312
G1 X169.16 Y107.076 E8.21902
G1 X170.185 Y109.114 E8.32525
G1 X172.194 Y113.321 E8.54233
G1 X172.672 Y114.364 E8.59576
G1 X172.758 Y114.561 E8.60577
G1 X174.71 Y119.142 E8.83763
G1 X175.544 Y121.219 E8.94185
G1 X177.225 Y125.675 E9.16362
G1 X177.558 Y126.598 E9.20931
G1 X177.616 Y126.766 E9.21758
G1 X179.318 Y131.929 E9.47072
G1 X179.631 Y132.929 E9.51951
G1 X179.681 Y133.098 E9.52772
G1 X181.067 Y137.999 E9.76488
G1 X181.602 Y140.054 E9.86376
G1 X182.717 Y144.744 E10.08823
G1 X182.948 Y145.783 E10.13779
G1 X182.984 Y145.956 E10.14602
G1 X183.93 Y150.844 E10.37785
G1 X183.955 Y150.981 E10.38433
G1 X184.329 Y153.17 E10.48774
G1 X184.961 Y157.394 E10.68662
G1 X185.247 Y159.628 E10.79149
G1 X185.263 Y159.761 E10.79773
G1 X185.754 Y164.374 E11.01374
G1 X185.86 Y165.526 E11.06761
G1 X185.874 Y165.707 E11.07606
G1 X186.193 Y170.757 E11.31168
G1 X186.287 Y172.989 E11.41571
G1 X186.385 Y177.64 E11.63232
G1 X186.391 Y178.346 E11.6652
G1 X186.357 Y179.06 E11.69848
G1 X186.243 Y179.766 E11.73178
G1 X186.052 Y180.455 E11.76508
G1 X185.785 Y181.119 E11.7984
G1 X185.445 Y181.748 E11.83169
G1 X185.037 Y182.336 E11.86502
G1 X184.567 Y182.875 E11.89832
G1 X184.039 Y183.357 E11.93161
G1 X183.46 Y183.778 E11.96494
G1 X182.839 Y184.132 E11.99823
G1 X182.181 Y184.414 E12.03156
G1 X181.497 Y184.62 E12.06483
G1 X180.793 Y184.75 E12.09816
G1 X180.109 Y184.799 E12.13009
G1 X179.069 Y184.817 E12.17853
G1 X135.615 Y184.816 E14.20193
G1 X134.917 Y184.806 E14.23443
G1 X134.204 Y184.756 E14.26771
G1 X133.5 Y184.627 E14.30104
G1 X132.816 Y184.419 E14.33433
G1 X132.159 Y184.137 E14.36762
G1 X131.537 Y183.783 E14.40095
G1 X130.959 Y183.362 E14.43424
G1 X130.431 Y182.879 E14.46757
G1 X129.961 Y182.341 E14.50083
G1 X129.553 Y181.753 E14.53416
G1 X129.214 Y181.123 E14.56747
G1 X128.947 Y180.46 E14.60075
G1 X128.756 Y179.77 E14.63409
G1 X128.618 Y178.753 E14.68188
G1 X128.594 Y178.225 E14.70649
G1 X128.533 Y175.838 E14.81767
G1 X128.427 Y173.16 E14.94247
G1 X128.287 Y171.006 E15.04298
G1 X128.273 Y170.826 E15.05139
G1 X128.035 Y168.188 E15.17472
G1 X127.75 Y165.766 E15.28828
G1 X127.723 Y165.558 E15.29805
G1 X127.33 Y162.851 E15.42542
G1 X127.07 Y161.316 E15.49791
G1 X127.026 Y161.068 E15.50964
G1 X126.526 Y158.464 E15.63311
G1 X125.998 Y156.065 E15.74749
G1 X125.964 Y155.918 E15.75451
G1 X125.302 Y153.26 E15.88206
G1 X124.83 Y151.537 E15.96525
G1 X124.775 Y151.345 E15.97455
G1 X124.016 Y148.81 E16.09777
G1 X123.266 Y146.528 E16.20962
G1 X122.36 Y143.991 E16.33506
G1 X121.447 Y141.635 E16.45271
G1 X120.398 Y139.127 E16.5793
G1 X119.649 Y137.45 E16.66482
G1 X119.584 Y137.309 E16.67205
G1 X118.424 Y134.869 E16.79785
G1 X117.376 Y132.804 E16.90568
G1 X117.265 Y132.592 E16.91683
G1 X115.999 Y130.254 E17.04063
G1 X114.927 Y128.391 E17.14071
G1 X114.797 Y128.171 E17.15261
G1 X113.422 Y125.92 E17.27544
G1 X112.38 Y124.3 E17.36513
G1 X110.877 Y122.075 E17.49016
G1 X109.51 Y120.167 E17.59945
G1 X109.374 Y119.98 E17.61022
G1 X107.768 Y117.856 E17.73421
G1 X106.304 Y116.022 E17.84348
G1 X104.563 Y113.95 E17.9695
G1 X103.082 Y112.279 E18.07347
G1 X101.203 Y110.259 E18.20193
G1 X99.663 Y108.686 E18.30443
G1 X97.674 Y106.754 E18.43355
G1 X96.049 Y105.254 E18.53653
G1 X93.994 Y103.449 E18.66389
G1 X92.306 Y102.042 E18.76621
G1 X90.078 Y100.277 E18.89856
G1 X88.375 Y98.997 E18.99776
G1 X86.122 Y97.389 E19.12665
G1 X84.194 Y96.088 E19.23496
G1 X84.006 Y95.964 E19.24544
G1 X81.731 Y94.517 E19.37099
G1 X80.053 Y93.507 E19.46219
G1 X79.852 Y93.389 E19.47304
G1 X77.509 Y92.057 E19.59854
G1 X75.588 Y91.027 E19.70003
G1 X73.184 Y89.814 E19.82542
G1 X71.149 Y88.852 E19.93023
G1 X68.632 Y87.737 E20.05842
G1 X66.5 Y86.859 E20.16578
G1 X63.89 Y85.86 E20.29591
G1 X61.937 Y85.169 E20.39237
G1 X59.34 Y84.318 E20.51963
G1 X57.1 Y83.65 E20.62847
G1 X56.926 Y83.6 E20.6369
G1 X54.345 Y82.904 E20.76138
G1 X52.376 Y82.426 E20.85572
G1 X52.162 Y82.376 E20.86596
G1 X49.506 Y81.801 E20.9925
G1 X47.716 Y81.457 E21.07737
G1 X47.536 Y81.424 E21.08589
G1 X44.821 Y80.971 E21.21406
G1 X42.364 Y80.63 E21.32957
G1 X39.501 Y80.31 E21.46371
G1 X37.569 Y80.142 E21.55401
G1 X34.722 Y79.964 E21.68684
G1 X32.563 Y79.884 E21.78744
G1 X30.451 Y79.83 E21.88582
G1 X29.752 Y79.802 E21.91839
G1 X29.04 Y79.733 E21.9517
G1 X28.34 Y79.586 E21.98501
G1 X27.661 Y79.361 E22.01831
G1 X27.011 Y79.062 E22.05163
G1 X26.399 Y78.692 E22.08493
G1 X25.832 Y78.257 E22.11821
G1 X25.317 Y77.76 E22.15153
G1 X24.86 Y77.21 E22.18483
G1 X24.468 Y76.611 E22.21816
G1 X24.145 Y75.973 E22.25146
G1 X23.895 Y75.303 E22.28476
G1 X23.722 Y74.609 E22.31807
G1 X23.61 Y73.57 E22.36673
G1 X23.6 Y73.029 E22.39192
G1 X23.601 Y29.032 E24.44061
G1 X23.61 Y28.349 E24.47241
G1 X23.659 Y27.635 E24.50574
G1 X23.788 Y26.932 E24.53902
G1 X23.994 Y26.247 E24.57233
G1 X24.276 Y25.589 E24.60566
G1 X24.629 Y24.967 E24.63896
G1 X25.049 Y24.388 E24.67227
G1 X25.531 Y23.86 E24.70556
M204 S3000
M205 X10 Y10
G0 F3000 X26.079 Y24.113
M204 S1800
M205 X8 Y8
G1 F2400 X26.61 Y23.684 E24.73735
G1 X27.188 Y23.319 E24.76918
G1 X27.805 Y23.025 E24.801
G1 X28.451 Y22.805 E24.83278
G1 X29.119 Y22.661 E24.8646
G1 X30.029 Y22.593 E24.90709
G1 X31.016 Y22.597 E24.95305
G1 X35.9 Y22.702 E25.18052
G1 X36.931 Y22.739 E25.22856
G1 X37.094 Y22.747 E25.23616
G1 X42.184 Y23.073 E25.47366
G1 X44.401 Y23.263 E25.57727
G1 X49.086 Y23.764 E25.79666
G1 X50.277 Y23.91 E25.85254
G1 X55.223 Y24.651 E26.08541
G1 X57.483 Y25.04 E26.1922
G1 X62.118 Y25.936 E26.41202
G1 X63.113 Y26.143 E26.45934
G1 X63.274 Y26.179 E26.46702
G1 X68.142 Y27.336 E26.70001
G1 X70.279 Y27.892 E26.80283
G1 X74.854 Y29.186 E27.02422
G1 X75.954 Y29.515 E27.07768
G1 X76.107 Y29.563 E27.08515
G1 X80.947 Y31.16 E27.32247
G1 X82.892 Y31.847 E27.41852
G1 X87.152 Y33.456 E27.63056
G1 X89.091 Y34.236 E27.72788
G1 X93.499 Y36.116 E27.95103
G1 X94.481 Y36.551 E28.00104
G1 X94.634 Y36.622 E28.00889
G1 X99.474 Y38.935 E28.25868
G1 X100.457 Y39.422 E28.30976
G1 X100.604 Y39.498 E28.31746
G1 X105.355 Y42.022 E28.56797
G1 X106.274 Y42.526 E28.61678
G1 X106.423 Y42.611 E28.62476
G1 X110.829 Y45.199 E28.8627
G1 X112.596 Y46.288 E28.95935
G1 X116.652 Y48.904 E29.18409
G1 X117.525 Y49.485 E29.23292
G1 X117.663 Y49.58 E29.24072
G1 X121.708 Y52.443 E29.47148
G1 X123.526 Y53.786 E29.57673
G1 X123.627 Y53.862 E29.58261
G1 X127.294 Y56.697 E29.79844
G1 X128.161 Y57.387 E29.85004
G1 X128.288 Y57.492 E29.85771
G1 X132.424 Y60.98 E30.10964
G1 X133.192 Y61.648 E30.15704
G1 X133.31 Y61.753 E30.16439
G1 X137.291 Y65.411 E30.41614
G1 X138.08 Y66.157 E30.4667
G1 X138.198 Y66.271 E30.47434
G1 X142.021 Y70.096 E30.72616
G1 X142.763 Y70.862 E30.77581
G1 X142.869 Y70.975 E30.78303
G1 X146.457 Y74.882 E31.03003
G1 X147.211 Y75.726 E31.08273
G1 X147.322 Y75.854 E31.09062
G1 X150.568 Y79.709 E31.32528
G1 X151.982 Y81.46 E31.43008
G1 X154.849 Y85.171 E31.64844
G1 X155.475 Y86.007 E31.69708
G1 X155.568 Y86.135 E31.70444
G1 X158.679 Y90.535 E31.95537
G1 X159.286 Y91.419 E32.0053
G1 X159.38 Y91.559 E32.01315
G1 X162.073 Y95.734 E32.24449
G1 X163.256 Y97.656 E32.34958
G1 X165.655 Y101.74 E32.57013
G1 X166.21 Y102.716 E32.62241
G1 X166.291 Y102.864 E32.63027
G1 X168.66 Y107.328 E32.86559
G1 X169.626 Y109.246 E32.96558
G1 X171.685 Y113.554 E33.18792
G1 X172.16 Y114.59 E33.24099
G1 X172.243 Y114.78 E33.25064
G1 X174.144 Y119.238 E33.47631
G1 X175.02 Y121.416 E33.58562
G1 X176.669 Y125.784 E33.80303
G1 X177.031 Y126.788 E33.85272
G1 X177.084 Y126.941 E33.86026
G1 X178.783 Y132.097 E34.11305
G1 X179.096 Y133.097 E34.16184
G1 X179.142 Y133.251 E34.16932
G1 X180.525 Y138.14 E34.40591
G1 X181.09 Y140.315 E34.51055
G1 X182.171 Y144.866 E34.72836
G1 X182.402 Y145.905 E34.77792
G1 X182.435 Y146.062 E34.78539
G1 X183.381 Y150.95 E35.01722
G1 X183.775 Y153.253 E35.12601
G1 X184.407 Y157.477 E35.32489
G1 X184.692 Y159.699 E35.4292
G1 X185.188 Y164.341 E35.64658
G1 X185.302 Y165.577 E35.70438
G1 X185.315 Y165.742 E35.71209
G1 X185.634 Y170.781 E35.94719
G1 X185.727 Y173.001 E36.05066
G1 X185.825 Y177.644 E36.2669
G1 X185.831 Y178.35 E36.29978
G1 X185.797 Y179.033 E36.33162
G1 X185.683 Y179.706 E36.3634
G1 X185.491 Y180.362 E36.39523
G1 X185.225 Y180.991 E36.42703
G1 X184.886 Y181.585 E36.45888
G1 X184.481 Y182.135 E36.49068
G1 X184.014 Y182.633 E36.52247
G1 X183.492 Y183.074 E36.55429
G1 X182.922 Y183.451 E36.58611
G1 X182.312 Y183.759 E36.61793
G1 X181.67 Y183.993 E36.64975
G1 X181.005 Y184.151 E36.68158
G1 X180.099 Y184.239 E36.72397
G1 X179.069 Y184.257 E36.77193
G1 X135.623 Y184.256 E38.79496
G1 X134.925 Y184.246 E38.82747
G1 X134.244 Y184.197 E38.85926
G1 X133.573 Y184.068 E38.89108
G1 X132.922 Y183.861 E38.92288
G1 X132.299 Y183.58 E38.95471
G1 X131.713 Y183.228 E38.98654
G1 X131.173 Y182.81 E39.01834
G1 X130.685 Y182.332 E39.05015
G1 X130.256 Y181.8 E39.08197
G1 X129.892 Y181.222 E39.11377
G1 X129.598 Y180.605 E39.1456
G1 X129.379 Y179.958 E39.17741
G1 X129.236 Y179.29 E39.20922
G1 X129.178 Y178.723 E39.23575
G1 X129.154 Y178.205 E39.2599
G1 X129.092 Y175.781 E39.37281
G1 X128.987 Y173.141 E39.49584
G1 X128.846 Y170.97 E39.59714
G1 X128.832 Y170.784 E39.60583
G1 X128.594 Y168.15 E39.72898
G1 X128.305 Y165.693 E39.84417
G1 X128.278 Y165.484 E39.85398
G1 X127.883 Y162.763 E39.98201
G1 X127.614 Y161.172 E40.05715
G1 X127.578 Y160.97 E40.0667
G1 X127.074 Y158.347 E40.19108
G1 X126.547 Y155.95 E40.30536
G1 X126.507 Y155.783 E40.31335
G1 X125.839 Y153.103 E40.44196
G1 X125.337 Y151.272 E40.53037
G1 X124.542 Y148.618 E40.65937
G1 X123.808 Y146.381 E40.769
G1 X122.887 Y143.801 E40.89656
G1 X122.026 Y141.578 E41.00757
G1 X121.944 Y141.371 E41.01794
G1 X120.918 Y138.918 E41.14175
G1 X120.16 Y137.221 E41.22829
G1 X120.085 Y137.058 E41.23664
G1 X118.912 Y134.592 E41.3638
G1 X117.872 Y132.544 E41.47076
G1 X117.761 Y132.332 E41.4819
G1 X116.492 Y129.99 E41.60593
G1 X115.375 Y128.048 E41.71025
G1 X115.279 Y127.886 E41.71902
G1 X113.899 Y125.625 E41.84236
G1 X112.856 Y124.005 E41.93208
G1 X111.348 Y121.772 E42.05755
G1 X109.812 Y119.63 E42.18028
G1 X108.204 Y117.505 E42.30436
G1 X106.858 Y115.816 E42.40493
G1 X106.742 Y115.673 E42.4135
G1 X104.997 Y113.596 E42.53982
G1 X103.466 Y111.869 E42.64729
G1 X101.638 Y109.903 E42.77229
G1 X100.186 Y108.419 E42.86897
G1 X99.994 Y108.227 E42.88161
G1 X98.09 Y106.376 E43.00526
G1 X96.418 Y104.833 E43.1112
G1 X94.348 Y103.015 E43.23949
G1 X92.711 Y101.65 E43.33873
G1 X92.561 Y101.527 E43.34777
G1 X90.427 Y99.838 E43.47449
G1 X88.773 Y98.594 E43.57086
G1 X86.45 Y96.934 E43.70381
G1 X84.501 Y95.62 E43.81326
G1 X84.28 Y95.475 E43.82557
G1 X82.02 Y94.037 E43.9503
G1 X80.337 Y93.024 E44.04177
G1 X80.135 Y92.905 E44.05269
G1 X77.8 Y91.578 E44.17775
G1 X75.885 Y90.551 E44.27893
G1 X73.394 Y89.294 E44.40885
G1 X71.55 Y88.421 E44.50385
G1 X71.32 Y88.315 E44.51565
G1 X68.851 Y87.221 E44.64139
G1 X66.587 Y86.291 E44.75536
G1 X64.076 Y85.332 E44.88052
G1 X62.313 Y84.707 E44.96762
G1 X62.073 Y84.625 E44.97943
G1 X59.497 Y83.781 E45.10565
G1 X57.236 Y83.106 E45.21553
G1 X57.09 Y83.064 E45.2226
G1 X54.506 Y82.367 E45.34722
G1 X52.479 Y81.874 E45.44436
G1 X52.246 Y81.821 E45.45549
G1 X49.652 Y81.259 E45.57908
G1 X47.803 Y80.904 E45.66675
G1 X47.59 Y80.865 E45.67683
G1 X44.951 Y80.424 E45.80142
G1 X42.432 Y80.075 E45.91983
G1 X42.234 Y80.05 E45.92912
G1 X39.572 Y79.754 E46.05384
G1 X37.661 Y79.588 E46.14316
G1 X37.465 Y79.573 E46.15231
G1 X34.737 Y79.404 E46.27959
G1 X32.6 Y79.325 E46.37916
G1 X30.473 Y79.27 E46.47824
G1 X29.774 Y79.242 E46.51081
G1 X29.094 Y79.175 E46.54263
G1 X28.427 Y79.029 E46.57442
G1 X27.781 Y78.806 E46.60624
G1 X27.166 Y78.509 E46.63805
G1 X26.589 Y78.142 E46.66989
G1 X26.06 Y77.71 E46.70169
G1 X25.584 Y77.22 E46.7335
G1 X25.169 Y76.677 E46.76532
G1 X24.821 Y76.089 E46.79714
G1 X24.543 Y75.465 E46.82895
G1 X24.34 Y74.813 E46.86074
G1 X24.214 Y74.141 E46.89258
G1 X24.17 Y73.556 E46.9199
G1 X24.16 Y73.024 E46.94467
G1 X24.161 Y29.039 E48.9928
G1 X24.17 Y28.356 E49.02461
G1 X24.218 Y27.675 E49.0564
G1 X24.347 Y27.003 E49.08826
G1 X24.552 Y26.352 E49.12004
G1 X24.833 Y25.729 E49.15186
G1 X25.184 Y25.143 E49.18367
G1 X25.601 Y24.602 E49.21548
G1 X26.079 Y24.113 E49.24732
M204 S3000
M205 X10 Y10
G0 F3000 X26.152 Y24.827
M204 S1800
M205 X8 Y8
G1 F2400 X26.624 Y24.381 E49.27755
G1 X27.148 Y23.996 E49.30783
G1 X27.714 Y23.678 E49.33806
G1 X28.315 Y23.432 E49.3683
G1 X28.942 Y23.262 E49.39855
G1 X29.586 Y23.17 E49.42884
G1 X30.027 Y23.153 E49.44939
G1 X31.004 Y23.157 E49.49489
G1 X35.88 Y23.261 E49.72199
G1 X36.911 Y23.298 E49.77002
G1 X42.025 Y23.623 E50.00863
