;FLAVOR:Marlin
;TIME:19982
;Filament used: 19.1724m
;Layer height: 0.2
;MINX:25.928
;MINY:15.742
;MINZ:0.2
;MAXX:188.718
;MAXY:178.525
;MAXZ:42.4
;Generated with Cura_SteamEngine 4.8.0
M140 S60
M105
M190 S60
M104 S200
M105
M109 S200
M82 ;absolute extrusion mode
; Script based on an original created by tjjfvi (https://github.com/tjjfvi)
; An up-to-date version of the tjjfvi's original script can be found
; here:  https://csi.t6.fyi/
; Note - This script will only work in Cura V4.2 and above!
; --- Global Settings
; layer_height = 0.2
; smooth_spiralized_contours = True
; magic_mesh_surface_mode = normal
; machine_extruder_count = 1
; --- Single Extruder Settings
; speed_z_hop = 10
; retraction_amount = 6
; retraction_hop = 0.075
; retraction_hop_enabled = True
; retraction_enable = True
; retraction_speed = 40
; retraction_retract_speed = 40
; retraction_prime_speed = 40
; speed_travel = 100


G21 ;metric values
G90 ;absolute positioning
M82 ;set extruder to absolute mode
M107 ;start with the fan off
G28 X0 Y0 ;move X/Y to min endstops
G28 Z0 ;move Z to min endstops
G1 Z15.0 F100 ;move the platform down 15mm
G92 E0 ;zero the extruded length
G1 F200 E3 ;extrude 3mm of feed stock
G92 E0 ;zero the extruded length again
G1 F100
G0 Y20 F100
M117 Printing...
G5
G92 E0
G92 E0
G1 F2400 E-6
;LAYER_COUNT:212
;LAYER:0
M106 S255
M204 S3000
M205 X10 Y10
G1 F600 Z0.275
G0 F3000 X26.957 Y18.676 Z0.275
M204 S1800
M205 X8 Y8
;TYPE:SKIRT
G1 F600 Z0.2
G1 F2400 E0
G1 X27.377 Y18.097 E0.03331
G1 X27.859 Y17.569 E0.0666
G1 X28.398 Y17.098 E0.09993
G1 X28.985 Y16.69 E0.13321
G1 X29.614 Y16.35 E0.16651
G1 X30.278 Y16.082 E0.19985
G1 X30.967 Y15.89 E0.23316
G1 X31.673 Y15.777 E0.26645
G1 X32.359 Y15.742 E0.29843
G1 X33.357 Y15.746 E0.3449
G1 X37.753 Y15.84 E0.54965
G1 X40.077 Y15.938 E0.65796
G1 X40.212 Y15.945 E0.66425
G1 X44.815 Y16.239 E0.87902
G1 X45.914 Y16.324 E0.93035
G1 X46.099 Y16.341 E0.939
G1 X51.485 Y16.916 E1.19122
G1 X52.574 Y17.049 E1.24231
G1 X52.748 Y17.073 E1.25049
G1 X57.736 Y17.823 E1.48536
G1 X59.795 Y18.176 E1.58263
G1 X64.489 Y19.083 E1.80525
G1 X65.581 Y19.309 E1.85717
G1 X65.762 Y19.349 E1.86581
G1 X70.736 Y20.534 E2.1039
G1 X72.89 Y21.097 E2.20757
G1 X77.468 Y22.394 E2.42913
G1 X78.421 Y22.679 E2.47545
G1 X78.591 Y22.733 E2.48375
G1 X83.749 Y24.434 E2.73665
G1 X84.721 Y24.77 E2.78454
G1 X84.89 Y24.831 E2.79291
G1 X89.689 Y26.644 E3.03178
G1 X91.628 Y27.424 E3.1291
G1 X96.056 Y29.313 E3.35327
G1 X97.035 Y29.747 E3.40313
G1 X97.202 Y29.824 E3.4117
G1 X101.81 Y32.029 E3.64956
G1 X103.67 Y32.966 E3.74654
G1 X107.941 Y35.233 E3.9717
G1 X108.886 Y35.752 E4.0219
G1 X109.045 Y35.843 E4.03043
G1 X113.333 Y38.36 E4.26195
G1 X115.218 Y39.52 E4.36502
G1 X115.33 Y39.59 E4.37117
G1 X119.29 Y42.146 E4.59063
G1 X120.163 Y42.727 E4.63946
G1 X120.314 Y42.831 E4.648
G1 X124.466 Y45.771 E4.8849
G1 X126.187 Y47.043 E4.98455
G1 X129.9 Y49.912 E5.20304
G1 X130.846 Y50.665 E5.25934
G1 X130.986 Y50.779 E5.26775
G1 X134.763 Y53.965 E5.49783
G1 X136.437 Y55.437 E5.60163
G1 X139.939 Y58.654 E5.82306
G1 X140.773 Y59.44 E5.87642
G1 X140.907 Y59.571 E5.88515
G1 X144.741 Y63.405 E6.13762
G1 X145.46 Y64.146 E6.1857
G1 X145.581 Y64.274 E6.1939
G1 X149.032 Y68.034 E6.43155
G1 X150.423 Y69.615 E6.52961
G1 X153.559 Y73.334 E6.75613
G1 X154.172 Y74.082 E6.80116
G1 X154.285 Y74.225 E6.80965
G1 X157.428 Y78.292 E7.04898
G1 X158.695 Y80.006 E7.14823
G1 X161.41 Y83.841 E7.36703
G1 X162.094 Y84.839 E7.42336
G1 X162.191 Y84.985 E7.43153
G1 X164.941 Y89.251 E7.66787
G1 X166.13 Y91.183 E7.7735
G1 X168.472 Y95.176 E7.98905
G1 X169.03 Y96.159 E8.04168
G1 X169.116 Y96.316 E8.05002
G1 X171.431 Y100.675 E8.27984
G1 X172.44 Y102.676 E8.38419
G1 X174.486 Y106.953 E8.60496
G1 X174.982 Y108.03 E8.66017
G1 X175.052 Y108.189 E8.66826
G1 X177.152 Y113.114 E8.91757
G1 X177.564 Y114.119 E8.96815
G1 X177.63 Y114.288 E8.97659
G1 X179.42 Y119.036 E9.21287
G1 X180.134 Y121.055 E9.31259
G1 X181.614 Y125.541 E9.53255
G1 X181.956 Y126.628 E9.58561
G1 X182.008 Y126.803 E9.59411
G1 X183.394 Y131.705 E9.83132
G1 X183.932 Y133.772 E9.93077
G1 X185.038 Y138.421 E10.15329
G1 X185.278 Y139.496 E10.20458
G1 X185.316 Y139.676 E10.21315
G1 X186.257 Y144.543 E10.44397
G1 X186.635 Y146.743 E10.54792
G1 X186.657 Y146.878 E10.55428
G1 X187.285 Y151.078 E10.75203
G1 X187.577 Y153.355 E10.85892
G1 X187.593 Y153.49 E10.86525
G1 X188.082 Y158.097 E11.08098
G1 X188.182 Y159.171 E11.13121
G1 X188.197 Y159.359 E11.13999
G1 X188.519 Y164.454 E11.37771
G1 X188.613 Y166.674 E11.48117
G1 X188.713 Y171.358 E11.69933
G1 X188.718 Y172.064 E11.7322
G1 X188.683 Y172.778 E11.76549
G1 X188.569 Y173.484 E11.79879
G1 X188.376 Y174.173 E11.83211
G1 X188.108 Y174.836 E11.86541
G1 X187.767 Y175.465 E11.89872
G1 X187.359 Y176.052 E11.93201
G1 X186.887 Y176.59 E11.96533
G1 X186.359 Y177.072 E11.99862
G1 X185.78 Y177.492 E12.03193
G1 X185.158 Y177.845 E12.06523
G1 X184.5 Y178.126 E12.09855
G1 X183.815 Y178.332 E12.13186
G1 X183.111 Y178.46 E12.16518
G1 X182.432 Y178.508 E12.19687
G1 X181.422 Y178.525 E12.24391
G1 X137.943 Y178.524 E14.26847
G1 X137.245 Y178.514 E14.30098
G1 X136.532 Y178.464 E14.33426
G1 X135.828 Y178.335 E14.36759
G1 X135.144 Y178.127 E14.40088
G1 X134.487 Y177.845 E14.43417
G1 X133.865 Y177.491 E14.46749
G1 X133.287 Y177.07 E14.50079
G1 X132.759 Y176.587 E14.53411
G1 X132.289 Y176.049 E14.56738
G1 X131.881 Y175.461 E14.6007
G1 X131.542 Y174.831 E14.63401
G1 X131.275 Y174.168 E14.6673
G1 X131.084 Y173.478 E14.70063
G1 X130.946 Y172.461 E14.74842
G1 X130.922 Y171.933 E14.77303
G1 X130.861 Y169.546 E14.88422
G1 X130.754 Y166.844 E15.01013
G1 X130.607 Y164.611 E15.11434
G1 X130.588 Y164.367 E15.12573
G1 X130.346 Y161.732 E15.24895
G1 X130.118 Y159.785 E15.34023
G1 X130.099 Y159.638 E15.34713
G1 X129.721 Y156.959 E15.47311
G1 X129.336 Y154.671 E15.58115
G1 X128.812 Y151.97 E15.70926
G1 X128.337 Y149.823 E15.81165
G1 X128.272 Y149.547 E15.82485
G1 X127.63 Y146.969 E15.94856
G1 X127.116 Y145.101 E16.03878
G1 X127.063 Y144.917 E16.04769
G1 X126.299 Y142.378 E16.17116
G1 X125.632 Y140.351 E16.27052
G1 X125.569 Y140.166 E16.27962
G1 X124.651 Y137.601 E16.40648
G1 X123.921 Y135.709 E16.50091
G1 X122.841 Y133.101 E16.63235
G1 X121.972 Y131.148 E16.73188
G1 X121.855 Y130.893 E16.74495
G1 X120.725 Y128.519 E16.86737
G1 X119.773 Y126.643 E16.96533
G1 X119.682 Y126.468 E16.97452
G1 X118.434 Y124.152 E17.09702
G1 X117.237 Y122.068 E17.20893
G1 X117.134 Y121.893 E17.21838
G1 X115.725 Y119.588 E17.34418
G1 X114.703 Y118 E17.43211
G1 X114.591 Y117.83 E17.44159
G1 X113.049 Y115.561 E17.56934
G1 X111.81 Y113.836 E17.66823
G1 X111.701 Y113.687 E17.67683
G1 X110.059 Y111.517 E17.80354
G1 X108.732 Y109.855 E17.90257
G1 X108.596 Y109.689 E17.91256
G1 X106.844 Y107.607 E18.03927
G1 X105.486 Y106.072 E18.1347
G1 X105.314 Y105.882 E18.14663
G1 X103.498 Y103.933 E18.27068
G1 X102.19 Y102.593 E18.35787
G1 X100.228 Y100.675 E18.48563
G1 X98.223 Y98.822 E18.61276
G1 X96.205 Y97.056 E18.73763
G1 X94.584 Y95.708 E18.8358
G1 X92.423 Y93.996 E18.96417
G1 X90.82 Y92.791 E19.05755
G1 X90.631 Y92.652 E19.06848
G1 X88.494 Y91.127 E19.19072
G1 X86.469 Y89.76 E19.30449
G1 X86.33 Y89.669 E19.31222
G1 X84.082 Y88.239 E19.43628
G1 X82.423 Y87.239 E19.52648
G1 X82.214 Y87.116 E19.53778
G1 X79.91 Y85.804 E19.66123
G1 X78.2 Y84.884 E19.75165
G1 X75.672 Y83.6 E19.88368
G1 X73.314 Y82.484 E20.00515
G1 X70.84 Y81.395 E20.13102
G1 X68.846 Y80.574 E20.23143
G1 X66.118 Y79.533 E20.36739
G1 X64.327 Y78.899 E20.45586
G1 X64.153 Y78.84 E20.46442
G1 X61.564 Y77.995 E20.59123
G1 X59.526 Y77.387 E20.69026
G1 X59.354 Y77.338 E20.69859
G1 X56.776 Y76.639 E20.82296
G1 X54.705 Y76.133 E20.92224
G1 X51.999 Y75.54 E21.05123
G1 X49.648 Y75.094 E21.16265
G1 X49.494 Y75.067 E21.16993
G1 X46.849 Y74.635 E21.29473
G1 X44.789 Y74.351 E21.39156
G1 X42.112 Y74.046 E21.51702
G1 X39.849 Y73.848 E21.62279
G1 X39.678 Y73.835 E21.63078
G1 X36.99 Y73.669 E21.75618
G1 X34.886 Y73.593 E21.85422
G1 X32.778 Y73.539 E21.95241
G1 X32.081 Y73.511 E21.98489
G1 X31.369 Y73.442 E22.0182
G1 X30.669 Y73.295 E22.0515
G1 X29.99 Y73.07 E22.08481
G1 X29.341 Y72.771 E22.11808
G1 X28.728 Y72.401 E22.15142
G1 X28.161 Y71.965 E22.18473
G1 X27.646 Y71.469 E22.21802
G1 X27.19 Y70.918 E22.25133
G1 X26.798 Y70.32 E22.28462
G1 X26.475 Y69.682 E22.31792
G1 X26.225 Y69.011 E22.35126
G1 X26.052 Y68.317 E22.38457
G1 X25.941 Y67.318 E22.43137
G1 X25.928 Y66.657 E22.46216
G1 X25.929 Y22.74 E24.50711
G1 X25.938 Y22.058 E24.53887
G1 X25.987 Y21.344 E24.5722
G1 X26.116 Y20.64 E24.60553
G1 X26.322 Y19.956 E24.63879
G1 X26.604 Y19.298 E24.67212
G1 X26.957 Y18.676 E24.70543
M204 S3000
M205 X10 Y10
G0 F3000 X27.512 Y18.852
M204 S1800
M205 X8 Y8
G1 F2400 X27.929 Y18.311 E24.73723
G1 X28.407 Y17.822 E24.76907
G1 X28.938 Y17.393 E24.80086
G1 X29.516 Y17.028 E24.83269
G1 X30.133 Y16.734 E24.86452
G1 X30.779 Y16.514 E24.89629
G1 X31.448 Y16.37 E24.92816
G1 X32.357 Y16.302 E24.9706
G1 X33.345 Y16.306 E25.01661
G1 X37.864 Y16.404 E25.22708
G1 X40.053 Y16.497 E25.3291
G1 X44.771 Y16.797 E25.54924
G1 X45.87 Y16.882 E25.60056
G1 X46.039 Y16.898 E25.60847
G1 X51.417 Y17.472 E25.86031
G1 X52.506 Y17.605 E25.9114
G1 X52.665 Y17.627 E25.91887
G1 X57.642 Y18.375 E26.15322
G1 X59.823 Y18.75 E26.25627
G1 X64.46 Y19.648 E26.4762
G1 X65.467 Y19.857 E26.52409
G1 X65.632 Y19.894 E26.53196
G1 X70.594 Y21.076 E26.76948
G1 X72.737 Y21.636 E26.87262
G1 X77.307 Y22.931 E27.0938
G1 X78.26 Y23.216 E27.14011
G1 X78.416 Y23.265 E27.14773
G1 X83.566 Y24.963 E27.40023
G1 X84.538 Y25.299 E27.44812
G1 X84.693 Y25.355 E27.45579
G1 X89.363 Y27.118 E27.68823
G1 X91.419 Y27.944 E27.7914
G1 X95.829 Y29.825 E28.01465
G1 X96.808 Y30.259 E28.06451
G1 X96.96 Y30.329 E28.07231
G1 X101.558 Y32.529 E28.30965
G1 X103.53 Y33.524 E28.4125
G1 X107.671 Y35.724 E28.63085
G1 X108.616 Y36.243 E28.68105
G1 X108.761 Y36.326 E28.68883
G1 X113.157 Y38.907 E28.9262
G1 X114.924 Y39.996 E29.02285
G1 X118.98 Y42.612 E29.24759
G1 X119.853 Y43.193 E29.29642
G1 X119.991 Y43.288 E29.30422
G1 X124.036 Y46.151 E29.53498
G1 X125.854 Y47.494 E29.64023
G1 X125.955 Y47.57 E29.64611
G1 X129.623 Y50.407 E29.86204
G1 X130.497 Y51.103 E29.91406
G1 X130.624 Y51.207 E29.9217
G1 X134.495 Y54.474 E30.15757
G1 X136.16 Y55.941 E30.2609
G1 X139.615 Y59.118 E30.47945
G1 X140.512 Y59.966 E30.53693
G1 X144.339 Y63.795 E30.78901
G1 X145.058 Y64.536 E30.83709
G1 X145.169 Y64.653 E30.8446
G1 X148.612 Y68.404 E31.08169
G1 X150.003 Y69.985 E31.17974
G1 X153.126 Y73.689 E31.40534
G1 X153.739 Y74.437 E31.45037
G1 X153.842 Y74.567 E31.45809
G1 X156.901 Y78.524 E31.69099
G1 X158.244 Y80.339 E31.79612
G1 X160.953 Y84.165 E32.01441
G1 X161.632 Y85.155 E32.07031
G1 X161.721 Y85.289 E32.0778
G1 X164.4 Y89.443 E32.30797
G1 X165.582 Y91.36 E32.41283
G1 X165.647 Y91.467 E32.41866
G1 X167.985 Y95.452 E32.6338
G1 X168.543 Y96.435 E32.68643
G1 X168.622 Y96.579 E32.69408
G1 X170.937 Y100.938 E32.9239
G1 X171.94 Y102.928 E33.02767
G1 X171.993 Y103.035 E33.03323
G1 X174.02 Y107.277 E33.25215
G1 X174.473 Y108.264 E33.30272
G1 X174.537 Y108.409 E33.3101
G1 X176.634 Y113.327 E33.55905
G1 X177.046 Y114.332 E33.60962
G1 X177.106 Y114.486 E33.61732
G1 X178.892 Y119.223 E33.85305
G1 X179.606 Y121.242 E33.95277
G1 X181.108 Y125.795 E34.17602
G1 X181.422 Y126.795 E34.22482
G1 X181.469 Y126.955 E34.23259
G1 X182.852 Y131.846 E34.46926
G1 X183.42 Y134.033 E34.57448
G1 X184.492 Y138.544 E34.79038
G1 X184.732 Y139.619 E34.84167
G1 X184.766 Y139.782 E34.84942
G1 X185.707 Y144.649 E35.08024
G1 X186.083 Y146.838 E35.18367
G1 X186.103 Y146.96 E35.18942
G1 X186.748 Y151.283 E35.39295
G1 X187.022 Y153.426 E35.49355
G1 X187.525 Y158.149 E35.71471
G1 X187.625 Y159.223 E35.76494
G1 X187.638 Y159.394 E35.77292
G1 X187.96 Y164.478 E36.01013
G1 X188.053 Y166.686 E36.11304
G1 X188.153 Y171.362 E36.33082
G1 X188.158 Y172.068 E36.3637
G1 X188.123 Y172.75 E36.39549
G1 X188.008 Y173.424 E36.42733
G1 X187.816 Y174.079 E36.45911
G1 X187.548 Y174.708 E36.49095
G1 X187.209 Y175.301 E36.52276
G1 X186.802 Y175.85 E36.55458
G1 X186.335 Y176.348 E36.58637
G1 X185.812 Y176.788 E36.61819
G1 X185.242 Y177.164 E36.64999
G1 X184.631 Y177.471 E36.68183
G1 X183.989 Y177.705 E36.71365
G1 X183.324 Y177.862 E36.74547
G1 X182.422 Y177.948 E36.78766
G1 X181.422 Y177.965 E36.83423
G1 X137.951 Y177.964 E38.85842
G1 X137.253 Y177.954 E38.89092
G1 X136.572 Y177.905 E38.92272
G1 X135.901 Y177.776 E38.95453
G1 X135.25 Y177.569 E38.98634
G1 X134.627 Y177.288 E39.01817
G1 X134.041 Y176.936 E39.05
G1 X133.501 Y176.518 E39.0818
G1 X133.013 Y176.04 E39.1136
G1 X132.584 Y175.508 E39.14543
G1 X132.22 Y174.93 E39.17723
G1 X131.926 Y174.313 E39.20906
G1 X131.707 Y173.666 E39.24086
G1 X131.564 Y172.998 E39.27267
G1 X131.506 Y172.431 E39.29921
G1 X131.482 Y171.913 E39.32336
G1 X131.42 Y169.489 E39.43627
G1 X131.314 Y166.823 E39.56051
G1 X131.161 Y164.497 E39.66905
G1 X131.147 Y164.323 E39.67718
G1 X130.902 Y161.659 E39.80175
G1 X130.681 Y159.777 E39.88998
G1 X130.648 Y159.517 E39.90219
G1 X130.278 Y156.9 E40.02526
G1 X129.886 Y154.565 E40.13551
G1 X129.359 Y151.852 E40.2642
G1 X128.865 Y149.617 E40.37078
G1 X128.165 Y146.801 E40.50589
G1 X127.625 Y144.842 E40.60052
G1 X126.828 Y142.195 E40.72924
G1 X126.162 Y140.17 E40.8285
G1 X126.109 Y140.015 E40.83613
G1 X125.178 Y137.413 E40.96481
G1 X124.411 Y135.427 E41.06394
G1 X123.355 Y132.88 E41.19233
G1 X122.453 Y130.853 E41.29564
G1 X122.383 Y130.7 E41.30347
G1 X121.213 Y128.243 E41.43019
G1 X120.217 Y126.281 E41.53265
G1 X118.912 Y123.858 E41.6608
G1 X117.719 Y121.783 E41.77225
G1 X117.596 Y121.575 E41.7835
G1 X116.202 Y119.293 E41.90802
G1 X115.056 Y117.517 E42.00644
G1 X113.538 Y115.282 E42.13224
G1 X112.132 Y113.327 E42.24437
G1 X110.528 Y111.209 E42.36809
G1 X109.123 Y109.448 E42.47299
G1 X109.005 Y109.304 E42.48165
G1 X107.299 Y107.277 E42.60502
G1 X105.758 Y105.537 E42.71325
G1 X103.934 Y103.578 E42.83789
G1 X102.581 Y102.193 E42.92804
G1 X100.613 Y100.268 E43.05623
G1 X98.602 Y98.41 E43.18372
G1 X96.557 Y96.621 E43.31024
G1 X95.063 Y95.377 E43.40077
G1 X94.868 Y95.218 E43.41248
G1 X92.778 Y93.562 E43.53665
G1 X91.152 Y92.34 E43.63136
G1 X90.963 Y92.201 E43.64228
G1 X88.778 Y90.642 E43.76727
G1 X86.845 Y89.337 E43.87587
G1 X86.659 Y89.215 E43.88623
G1 X84.371 Y87.76 E44.01248
G1 X82.55 Y86.664 E44.11145
G1 X80.153 Y85.298 E44.23992
G1 X78.508 Y84.414 E44.32687
G1 X78.333 Y84.322 E44.33608
G1 X75.915 Y83.095 E44.46234
G1 X73.671 Y82.032 E44.57796
G1 X73.489 Y81.949 E44.58728
G1 X71.064 Y80.881 E44.71066
G1 X69.051 Y80.052 E44.81203
G1 X66.362 Y79.026 E44.94605
G1 X64.31 Y78.301 E45.04738
G1 X61.732 Y77.461 E45.17364
G1 X59.666 Y76.844 E45.27404
G1 X56.896 Y76.092 E45.40769
G1 X54.81 Y75.583 E45.50767
G1 X52.114 Y74.992 E45.63619
G1 X49.775 Y74.548 E45.74705
G1 X49.602 Y74.517 E45.75523
G1 X46.898 Y74.076 E45.88281
G1 X45.041 Y73.819 E45.9701
G1 X44.853 Y73.795 E45.97893
G1 X42.145 Y73.487 E46.10583
G1 X39.75 Y73.278 E46.21778
G1 X37.007 Y73.109 E46.34575
G1 X34.919 Y73.033 E46.44304
G1 X32.801 Y72.979 E46.54169
G1 X32.104 Y72.951 E46.57417
G1 X31.424 Y72.884 E46.60599
G1 X30.756 Y72.738 E46.63783
G1 X30.111 Y72.515 E46.66961
G1 X29.495 Y72.217 E46.70147
G1 X28.919 Y71.851 E46.73325
G1 X28.389 Y71.419 E46.76509
G1 X27.914 Y70.928 E46.7969
G1 X27.499 Y70.385 E46.82872
G1 X27.15 Y69.798 E46.86052
G1 X26.873 Y69.174 E46.89231
G1 X26.67 Y68.521 E46.92415
G1 X26.544 Y67.85 E46.95594
G1 X26.501 Y67.3 E46.98163
G1 X26.488 Y66.651 E47.01186
G1 X26.489 Y22.747 E49.05621
G1 X26.498 Y22.065 E49.08797
G1 X26.546 Y21.383 E49.11981
G1 X26.675 Y20.712 E49.15162
G1 X26.88 Y20.061 E49.18341
G1 X27.161 Y19.438 E49.21523
G1 X27.512 Y18.852 E49.24704
M204 S3000
M205 X10 Y10
G0 F3000 X28.067 Y19.037
M204 S1800
M205 X8 Y8
G1 F2400 X28.48 Y18.536 E49.27727
G1 X28.952 Y18.089 E49.30754
G1 X29.476 Y17.705 E49.33779
G1 X30.042 Y17.387 E49.36802
G1 X30.644 Y17.141 E49.3983
G1 X31.271 Y16.971 E49.42855
G1 X31.914 Y16.879 E49.4588
G1 X32.355 Y16.862 E49.47935
G1 X33.333 Y16.866 E49.52489
G1 X37.729 Y16.96 E49.72963
G1 X40.029 Y17.057 E49.83682
G1 X44.657 Y17.351 E50.05276
G1 X45.827 Y17.441 E50.1074
G1 X45.98 Y17.455 E50.11455
