;FLAVOR:Marlin
;TIME:19799
;Filament used: 19.1724m
;Layer height: 0.2
;MINX:22.033
;MINY:23.609
;MINZ:0.2
;MAXX:184.817
;MAXY:186.4
;MAXZ:42.4
;Generated with Cura_SteamEngine 4.8.0
M140 S60
M105
M190 S60
M104 S200
M105
M109 S200
M82 ;absolute extrusion mode
; Script based on an original created by tjjfvi (https://github.com/tjjfvi)
; An up-to-date version of the tjjfvi's original script can be found
; here:  https://csi.t6.fyi/
; Note - This script will only work in Cura V4.2 and above!
; --- Global Settings
; layer_height = 0.2
; smooth_spiralized_contours = True
; magic_mesh_surface_mode = normal
; machine_extruder_count = 1
; --- Single Extruder Settings
; speed_z_hop = 10
; retraction_amount = 6
; retraction_hop = 0.075
; retraction_hop_enabled = True
; retraction_enable = True
; retraction_speed = 40
; retraction_retract_speed = 40
; retraction_prime_speed = 40
; speed_travel = 100


G21 ;metric values
G90 ;absolute positioning
M82 ;set extruder to absolute mode
M107 ;start with the fan off
G28 X0 Y0 ;move X/Y to min endstops
G28 Z0 ;move Z to min endstops
G1 Z15.0 F100 ;move the platform down 15mm
G92 E0 ;zero the extruded length
G1 F200 E3 ;extrude 3mm of feed stock
G92 E0 ;zero the extruded length again
G1 F100
G0 Y20 F100
M117 Printing...
G5
G92 E0
G92 E0
G1 F2400 E-6
;LAYER_COUNT:212
;LAYER:0
M106 S255
M204 S3000
M205 X10 Y10
G1 F600 Z0.275
G0 F3000 X69.706 Y67.577 Z0.275
M204 S1800
M205 X8 Y8
;TYPE:SKIRT
G1 F600 Z0.2
G1 F2400 E0
G1 X70.472 Y66.835 E0.04966
G1 X70.596 Y66.718 E0.0576
G1 X74.545 Y63.092 E0.30724
G1 X75.355 Y62.369 E0.35779
G1 X75.494 Y62.249 E0.36634
G1 X79.258 Y59.078 E0.59552
G1 X81.007 Y57.663 E0.70027
G1 X81.116 Y57.576 E0.70677
G1 X84.835 Y54.703 E0.9256
G1 X85.671 Y54.077 E0.97423
G1 X85.812 Y53.975 E0.98233
G1 X90.214 Y50.862 E1.23338
G1 X91.098 Y50.254 E1.28334
G1 X91.256 Y50.149 E1.29217
G1 X95.43 Y47.457 E1.52345
G1 X97.362 Y46.267 E1.62911
G1 X101.386 Y43.903 E1.84642
G1 X102.443 Y43.302 E1.90304
G1 X102.6 Y43.216 E1.91138
G1 X106.952 Y40.905 E2.14082
G1 X108.993 Y39.875 E2.24728
G1 X109.115 Y39.815 E2.25361
G1 X113.33 Y37.802 E2.47111
G1 X114.363 Y37.328 E2.52403
G1 X114.559 Y37.242 E2.534
G1 X119.144 Y35.288 E2.76608
G1 X121.219 Y34.456 E2.87017
G1 X125.677 Y32.774 E3.09204
G1 X126.601 Y32.441 E3.13778
G1 X126.767 Y32.384 E3.14595
G1 X131.93 Y30.682 E3.39909
G1 X132.952 Y30.362 E3.44895
G1 X133.122 Y30.312 E3.4572
G1 X138 Y28.933 E3.69325
G1 X140.055 Y28.398 E3.79212
G1 X144.745 Y27.282 E4.01661
G1 X145.825 Y27.042 E4.06812
G1 X145.998 Y27.006 E4.07635
G1 X150.844 Y26.069 E4.30618
G1 X153.169 Y25.671 E4.41602
G1 X157.394 Y25.039 E4.61494
G1 X159.76 Y24.737 E4.72601
G1 X164.374 Y24.246 E4.94207
G1 X165.528 Y24.14 E4.99603
G1 X165.708 Y24.126 E5.00443
G1 X170.758 Y23.807 E5.24005
G1 X172.99 Y23.713 E5.34407
G1 X177.657 Y23.615 E5.56144
G1 X178.344 Y23.609 E5.59343
G1 X179.059 Y23.643 E5.62676
G1 X179.765 Y23.756 E5.66005
G1 X180.454 Y23.948 E5.69336
G1 X181.118 Y24.215 E5.72668
G1 X181.747 Y24.554 E5.75995
G1 X182.335 Y24.962 E5.79328
G1 X182.874 Y25.432 E5.82658
G1 X183.356 Y25.96 E5.85987
G1 X183.777 Y26.538 E5.89317
G1 X184.131 Y27.16 E5.92649
G1 X184.413 Y27.817 E5.95978
G1 X184.62 Y28.502 E5.9931
G1 X184.749 Y29.205 E6.02638
G1 X184.799 Y29.891 E6.05841
G1 X184.817 Y30.931 E6.10685
G1 X184.816 Y74.352 E8.12871
G1 X184.806 Y75.079 E8.16257
G1 X184.757 Y75.793 E8.19589
G1 X184.628 Y76.496 E8.22917
G1 X184.421 Y77.181 E8.26249
G1 X184.139 Y77.838 E8.29578
G1 X183.785 Y78.46 E8.32911
G1 X183.365 Y79.038 E8.36238
G1 X182.882 Y79.566 E8.3957
G1 X182.344 Y80.037 E8.42899
G1 X181.756 Y80.445 E8.46232
G1 X181.126 Y80.785 E8.49566
G1 X180.463 Y81.052 E8.52894
G1 X179.774 Y81.243 E8.56223
G1 X178.753 Y81.382 E8.61021
G1 X178.334 Y81.402 E8.62974
G1 X175.83 Y81.467 E8.74638
G1 X173.16 Y81.573 E8.8708
G1 X171.035 Y81.711 E8.96996
G1 X170.834 Y81.726 E8.97935
G1 X168.189 Y81.965 E9.10301
G1 X165.74 Y82.253 E9.21783
G1 X165.568 Y82.276 E9.22591
G1 X162.845 Y82.671 E9.35403
G1 X161.316 Y82.93 E9.42624
G1 X161.068 Y82.974 E9.43797
G1 X158.464 Y83.474 E9.56144
G1 X156.065 Y84.002 E9.67582
G1 X155.897 Y84.041 E9.68385
G1 X153.26 Y84.698 E9.8104
G1 X151.584 Y85.157 E9.89131
G1 X151.353 Y85.223 E9.9025
G1 X148.809 Y85.984 E10.02614
G1 X146.57 Y86.72 E10.13589
G1 X143.969 Y87.648 E10.26448
G1 X141.635 Y88.553 E10.38104
G1 X139.127 Y89.602 E10.50763
G1 X137.45 Y90.351 E10.59315
G1 X137.309 Y90.416 E10.60038
G1 X134.869 Y91.576 E10.72619
G1 X132.776 Y92.639 E10.83549
G1 X132.592 Y92.735 E10.84516
G1 X130.254 Y94.001 E10.96896
G1 X128.391 Y95.073 E11.06905
G1 X128.171 Y95.203 E11.08095
G1 X125.92 Y96.578 E11.20377
G1 X124.3 Y97.62 E11.29346
G1 X122.075 Y99.123 E11.41849
G1 X120.167 Y100.49 E11.52778
G1 X119.98 Y100.626 E11.53855
G1 X117.858 Y102.231 E11.66244
G1 X116.022 Y103.696 E11.77181
G1 X113.95 Y105.437 E11.89783
G1 X112.279 Y106.918 E12.0018
G1 X110.259 Y108.797 E12.13026
G1 X108.686 Y110.337 E12.23277
G1 X106.754 Y112.326 E12.36188
G1 X105.254 Y113.951 E12.46486
G1 X103.449 Y116.005 E12.59218
G1 X102.042 Y117.694 E12.69454
G1 X100.277 Y119.922 E12.8269
G1 X98.997 Y121.625 E12.9261
G1 X97.389 Y123.878 E13.05499
G1 X96.084 Y125.812 E13.16363
G1 X95.964 Y125.995 E13.17382
G1 X94.517 Y128.269 E13.29932
G1 X93.507 Y129.947 E13.39052
G1 X93.389 Y130.148 E13.40137
G1 X92.057 Y132.491 E13.52687
G1 X91.027 Y134.412 E13.62837
G1 X89.814 Y136.816 E13.75375
G1 X88.929 Y138.684 E13.85
G1 X88.852 Y138.851 E13.85856
G1 X87.737 Y141.368 E13.98675
G1 X86.836 Y143.557 E14.09697
G1 X85.859 Y146.116 E14.22452
G1 X85.214 Y147.933 E14.3143
G1 X85.149 Y148.125 E14.32374
G1 X84.318 Y150.661 E14.448
G1 X83.657 Y152.876 E14.55564
G1 X83.594 Y153.096 E14.56629
G1 X82.904 Y155.654 E14.68966
G1 X82.429 Y157.609 E14.78334
G1 X82.384 Y157.803 E14.79262
G1 X81.801 Y160.494 E14.92083
G1 X81.457 Y162.284 E15.0057
G1 X81.426 Y162.454 E15.01375
G1 X80.971 Y165.179 E15.14239
G1 X80.616 Y167.747 E15.26311
G1 X80.31 Y170.499 E15.39204
G1 X80.134 Y172.541 E15.48748
G1 X79.964 Y175.278 E15.61517
G1 X79.884 Y177.447 E15.71624
G1 X79.83 Y179.55 E15.81419
G1 X79.802 Y180.248 E15.84672
G1 X79.733 Y180.959 E15.87999
G1 X79.586 Y181.659 E15.91329
G1 X79.361 Y182.338 E15.9466
G1 X79.062 Y182.988 E15.97991
G1 X78.692 Y183.6 E16.01321
G1 X78.256 Y184.168 E16.04656
G1 X77.76 Y184.683 E16.07985
G1 X77.209 Y185.139 E16.11315
G1 X76.611 Y185.531 E16.14645
G1 X75.973 Y185.854 E16.17975
G1 X75.303 Y186.104 E16.21305
G1 X74.609 Y186.277 E16.24635
G1 X73.597 Y186.388 E16.29376
G1 X73.044 Y186.4 E16.31951
G1 X29.031 Y186.399 E18.36894
G1 X28.34 Y186.389 E18.40112
G1 X27.627 Y186.339 E18.4344
G1 X26.923 Y186.209 E18.46774
G1 X26.239 Y186.002 E18.50102
G1 X25.582 Y185.72 E18.53431
G1 X24.96 Y185.366 E18.56763
G1 X24.382 Y184.945 E18.60093
G1 X23.854 Y184.462 E18.63425
G1 X23.384 Y183.923 E18.66755
G1 X22.977 Y183.335 E18.70085
G1 X22.638 Y182.705 E18.73416
G1 X22.371 Y182.042 E18.76744
G1 X22.18 Y181.352 E18.80078
G1 X22.067 Y180.646 E18.83407
G1 X22.033 Y179.969 E18.86564
G1 X22.037 Y178.955 E18.91285
G1 X22.143 Y174.064 E19.14065
G1 X22.179 Y173.051 E19.18785
G1 X22.188 Y172.87 E19.19629
G1 X22.515 Y167.768 E19.43435
G1 X22.706 Y165.54 E19.53847
G1 X23.209 Y160.836 E19.75876
G1 X23.333 Y159.816 E19.8066
G1 X23.357 Y159.64 E19.81488
G1 X24.098 Y154.694 E20.04775
G1 X24.12 Y154.557 E20.05421
G1 X24.49 Y152.411 E20.15561
G1 X25.388 Y147.767 E20.37586
G1 X25.595 Y146.772 E20.42319
G1 X25.634 Y146.596 E20.43158
G1 X26.791 Y141.728 E20.66457
G1 X27.35 Y139.58 E20.76792
G1 X27.385 Y139.451 E20.77415
G1 X28.686 Y134.861 E20.9963
G1 X28.979 Y133.884 E21.04379
G1 X29.031 Y133.717 E21.05194
G1 X30.632 Y128.866 E21.2898
G1 X31.319 Y126.921 E21.38585
G1 X32.936 Y122.639 E21.59898
G1 X33.716 Y120.7 E21.6963
G1 X35.604 Y116.274 E21.92036
G1 X36.039 Y115.292 E21.97038
G1 X36.117 Y115.124 E21.979
G1 X38.446 Y110.252 E22.23045
G1 X38.92 Y109.295 E22.28018
G1 X39.003 Y109.133 E22.28865
G1 X41.535 Y104.369 E22.53987
G1 X42.035 Y103.457 E22.5883
G1 X42.128 Y103.293 E22.59708
G1 X44.655 Y98.99 E22.82944
G1 X45.811 Y97.111 E22.93217
G1 X48.436 Y93.042 E23.15764
G1 X49.017 Y92.168 E23.20651
G1 X49.123 Y92.014 E23.21522
G1 X52.064 Y87.86 E23.45222
G1 X53.419 Y86.03 E23.55824
G1 X56.259 Y82.358 E23.7744
G1 X56.949 Y81.491 E23.826
G1 X57.064 Y81.351 E23.83443
G1 X60.553 Y77.213 E24.08647
G1 X61.241 Y76.421 E24.13532
G1 X61.36 Y76.288 E24.14363
G1 X65.011 Y72.315 E24.39488
G1 X65.784 Y71.5 E24.44718
G1 X65.903 Y71.378 E24.45512
G1 X69.706 Y67.577 E24.70548
M204 S3000
M205 X10 Y10
G0 F3000 X70.096 Y67.979
M204 S1800
M205 X8 Y8
G1 F2400 X70.862 Y67.237 E24.75514
G1 X70.975 Y67.131 E24.76236
G1 X74.918 Y63.51 E25.01163
G1 X75.728 Y62.787 E25.06219
G1 X75.854 Y62.678 E25.06995
G1 X79.71 Y59.431 E25.30468
G1 X81.459 Y58.019 E25.40935
G1 X85.171 Y55.151 E25.62777
G1 X86.007 Y54.525 E25.67641
G1 X86.135 Y54.432 E25.68377
G1 X90.532 Y51.323 E25.93453
G1 X91.416 Y50.715 E25.98449
G1 X91.56 Y50.619 E25.99254
G1 X95.839 Y47.861 E26.22959
G1 X97.758 Y46.682 E26.33447
G1 X101.743 Y44.343 E26.54963
G1 X102.719 Y43.789 E26.60189
G1 X102.863 Y43.71 E26.60953
G1 X107.215 Y41.399 E26.83898
G1 X109.245 Y40.375 E26.94485
G1 X109.356 Y40.32 E26.95062
G1 X113.564 Y38.311 E27.16775
G1 X114.589 Y37.84 E27.22027
G1 X114.779 Y37.757 E27.22993
G1 X119.239 Y35.855 E27.4557
G1 X121.302 Y35.025 E27.55925
G1 X121.416 Y34.98 E27.56495
G1 X125.867 Y33.301 E27.78647
G1 X126.791 Y32.968 E27.8322
G1 X126.942 Y32.916 E27.83964
G1 X132.097 Y31.217 E28.09238
G1 X133.274 Y30.85 E28.14978
G1 X138.022 Y29.507 E28.37955
G1 X140.196 Y28.94 E28.48416
G1 X144.782 Y27.848 E28.70368
G1 X145.946 Y27.589 E28.7592
G1 X146.104 Y27.556 E28.76672
G1 X150.95 Y26.619 E28.99655
G1 X153.252 Y26.225 E29.1053
G1 X157.477 Y25.593 E29.30422
G1 X159.699 Y25.308 E29.40853
G1 X164.425 Y24.803 E29.62985
G1 X165.579 Y24.697 E29.68381
G1 X165.743 Y24.685 E29.69147
G1 X170.782 Y24.366 E29.92657
G1 X173.002 Y24.273 E30.03004
G1 X177.662 Y24.175 E30.24707
G1 X178.349 Y24.169 E30.27906
G1 X179.031 Y24.203 E30.31086
G1 X179.705 Y24.317 E30.34269
G1 X180.361 Y24.508 E30.3745
G1 X180.99 Y24.775 E30.40632
G1 X181.584 Y25.113 E30.43815
G1 X182.134 Y25.518 E30.46995
G1 X182.633 Y25.985 E30.50177
G1 X183.074 Y26.507 E30.53359
G1 X183.451 Y27.077 E30.56542
G1 X183.758 Y27.687 E30.59721
G1 X183.993 Y28.328 E30.62901
G1 X184.151 Y28.993 E30.66083
G1 X184.239 Y29.901 E30.70331
G1 X184.257 Y30.931 E30.75128
G1 X184.256 Y74.344 E32.77277
G1 X184.246 Y75.071 E32.80663
G1 X184.197 Y75.753 E32.83846
G1 X184.069 Y76.424 E32.87027
G1 X183.862 Y77.075 E32.90208
G1 X183.582 Y77.698 E32.93389
G1 X183.23 Y78.284 E32.96572
G1 X182.813 Y78.825 E32.99752
G1 X182.335 Y79.313 E33.02933
G1 X181.803 Y79.742 E33.06115
G1 X181.225 Y80.106 E33.09296
G1 X180.608 Y80.4 E33.12479
G1 X179.961 Y80.62 E33.15661
G1 X179.293 Y80.763 E33.18842
G1 X178.723 Y80.822 E33.2151
G1 X178.319 Y80.842 E33.23393
G1 X175.795 Y80.908 E33.3515
G1 X173.141 Y81.013 E33.47518
G1 X170.805 Y81.166 E33.58419
G1 X168.147 Y81.406 E33.70846
G1 X165.68 Y81.697 E33.82413
G1 X165.484 Y81.722 E33.83333
G1 X162.756 Y82.118 E33.96169
G1 X161.218 Y82.378 E34.03432
G1 X160.994 Y82.418 E34.04492
G1 X158.347 Y82.926 E34.17042
G1 X155.95 Y83.453 E34.2847
G1 X155.783 Y83.493 E34.2927
G1 X153.103 Y84.161 E34.42131
G1 X151.259 Y84.667 E34.51034
G1 X148.628 Y85.454 E34.63822
G1 X146.525 Y86.144 E34.74128
G1 X146.312 Y86.217 E34.75176
G1 X143.8 Y87.113 E34.87595
G1 X141.578 Y87.974 E34.98691
G1 X141.371 Y88.056 E34.99728
G1 X138.918 Y89.082 E35.12109
G1 X137.251 Y89.826 E35.20609
G1 X137.058 Y89.915 E35.21599
G1 X134.611 Y91.079 E35.34217
G1 X132.544 Y92.128 E35.4501
G1 X132.357 Y92.226 E35.45993
G1 X129.99 Y93.508 E35.58528
G1 X128.048 Y94.625 E35.6896
G1 X127.886 Y94.721 E35.69836
G1 X125.625 Y96.101 E35.82171
G1 X124.005 Y97.144 E35.91142
G1 X121.772 Y98.652 E36.03689
G1 X119.649 Y100.174 E36.15852
G1 X117.505 Y101.796 E36.28371
G1 X115.816 Y103.142 E36.38428
G1 X115.673 Y103.258 E36.39285
G1 X113.596 Y105.003 E36.51917
G1 X111.869 Y106.534 E36.62663
G1 X109.903 Y108.362 E36.75164
G1 X108.419 Y109.814 E36.84831
G1 X108.227 Y110.006 E36.86095
G1 X106.376 Y111.91 E36.9846
G1 X104.833 Y113.582 E37.09055
G1 X103.015 Y115.652 E37.21883
G1 X101.527 Y117.439 E37.32711
G1 X99.838 Y119.573 E37.45384
G1 X98.594 Y121.227 E37.55021
G1 X96.934 Y123.55 E37.68315
G1 X95.519 Y125.651 E37.8011
G1 X94.031 Y127.991 E37.93023
G1 X93.024 Y129.663 E38.02111
G1 X92.89 Y129.891 E38.03343
G1 X91.578 Y132.2 E38.15709
G1 X90.551 Y134.115 E38.25827
G1 X89.294 Y136.606 E38.3882
G1 X88.421 Y138.45 E38.4832
G1 X88.306 Y138.7 E38.49601
G1 X87.221 Y141.149 E38.62074
G1 X86.313 Y143.358 E38.73195
G1 X85.325 Y145.944 E38.86085
G1 X84.686 Y147.746 E38.94988
G1 X83.777 Y150.515 E39.08559
G1 X83.1 Y152.784 E39.19584
G1 X82.362 Y155.512 E39.32744
G1 X81.883 Y157.484 E39.42193
G1 X81.821 Y157.754 E39.43483
G1 X81.259 Y160.348 E39.55842
G1 X80.895 Y162.242 E39.64823
G1 X80.859 Y162.443 E39.65773
G1 X80.424 Y165.049 E39.78076
G1 X80.07 Y167.603 E39.90082
G1 X80.05 Y167.766 E39.90847
G1 X79.754 Y170.428 E40.03319
G1 X79.575 Y172.506 E40.13031
G1 X79.404 Y175.263 E40.25893
G1 X79.324 Y177.426 E40.35972
G1 X79.27 Y179.527 E40.45758
G1 X79.242 Y180.225 E40.49011
G1 X79.175 Y180.905 E40.52192
G1 X79.029 Y181.572 E40.55372
G1 X78.806 Y182.218 E40.58554
G1 X78.509 Y182.833 E40.61734
G1 X78.142 Y183.41 E40.64918
G1 X77.71 Y183.939 E40.68099
G1 X77.219 Y184.415 E40.71283
G1 X76.677 Y184.83 E40.74462
G1 X76.089 Y185.179 E40.77646
G1 X75.465 Y185.456 E40.80825
G1 X74.813 Y185.659 E40.84004
G1 X74.141 Y185.785 E40.87188
G1 X73.58 Y185.828 E40.89808
G1 X73.039 Y185.84 E40.92328
G1 X29.039 Y185.839 E42.9721
G1 X28.348 Y185.829 E43.00428
G1 X27.667 Y185.78 E43.03607
G1 X26.996 Y185.65 E43.0679
G1 X26.345 Y185.444 E43.09969
G1 X25.722 Y185.163 E43.13152
G1 X25.137 Y184.811 E43.16331
G1 X24.596 Y184.393 E43.19514
G1 X24.108 Y183.915 E43.22695
G1 X23.679 Y183.383 E43.25877
G1 X23.316 Y182.804 E43.29059
G1 X23.022 Y182.187 E43.32242
G1 X22.803 Y181.54 E43.35422
G1 X22.66 Y180.872 E43.38603
G1 X22.593 Y179.97 E43.42815
G1 X22.597 Y178.967 E43.47486
G1 X22.703 Y174.084 E43.70228
G1 X22.739 Y173.071 E43.74948
G1 X22.747 Y172.906 E43.75717
G1 X23.073 Y167.816 E43.99467
G1 X23.263 Y165.599 E44.09828
G1 X23.765 Y160.903 E44.31819
G1 X23.91 Y159.723 E44.37355
G1 X24.651 Y154.777 E44.60643
G1 X25.04 Y152.517 E44.71321
G1 X25.936 Y147.882 E44.93303
G1 X26.143 Y146.887 E44.98036
G1 X26.179 Y146.726 E44.98804
G1 X27.336 Y141.858 E45.22103
G1 X27.892 Y139.721 E45.32385
G1 X29.222 Y135.021 E45.55129
G1 X29.515 Y134.044 E45.59879
G1 X29.563 Y133.893 E45.60617
G1 X31.16 Y129.053 E45.84349
G1 X31.847 Y127.108 E45.93954
G1 X33.456 Y122.848 E46.15158
G1 X34.236 Y120.909 E46.2489
G1 X36.116 Y116.501 E46.47204
G1 X36.551 Y115.519 E46.52205
G1 X36.622 Y115.366 E46.52991
G1 X38.948 Y110.501 E46.781
G1 X39.422 Y109.544 E46.83073
G1 X39.498 Y109.396 E46.83848
G1 X42.026 Y104.638 E47.08936
G1 X42.526 Y103.726 E47.13779
G1 X42.611 Y103.577 E47.14578
G1 X45.138 Y99.274 E47.37814
G1 X46.288 Y97.405 E47.48032
G1 X46.353 Y97.301 E47.48603
G1 X48.903 Y93.352 E47.70492
G1 X49.484 Y92.478 E47.75379
G1 X49.58 Y92.338 E47.76169
G1 X52.443 Y88.292 E47.99249
G1 X53.787 Y86.473 E48.0978
G1 X53.862 Y86.373 E48.10362
G1 X56.697 Y82.706 E48.31945
G1 X57.387 Y81.839 E48.37105
G1 X57.492 Y81.712 E48.37872
G1 X60.976 Y77.58 E48.63039
G1 X61.664 Y76.788 E48.67924
G1 X61.772 Y76.667 E48.68679
G1 X65.418 Y72.7 E48.93768
G1 X66.191 Y71.885 E48.98998
G1 X66.299 Y71.774 E48.9972
G1 X70.096 Y67.979 E49.24717
M204 S3000
M205 X10 Y10
G0 F3000 X70.426 Y68.44
M204 S1800
M205 X8 Y8
G1 F2400 X71.251 Y67.64 E49.30068
G1 X71.354 Y67.543 E49.30727
G1 X75.291 Y63.928 E49.55615
G1 X76.101 Y63.205 E49.60671
G1 X76.215 Y63.106 E49.61374
G1 X79.979 Y59.935 E49.84291
G1 X81.801 Y58.462 E49.95201
G1 X85.506 Y55.6 E50.17001
G1 X86.458 Y54.889 E50.22533
G1 X90.849 Y51.785 E50.47573
G1 X91.733 Y51.177 E50.52568
G1 X91.863 Y51.09 E50.53297
G1 X96.037 Y48.398 E50.76424
G1 X97.949 Y47.221 E50.86879
