;FLAVOR:Marlin
;TIME:5297
;Filament used: 3.98136m
;Layer height: 0.2
;MINX:75.44
;MINY:75.44
;MINZ:0.2
;MAXX:134.56
;MAXY:134.56
;MAXZ:60
;Generated with Cura_SteamEngine 4.8.0
M140 S55
M105
M190 S55
M104 S200
M105
M109 S200
M82 ;absolute extrusion mode
; Script based on an original created by tjjfvi (https://github.com/tjjfvi)
; An up-to-date version of the tjjfvi's original script can be found
; here:  https://csi.t6.fyi/
; Note - This script will only work in Cura V4.2 and above!
; --- Global Settings
; layer_height = 0.2
; smooth_spiralized_contours = True
; magic_mesh_surface_mode = normal
; machine_extruder_count = 1
; --- Single Extruder Settings
; speed_z_hop = 10
; retraction_amount = 6
; retraction_hop = 0.075
; retraction_hop_enabled = True
; retraction_enable = True
; retraction_speed = 40
; retraction_retract_speed = 40
; retraction_prime_speed = 40
; speed_travel = 100


G21 ;metric values
G90 ;absolute positioning
M82 ;set extruder to absolute mode
M107 ;start with the fan off
G28 X0 Y0 ;move X/Y to min endstops
G28 Z0 ;move Z to min endstops
G1 Z15.0 F100 ;move the platform down 15mm
G92 E0 ;zero the extruded length
G1 F200 E3 ;extrude 3mm of feed stock
G92 E0 ;zero the extruded length again
G1 F100
G0 Y20 F100
M117 Printing...
G5
G92 E0
G92 E0
G1 F2400 E-6
;LAYER_COUNT:300
;LAYER:0
M106 S255
M204 S3000
M205 X10 Y10
G1 F600 Z0.275
G0 F3000 X93.313 Y77.781 Z0.275
M204 S1800
M205 X8 Y8
;TYPE:SKIRT
G1 F600 Z0.2
G1 F2400 E0
G1 X93.799 Y77.256 E0.03331
G1 X94.34 Y76.788 E0.06662
G1 X94.966 Y76.361 E0.10191
G1 X95.599 Y76.028 E0.13521
G1 X96.265 Y75.767 E0.16852
G1 X96.956 Y75.583 E0.20182
G1 X97.664 Y75.477 E0.23515
G1 X98.399 Y75.443 E0.26941
G1 X98.58 Y75.44 E0.27784
G1 X111.147 Y75.442 E0.86301
G1 X111.846 Y75.453 E0.89557
G1 X112.559 Y75.504 E0.92885
G1 X113.262 Y75.634 E0.96214
G1 X113.947 Y75.843 E0.99549
G1 X114.604 Y76.126 E1.0288
G1 X115.225 Y76.481 E1.06211
G1 X115.802 Y76.902 E1.09537
G1 X116.329 Y77.386 E1.12868
G1 X116.72 Y77.826 E1.15609
G1 X117.344 Y78.597 E1.20228
G1 X119.107 Y80.715 E1.3306
G1 X120.853 Y82.697 E1.45359
G1 X122.641 Y84.616 E1.57572
G1 X124.519 Y86.52 E1.70025
G1 X126.417 Y88.337 E1.8226
G1 X128.362 Y90.096 E1.94471
G1 X130.416 Y91.852 E2.07054
G1 X131.88 Y93.033 E2.15813
G1 X132.218 Y93.312 E2.17854
G1 X132.743 Y93.798 E2.21185
G1 X133.211 Y94.339 E2.24516
G1 X133.55 Y94.823 E2.27267
G1 X133.9 Y95.447 E2.30599
G1 X134.178 Y96.106 E2.33929
G1 X134.381 Y96.792 E2.3726
G1 X134.505 Y97.496 E2.40589
G1 X134.548 Y98.079 E2.43311
G1 X134.56 Y98.58 E2.45645
G1 X134.558 Y111.117 E3.04022
G1 X134.547 Y111.842 E3.07398
G1 X134.496 Y112.556 E3.10732
G1 X134.366 Y113.259 E3.14061
G1 X134.159 Y113.943 E3.17388
G1 X133.876 Y114.6 E3.20719
G1 X133.521 Y115.222 E3.24054
G1 X133.1 Y115.799 E3.2738
G1 X132.617 Y116.327 E3.30712
G1 X132.174 Y116.72 E3.3347
G1 X131.403 Y117.344 E3.38088
G1 X129.282 Y119.109 E3.50937
G1 X127.305 Y120.851 E3.63206
G1 X125.384 Y122.641 E3.75433
G1 X123.48 Y124.519 E3.87886
G1 X121.679 Y126.4 E4.00012
G1 X119.887 Y128.381 E4.1245
G1 X118.148 Y130.415 E4.24911
G1 X116.975 Y131.87 E4.33614
G1 X116.685 Y132.221 E4.35734
G1 X116.199 Y132.746 E4.39065
G1 X115.658 Y133.214 E4.42396
G1 X115.034 Y133.639 E4.45911
G1 X114.401 Y133.972 E4.49242
G1 X113.735 Y134.233 E4.52573
G1 X113.044 Y134.417 E4.55902
G1 X112.336 Y134.523 E4.59236
G1 X111.601 Y134.557 E4.62662
G1 X111.42 Y134.56 E4.63505
G1 X98.86 Y134.558 E5.2199
G1 X98.178 Y134.548 E5.25166
G1 X97.465 Y134.498 E5.28494
G1 X96.761 Y134.368 E5.31827
G1 X96.077 Y134.161 E5.35155
G1 X95.18 Y133.753 E5.39744
G1 X95.151 Y133.737 E5.39898
G1 X94.545 Y133.357 E5.43228
G1 X93.986 Y132.911 E5.46558
G1 X93.268 Y132.16 E5.51396
G1 X92.628 Y131.369 E5.56134
G1 X90.891 Y129.282 E5.68778
G1 X89.149 Y127.305 E5.81047
G1 X87.359 Y125.384 E5.93274
G1 X85.481 Y123.48 E6.05726
G1 X83.6 Y121.679 E6.17853
G1 X81.619 Y119.887 E6.30291
G1 X79.584 Y118.148 E6.42756
G1 X78.102 Y116.952 E6.51623
G1 X77.758 Y116.666 E6.53706
G1 X77.235 Y116.179 E6.57034
G1 X76.769 Y115.636 E6.60366
G1 X76.366 Y115.045 E6.63697
G1 X76.032 Y114.413 E6.67025
G1 X75.771 Y113.747 E6.70356
G1 X75.586 Y113.056 E6.73687
G1 X75.479 Y112.349 E6.77016
G1 X75.443 Y111.617 E6.80429
G1 X75.44 Y111.419 E6.81351
G1 X75.442 Y98.862 E7.39822
G1 X75.452 Y98.163 E7.43077
G1 X75.502 Y97.45 E7.46405
G1 X75.631 Y96.747 E7.49733
G1 X75.838 Y96.062 E7.53065
G1 X76.121 Y95.405 E7.56396
G1 X76.475 Y94.783 E7.59729
G1 X76.896 Y94.205 E7.63059
G1 X77.378 Y93.677 E7.66388
G1 X77.828 Y93.278 E7.69188
G1 X78.597 Y92.656 E7.73793
G1 X80.715 Y90.893 E7.86625
G1 X82.697 Y89.147 E7.98925
G1 X84.615 Y87.36 E8.11131
G1 X86.502 Y85.495 E8.23485
G1 X88.337 Y83.582 E8.35829
G1 X90.113 Y81.619 E8.48155
G1 X91.838 Y79.601 E8.60517
G1 X93.034 Y78.119 E8.69385
G1 X93.313 Y77.781 E8.71425
M204 S3000
M205 X10 Y10
G0 F3000 X93.745 Y78.137
M204 S1800
M205 X8 Y8
G1 F2400 X94.21 Y77.637 E8.74605
G1 X94.73 Y77.194 E8.77786
G1 X95.254 Y76.841 E8.80728
G1 X95.86 Y76.525 E8.8391
G1 X96.498 Y76.281 E8.87091
G1 X97.16 Y76.113 E8.90271
G1 X98.095 Y76.011 E8.9465
G1 X98.579 Y76 E8.96905
G1 X111.138 Y76.002 E9.55385
G1 X111.837 Y76.013 E9.5864
G1 X112.518 Y76.063 E9.6182
G1 X113.189 Y76.193 E9.65002
G1 X113.84 Y76.401 E9.68184
G1 X114.462 Y76.683 E9.71364
G1 X115.047 Y77.035 E9.74544
G1 X115.587 Y77.454 E9.77726
G1 X116.285 Y78.178 E9.82409
G1 X116.964 Y79.017 E9.87435
G1 X118.671 Y81.068 E9.9986
G1 X120.417 Y83.05 E10.12159
G1 X122.263 Y85.031 E10.24768
G1 X124.094 Y86.887 E10.36908
G1 X126.033 Y88.744 E10.4941
G1 X128.019 Y90.54 E10.61878
G1 X130.042 Y92.27 E10.74273
G1 X131.524 Y93.465 E10.83137
G1 X131.862 Y93.744 E10.85178
G1 X132.362 Y94.209 E10.88358
G1 X132.805 Y94.729 E10.91538
G1 X133.078 Y95.124 E10.93774
G1 X133.41 Y95.721 E10.96955
G1 X133.671 Y96.352 E11.00135
G1 X133.856 Y97.01 E11.03317
G1 X133.963 Y97.685 E11.065
G1 X133.998 Y98.415 E11.09903
G1 X134 Y98.579 E11.10667
G1 X133.998 Y111.109 E11.69011
G1 X133.987 Y111.834 E11.72388
G1 X133.937 Y112.515 E11.75567
G1 X133.807 Y113.186 E11.7875
G1 X133.6 Y113.837 E11.81931
G1 X133.319 Y114.459 E11.85109
G1 X132.966 Y115.045 E11.88294
G1 X132.548 Y115.585 E11.91474
G1 X131.822 Y116.285 E11.9617
G1 X130.983 Y116.964 E12.01196
G1 X128.932 Y118.671 E12.13621
G1 X126.949 Y120.418 E12.25927
G1 X124.969 Y122.263 E12.38529
G1 X123.113 Y124.094 E12.50669
G1 X121.256 Y126.033 E12.63171
G1 X119.459 Y128.02 E12.75646
G1 X117.734 Y130.037 E12.88004
G1 X116.543 Y131.514 E12.96839
G1 X116.253 Y131.865 E12.98959
G1 X115.788 Y132.365 E13.02138
G1 X115.267 Y132.808 E13.05323
G1 X114.746 Y133.159 E13.08248
G1 X114.14 Y133.475 E13.1143
G1 X113.502 Y133.719 E13.14611
G1 X112.84 Y133.887 E13.17791
G1 X111.905 Y133.989 E13.22171
G1 X111.421 Y134 E13.24425
G1 X98.868 Y133.998 E13.82877
G1 X98.186 Y133.988 E13.86053
G1 X97.505 Y133.938 E13.89233
G1 X96.834 Y133.809 E13.92414
G1 X96.183 Y133.603 E13.95594
G1 X95.451 Y133.262 E13.99354
G1 X95.422 Y133.246 E13.99508
G1 X94.844 Y132.882 E14.02689
G1 X94.313 Y132.452 E14.05871
G1 X93.704 Y131.807 E14.10001
G1 X93.064 Y131.017 E14.14735
G1 X91.329 Y128.932 E14.27366
G1 X89.582 Y126.949 E14.39672
G1 X87.737 Y124.969 E14.52274
G1 X85.906 Y123.113 E14.64414
G1 X83.967 Y121.256 E14.76915
G1 X81.98 Y119.459 E14.8939
G1 X79.958 Y117.731 E15.01775
G1 X78.46 Y116.522 E15.10739
G1 X78.116 Y116.236 E15.12822
G1 X77.618 Y115.769 E15.16001
G1 X77.177 Y115.247 E15.19183
G1 X76.8 Y114.677 E15.22365
G1 X76.492 Y114.067 E15.25547
G1 X76.257 Y113.426 E15.28726
G1 X76.099 Y112.761 E15.31909
G1 X76.013 Y111.925 E15.35822
G1 X76 Y111.42 E15.38174
G1 X76.002 Y98.87 E15.96612
G1 X76.012 Y98.171 E15.99868
G1 X76.061 Y97.49 E16.03047
G1 X76.19 Y96.819 E16.06228
G1 X76.397 Y96.168 E16.09409
G1 X76.678 Y95.545 E16.12592
G1 X77.03 Y94.959 E16.15775
G1 X77.448 Y94.419 E16.18955
G1 X78.18 Y93.713 E16.2369
G1 X79.02 Y93.034 E16.2872
G1 X81.068 Y91.329 E16.41128
G1 X83.05 Y89.583 E16.53427
G1 X85.012 Y87.754 E16.65917
G1 X86.904 Y85.886 E16.78298
G1 X88.744 Y83.967 E16.90677
G1 X90.541 Y81.98 E17.03152
G1 X92.27 Y79.958 E17.1554
G1 X93.466 Y78.475 E17.24412
G1 X93.745 Y78.137 E17.26452
M204 S3000
M205 X10 Y10
G0 F3000 X94.177 Y78.494
M204 S1800
M205 X8 Y8
G1 F2400 X94.621 Y78.019 E17.2948
G1 X95.119 Y77.603 E17.32501
G1 X95.542 Y77.321 E17.34869
G1 X96.119 Y77.022 E17.37895
G1 X96.728 Y76.796 E17.40919
G1 X97.36 Y76.646 E17.43944
G1 X98.111 Y76.571 E17.47458
G1 X98.579 Y76.56 E17.49638
G1 X111.129 Y76.562 E18.08076
G1 X111.828 Y76.573 E18.11332
G1 X112.476 Y76.623 E18.14358
G1 X113.112 Y76.752 E18.1738
G1 X113.728 Y76.959 E18.20406
G1 X114.314 Y77.239 E18.2343
G1 X114.861 Y77.59 E18.26456
G1 X115.361 Y78.005 E18.29482
G1 X115.849 Y78.53 E18.32819
G1 X116.483 Y79.314 E18.37514
G1 X118.25 Y81.438 E18.5038
G1 X120.002 Y83.425 E18.62715
G1 X121.851 Y85.409 E18.75343
G1 X123.722 Y87.306 E18.8775
G1 X125.647 Y89.15 E19.00163
G1 X127.658 Y90.969 E19.12789
G1 X129.684 Y92.701 E19.252
G1 X131.167 Y93.897 E19.34072
G1 X131.505 Y94.176 E19.36112
G1 X131.98 Y94.62 E19.3914
G1 X132.396 Y95.118 E19.42162
G1 X132.606 Y95.424 E19.4389
G1 X132.92 Y95.993 E19.46916
G1 X133.162 Y96.596 E19.49941
G1 X133.328 Y97.224 E19.52966
G1 X133.429 Y98.111 E19.57123
G1 X133.44 Y98.579 E19.59303
G1 X133.438 Y111.1 E20.17606
G1 X133.427 Y111.825 E20.20982
G1 X133.378 Y112.473 E20.24008
G1 X133.249 Y113.109 E20.2703
G1 X133.042 Y113.726 E20.3006
G1 X132.762 Y114.312 E20.33084
G1 X132.412 Y114.859 E20.36108
G1 X131.997 Y115.359 E20.39134
G1 X131.47 Y115.849 E20.42485
G1 X130.665 Y116.501 E20.47308
G1 X128.562 Y118.25 E20.60045
G1 X126.574 Y120.003 E20.72387
G1 X124.591 Y121.851 E20.85008
G1 X122.694 Y123.722 E20.97415
G1 X120.832 Y125.666 E21.0995
G1 X119.048 Y127.639 E21.22336
G1 X117.317 Y129.663 E21.34737
G1 X116.111 Y131.157 E21.43677
G1 X115.821 Y131.508 E21.45797
G1 X115.378 Y131.982 E21.48818
G1 X114.879 Y132.399 E21.51846
G1 X114.458 Y132.679 E21.54201
G1 X113.881 Y132.978 E21.57227
G1 X113.272 Y133.204 E21.60252
G1 X112.64 Y133.354 E21.63276
G1 X111.889 Y133.429 E21.6679
G1 X111.421 Y133.44 E21.6897
G1 X98.877 Y133.438 E22.2738
G1 X98.195 Y133.428 E22.30556
G1 X97.547 Y133.379 E22.33582
G1 X96.91 Y133.25 E22.36609
G1 X96.294 Y133.044 E22.39633
G1 X95.721 Y132.772 E22.42587
G1 X95.692 Y132.756 E22.42741
G1 X95.144 Y132.408 E22.45764
G1 X94.642 Y131.995 E22.48791
G1 X94.139 Y131.455 E22.52227
G1 X93.517 Y130.686 E22.56832
G1 X91.75 Y128.562 E22.69698
G1 X89.997 Y126.574 E22.8204
G1 X88.149 Y124.591 E22.94661
G1 X86.278 Y122.694 E23.07068
G1 X84.334 Y120.832 E23.19603
G1 X82.361 Y119.048 E23.31988
G1 X80.316 Y117.299 E23.44518
G1 X78.818 Y116.091 E23.53479
G1 X78.474 Y115.805 E23.55562
G1 X78.001 Y115.36 E23.58586
G1 X77.587 Y114.86 E23.61609
G1 X77.236 Y114.313 E23.64635
G1 X76.956 Y113.727 E23.6766
G1 X76.75 Y113.111 E23.70684
G1 X76.621 Y112.474 E23.7371
G1 X76.572 Y111.907 E23.7636
G1 X76.56 Y111.42 E23.78629
G1 X76.562 Y98.878 E24.3703
G1 X76.572 Y98.179 E24.40285
G1 X76.621 Y97.532 E24.43306
G1 X76.749 Y96.895 E24.46331
G1 X76.955 Y96.279 E24.49356
G1 X77.235 Y95.692 E24.52384
G1 X77.584 Y95.145 E24.55406
G1 X77.998 Y94.644 E24.58432
G1 X78.532 Y94.149 E24.61822
G1 X79.319 Y93.513 E24.66534
G1 X81.438 Y91.75 E24.7937
G1 X83.425 Y89.998 E24.91705
G1 X85.408 Y88.15 E25.04327
G1 X87.287 Y86.294 E25.16625
G1 X89.184 Y84.317 E25.29383
G1 X90.952 Y82.361 E25.4166
G1 X92.687 Y80.332 E25.54091
G1 X93.898 Y78.832 E25.63068
G1 X94.177 Y78.494 E25.65109
M204 S3000
M205 X10 Y10
G1 F2400 E19.65109
;MESH:led_stand_17_leds.stl
G0 F3000 X97.585 Y82.694
G0 X99.104 Y82.694
G0 X110.35 Y99.65
M204 S1800
M205 X8 Y8
;TYPE:WALL-INNER
G1 F2400 E25.65109
G1 F1500 X126.48 Y99.65 E26.40217
G1 X126.76 Y99.65 E26.4152
G1 X126.76 Y99.93 E26.42364
G1 X126.759 Y110.35 E26.90884
G1 X110.35 Y110.35 E27.67291
G1 X110.35 Y126.48 E28.424
G1 X110.35 Y126.76 E28.43703
G1 X110.07 Y126.76 E28.44547
G1 X99.65 Y126.759 E28.93067
G1 X99.65 Y110.35 E29.69474
G1 X83.52 Y110.35 E30.44582
G1 X83.24 Y110.35 E30.45886
G1 X83.24 Y110.07 E30.4673
G1 X83.241 Y99.65 E30.9525
G1 X99.65 Y99.65 E31.71657
G1 X99.65 Y83.52 E32.46765
G1 X99.65 Y83.24 E32.48069
G1 X99.93 Y83.24 E32.48913
G1 X110.35 Y83.241 E32.97433
G1 X110.35 Y99.65 E33.7384
M204 S3000
M205 X10 Y10
G0 F3000 X110.91 Y99.09
M204 S1800
M205 X8 Y8
G1 F1500 X127.04 Y99.09 E34.48948
G1 X127.32 Y99.09 E34.50252
G1 X127.32 Y99.37 E34.51096
G1 X127.319 Y110.91 E35.04831
G1 X110.91 Y110.91 E35.81238
G1 X110.91 Y127.04 E36.56346
G1 X110.91 Y127.32 E36.5765
G1 X110.63 Y127.32 E36.58494
G1 X99.09 Y127.319 E37.12229
G1 X99.09 Y110.91 E37.88636
G1 X82.96 Y110.91 E38.63744
G1 X82.68 Y110.91 E38.65048
G1 X82.68 Y110.63 E38.65892
G1 X82.681 Y99.09 E39.19627
G1 X99.09 Y99.09 E39.96034
G1 X99.09 Y82.96 E40.71142
G1 X99.09 Y82.68 E40.72446
G1 X99.37 Y82.68 E40.7329
G1 X110.91 Y82.681 E41.27025
G1 X110.91 Y99.09 E42.03432
M204 S3000
M205 X10 Y10
G0 F3000 X111.47 Y98.53
M204 S1800
M205 X8 Y8
;TYPE:WALL-OUTER
G1 F1500 X127.6 Y98.53 E42.7854
G1 X127.88 Y98.53 E42.79844
G1 X127.88 Y98.81 E42.80688
G1 X127.879 Y111.47 E43.39638
G1 X111.47 Y111.47 E44.16046
G1 X111.47 Y127.6 E44.91154
G1 X111.47 Y127.88 E44.92457
G1 X111.19 Y127.88 E44.93301
G1 X98.53 Y127.879 E45.52252
G1 X98.53 Y111.47 E46.28659
G1 X82.4 Y111.47 E47.03767
G1 X82.12 Y111.47 E47.05071
G1 X82.12 Y111.19 E47.05915
G1 X82.121 Y98.53 E47.64865
G1 X98.53 Y98.53 E48.41272
G1 X98.53 Y82.4 E49.1638
G1 X98.53 Y82.12 E49.17684
G1 X98.81 Y82.12 E49.18528
G1 X111.47 Y82.121 E49.77478
G1 X111.47 Y98.53 E50.53885
M204 S3000
M205 X10 Y10
G0 F3000 X111.67 Y98.53
G0 X111.67 Y99.19
G0 X109.8 Y100.2
M204 S1800
M205 X8 Y8
;TYPE:SKIN
G1 F1500 X126.21 Y100.2 E51.30297
G1 X126.209 Y109.8 E51.74999
G1 X109.8 Y109.8 E52.51406
G1 X109.8 Y126.21 E53.27818
G1 X100.2 Y126.209 E53.72519
G1 X100.2 Y109.8 E54.48927
G1 X83.79 Y109.8 E55.25338
G1 X83.791 Y100.2 E55.7004
G1 X100.2 Y100.2 E56.46447
G1 X100.2 Y83.79 E57.22859
G1 X109.8 Y83.791 E57.67561
G1 X109.8 Y100.2 E58.43968
M204 S3000
M205 X10 Y10
G0 F3000 X125.949 Y100.607
M204 S1800
M205 X8 Y8
G1 F1500 X125.802 Y100.46 E58.44936
M204 S3000
M205 X10 Y10
G0 F3000 X125.01 Y100.46
M204 S1800
M205 X8 Y8
G1 F1500 X125.949 Y101.399 E58.51119
M204 S3000
M205 X10 Y10
G0 F3000 X125.949 Y102.191
M204 S1800
M205 X8 Y8
G1 F1500 X124.218 Y100.46 E58.62518
M204 S3000
M205 X10 Y10
G0 F3000 X123.426 Y100.46
M204 S1800
M205 X8 Y8
G1 F1500 X125.949 Y102.983 E58.79133
M204 S3000
M205 X10 Y10
G0 F3000 X125.949 Y103.774
M204 S1800
M205 X8 Y8
G1 F1500 X122.634 Y100.46 E59.00959
M204 S3000
M205 X10 Y10
G0 F3000 X121.842 Y100.46
M204 S1800
M205 X8 Y8
G1 F1500 X125.949 Y104.566 E59.28001
M204 S3000
M205 X10 Y10
G0 F3000 X125.949 Y105.358
M204 S1800
M205 X8 Y8
G1 F1500 X121.051 Y100.46 E59.60255
M204 S3000
M205 X10 Y10
G0 F3000 X120.259 Y100.46
M204 S1800
M205 X8 Y8
G1 F1500 X125.949 Y106.15 E59.97725
M204 S3000
M205 X10 Y10
G0 F3000 X125.948 Y106.941
M204 S1800
M205 X8 Y8
G1 F1500 X119.467 Y100.46 E60.40404
M204 S3000
M205 X10 Y10
G0 F3000 X118.675 Y100.46
M204 S1800
M205 X8 Y8
G1 F1500 X125.948 Y107.733 E60.88297
M204 S3000
M205 X10 Y10
G0 F3000 X125.948 Y108.525
M204 S1800
M205 X8 Y8
G1 F1500 X117.883 Y100.46 E61.41407
M204 S3000
M205 X10 Y10
G0 F3000 X117.091 Y100.46
M204 S1800
M205 X8 Y8
G1 F1500 X125.948 Y109.317 E61.99732
M204 S3000
M205 X10 Y10
G0 F3000 X125.378 Y109.539
M204 S1800
M205 X8 Y8
G1 F1500 X116.299 Y100.46 E62.59519
M204 S3000
M205 X10 Y10
G0 F3000 X115.507 Y100.46
M204 S1800
M205 X8 Y8
