;FLAVOR:Marlin
;TIME:16813
;Filament used: 13.1609m
;Layer height: 0.2
;MINX:44.6
;MINY:44.6
;MINZ:0.2
;MAXX:165.4
;MAXY:165.4
;MAXZ:19
;Generated with Cura_SteamEngine 4.8.0
M140 S55
M105
M190 S55
M104 S200
M105
M109 S200
M82 ;absolute extrusion mode
; Script based on an original created by tjjfvi (https://github.com/tjjfvi)
; An up-to-date version of the tjjfvi's original script can be found
; here:  https://csi.t6.fyi/
; Note - This script will only work in Cura V4.2 and above!
; --- Global Settings
; layer_height = 0.2
; smooth_spiralized_contours = True
; magic_mesh_surface_mode = normal
; machine_extruder_count = 1
; --- Single Extruder Settings
; speed_z_hop = 10
; retraction_amount = 6
; retraction_hop = 0.075
; retraction_hop_enabled = True
; retraction_enable = True
; retraction_speed = 40
; retraction_retract_speed = 40
; retraction_prime_speed = 40
; speed_travel = 100


G21 ;metric values
G90 ;absolute positioning
M82 ;set extruder to absolute mode
M107 ;start with the fan off
G28 X0 Y0 ;move X/Y to min endstops
G28 Z0 ;move Z to min endstops
G1 Z15.0 F100 ;move the platform down 15mm
G92 E0 ;zero the extruded length
G1 F200 E3 ;extrude 3mm of feed stock
G92 E0 ;zero the extruded length again
G1 F100
G0 Y20 F100
M117 Printing...
G5
G92 E0
G92 E0
G1 F2400 E-6
;LAYER_COUNT:95
;LAYER:0
M106 S255
M204 S3000
M205 X10 Y10
G1 F600 Z0.275
G0 F3000 X48.538 Y47.43 Z0.275
M204 S1800
M205 X8 Y8
;TYPE:SKIRT
G1 F600 Z0.2
G1 F2400 E0
G1 X49.077 Y46.96 E0.0333
G1 X49.665 Y46.553 E0.0666
G1 X50.295 Y46.213 E0.09993
G1 X50.959 Y45.947 E0.13324
G1 X51.648 Y45.756 E0.16653
G1 X52.354 Y45.643 E0.19983
G1 X53.15 Y45.603 E0.23694
G1 X53.33 Y45.6 E0.24532
G1 X65.944 Y45.6 E0.83268
G1 X68.606 Y45.562 E0.95665
G1 X71.246 Y45.45 E1.07969
G1 X73.891 Y45.263 E1.20316
G1 X76.529 Y45.001 E1.3266
G1 X79.132 Y44.668 E1.44879
G1 X79.291 Y44.65 E1.45624
G1 X79.831 Y44.612 E1.48145
G1 X80.33 Y44.6 E1.50469
G1 X85.543 Y44.6 E1.74743
G1 X86.335 Y44.611 E1.78431
G1 X87.049 Y44.661 E1.81764
G1 X87.415 Y44.718 E1.83489
G1 X88.743 Y44.966 E1.8978
G1 X89.059 Y45.029 E1.9128
G1 X91.645 Y45.471 E2.03496
G1 X94.314 Y45.85 E2.16049
G1 X96.912 Y46.144 E2.28223
G1 X99.551 Y46.368 E2.40556
G1 X102.172 Y46.515 E2.5278
G1 X106.22 Y46.6 E2.71633
G1 X109.694 Y46.6 E2.87809
G1 X112.356 Y46.562 E3.00206
G1 X114.996 Y46.45 E3.1251
G1 X117.642 Y46.263 E3.24862
G1 X120.278 Y46.001 E3.37196
G1 X122.882 Y45.668 E3.4942
G1 X123.041 Y45.65 E3.50166
G1 X123.581 Y45.612 E3.52686
G1 X124.08 Y45.6 E3.5501
G1 X141.891 Y45.601 E4.37946
G1 X142.609 Y45.612 E4.4129
G1 X143.325 Y45.663 E4.44632
G1 X144.971 Y45.874 E4.52359
G1 X147.61 Y46.166 E4.64723
G1 X150.273 Y46.384 E4.77164
G1 X152.895 Y46.525 E4.89391
G1 X156.683 Y46.6 E5.07033
G1 X157.385 Y46.601 E5.10302
G1 X158.083 Y46.611 E5.13552
G1 X158.796 Y46.661 E5.1688
G1 X159.5 Y46.79 E5.20213
G1 X160.184 Y46.998 E5.23542
G1 X160.841 Y47.28 E5.26871
G1 X161.463 Y47.634 E5.30204
G1 X162.041 Y48.055 E5.33533
G1 X162.569 Y48.538 E5.36865
G1 X163.039 Y49.076 E5.40192
G1 X163.447 Y49.664 E5.43524
G1 X163.786 Y50.294 E5.46856
G1 X164.053 Y50.957 E5.50184
G1 X164.244 Y51.647 E5.53518
G1 X164.357 Y52.353 E5.56847
G1 X164.397 Y53.125 E5.60446
G1 X164.4 Y53.314 E5.61327
G1 X164.4 Y65.964 E6.2023
G1 X164.438 Y68.606 E6.32534
G1 X164.55 Y71.246 E6.44838
G1 X164.737 Y73.891 E6.57185
G1 X164.999 Y76.529 E6.69529
G1 X165.331 Y79.122 E6.81702
G1 X165.348 Y79.27 E6.82395
G1 X165.387 Y79.806 E6.84898
G1 X165.4 Y80.33 E6.87338
G1 X165.399 Y85.613 E7.11938
G1 X165.389 Y86.333 E7.15291
G1 X165.34 Y87.046 E7.18619
G1 X165.282 Y87.415 E7.20358
G1 X165.034 Y88.743 E7.26649
G1 X164.971 Y89.059 E7.28149
G1 X164.529 Y91.645 E7.40366
G1 X164.15 Y94.314 E7.52918
G1 X163.856 Y96.912 E7.65093
G1 X163.632 Y99.551 E7.77425
G1 X163.485 Y102.172 E7.89649
G1 X163.4 Y106.22 E8.08502
G1 X163.4 Y109.714 E8.24772
G1 X163.438 Y112.358 E8.37085
G1 X163.55 Y114.996 E8.49379
G1 X163.737 Y117.642 E8.61731
G1 X163.999 Y120.278 E8.74066
G1 X164.331 Y122.867 E8.8622
G1 X164.348 Y123.014 E8.86909
G1 X164.387 Y123.556 E8.89439
G1 X164.4 Y124.08 E8.9188
G1 X164.399 Y141.891 E9.74815
G1 X164.388 Y142.609 E9.78159
G1 X164.337 Y143.325 E9.81502
G1 X164.126 Y144.971 E9.89229
G1 X163.834 Y147.61 E10.01592
G1 X163.616 Y150.273 E10.14034
G1 X163.475 Y152.895 E10.2626
G1 X163.4 Y156.683 E10.43902
G1 X163.399 Y157.352 E10.47017
G1 X163.389 Y158.079 E10.50403
G1 X163.34 Y158.793 E10.53736
G1 X163.211 Y159.496 E10.57064
G1 X163.004 Y160.181 E10.60396
G1 X162.722 Y160.838 E10.63725
G1 X162.368 Y161.46 E10.67057
G1 X161.948 Y162.038 E10.70384
G1 X161.465 Y162.566 E10.73716
G1 X160.927 Y163.037 E10.77046
G1 X160.339 Y163.445 E10.80379
G1 X159.709 Y163.785 E10.83712
G1 X159.046 Y164.052 E10.8704
G1 X158.357 Y164.243 E10.90369
G1 X157.651 Y164.357 E10.93699
G1 X156.85 Y164.397 E10.97434
G1 X156.67 Y164.4 E10.98272
G1 X144.056 Y164.4 E11.57008
G1 X141.394 Y164.438 E11.69405
G1 X138.754 Y164.55 E11.81709
G1 X136.109 Y164.737 E11.94056
G1 X133.471 Y164.999 E12.064
G1 X130.868 Y165.332 E12.18619
G1 X130.709 Y165.35 E12.19364
G1 X130.169 Y165.388 E12.21885
G1 X129.67 Y165.4 E12.24209
G1 X124.365 Y165.399 E12.48912
G1 X123.666 Y165.389 E12.52167
G1 X122.953 Y165.339 E12.55495
G1 X122.589 Y165.282 E12.57211
G1 X121.257 Y165.034 E12.6352
G1 X120.941 Y164.971 E12.6502
G1 X118.355 Y164.529 E12.77236
G1 X115.686 Y164.15 E12.89789
G1 X113.088 Y163.856 E13.01963
G1 X110.449 Y163.632 E13.14296
G1 X107.828 Y163.485 E13.26519
G1 X103.78 Y163.4 E13.45373
G1 X100.306 Y163.4 E13.61549
G1 X97.644 Y163.438 E13.73946
G1 X95.004 Y163.55 E13.8625
G1 X92.358 Y163.737 E13.98601
G1 X89.722 Y163.999 E14.10936
G1 X87.118 Y164.332 E14.2316
G1 X86.959 Y164.35 E14.23905
G1 X86.419 Y164.388 E14.26426
G1 X85.92 Y164.4 E14.2875
G1 X68.109 Y164.399 E15.11686
G1 X67.391 Y164.388 E15.15029
G1 X66.675 Y164.337 E15.18372
G1 X65.029 Y164.126 E15.26099
G1 X62.39 Y163.834 E15.38462
G1 X59.727 Y163.616 E15.50904
G1 X57.105 Y163.475 E15.63131
G1 X53.317 Y163.4 E15.80773
G1 X52.615 Y163.399 E15.84041
G1 X51.917 Y163.389 E15.87292
G1 X51.204 Y163.339 E15.9062
G1 X50.5 Y163.21 E15.93953
G1 X49.816 Y163.002 E15.97282
G1 X49.159 Y162.72 E16.00611
G1 X48.537 Y162.366 E16.03944
G1 X47.959 Y161.945 E16.07273
G1 X47.431 Y161.462 E16.10605
G1 X46.961 Y160.924 E16.13932
G1 X46.553 Y160.336 E16.17264
G1 X46.214 Y159.706 E16.20596
G1 X45.947 Y159.043 E16.23924
G1 X45.756 Y158.353 E16.27257
G1 X45.643 Y157.647 E16.30587
G1 X45.602 Y156.831 E16.34391
G1 X45.6 Y156.658 E16.35197
G1 X45.6 Y144.036 E16.9397
G1 X45.562 Y141.394 E17.06274
G1 X45.45 Y138.754 E17.18578
G1 X45.263 Y136.108 E17.30929
G1 X45.001 Y133.472 E17.43264
G1 X44.668 Y130.868 E17.55488
G1 X44.65 Y130.709 E17.56233
G1 X44.612 Y130.169 E17.58754
G1 X44.6 Y129.67 E17.61078
G1 X44.601 Y124.357 E17.85818
G1 X44.612 Y123.651 E17.89106
G1 X44.663 Y122.938 E17.92434
G1 X44.719 Y122.581 E17.94117
G1 X44.966 Y121.257 E18.00388
G1 X45.029 Y120.941 E18.01889
G1 X45.471 Y118.355 E18.14105
G1 X45.85 Y115.686 E18.26657
G1 X46.144 Y113.088 E18.38832
G1 X46.368 Y110.449 E18.51164
G1 X46.515 Y107.828 E18.63388
G1 X46.6 Y103.78 E18.82241
G1 X46.6 Y100.286 E18.98511
G1 X46.562 Y97.642 E19.10824
G1 X46.45 Y95.004 E19.23118
G1 X46.263 Y92.358 E19.3547
G1 X46.001 Y89.721 E19.4781
G1 X45.668 Y87.118 E19.60029
G1 X45.65 Y86.959 E19.60774
G1 X45.612 Y86.419 E19.63295
G1 X45.6 Y85.92 E19.65619
G1 X45.601 Y68.109 E20.48554
G1 X45.612 Y67.391 E20.51898
G1 X45.663 Y66.675 E20.55241
G1 X45.874 Y65.029 E20.62968
G1 X46.166 Y62.39 E20.75331
G1 X46.384 Y59.727 E20.87773
G1 X46.525 Y57.105 E20.99999
G1 X46.6 Y53.314 E21.17655
G1 X46.601 Y52.605 E21.20957
G1 X46.611 Y51.916 E21.24165
G1 X46.661 Y51.203 E21.27493
G1 X46.791 Y50.499 E21.30827
G1 X46.998 Y49.815 E21.34155
G1 X47.28 Y49.158 E21.37484
G1 X47.634 Y48.536 E21.40816
G1 X48.055 Y47.958 E21.44146
G1 X48.538 Y47.43 E21.47478
M204 S3000
M205 X10 Y10
G0 F3000 X49.086 Y47.684
M204 S1800
M205 X8 Y8
G1 F2400 X49.618 Y47.255 E21.5066
G1 X50.196 Y46.892 E21.53839
G1 X50.813 Y46.598 E21.57021
G1 X51.46 Y46.378 E21.60203
G1 X52.128 Y46.236 E21.63383
G1 X52.846 Y46.171 E21.6674
G1 X53.33 Y46.16 E21.68994
G1 X65.952 Y46.16 E22.27768
G1 X68.603 Y46.123 E22.40113
G1 X71.31 Y46.008 E22.52729
G1 X73.913 Y45.823 E22.64881
G1 X76.619 Y45.555 E22.77543
G1 X79.195 Y45.224 E22.89636
G1 X79.846 Y45.171 E22.92677
G1 X80.33 Y45.16 E22.94932
G1 X85.543 Y45.16 E23.19206
G1 X86.327 Y45.171 E23.22857
G1 X87.312 Y45.269 E23.27466
G1 X88.634 Y45.515 E23.33727
G1 X88.966 Y45.581 E23.35304
G1 X91.576 Y46.028 E23.47634
G1 X94.212 Y46.401 E23.6003
G1 X96.871 Y46.702 E23.72491
G1 X99.51 Y46.926 E23.84823
G1 X102.157 Y47.075 E23.97168
G1 X106.208 Y47.16 E24.16036
G1 X109.702 Y47.16 E24.32305
G1 X112.353 Y47.123 E24.44651
G1 X115.06 Y47.008 E24.57267
G1 X117.664 Y46.823 E24.69423
G1 X120.373 Y46.554 E24.82099
G1 X122.945 Y46.224 E24.94173
G1 X123.596 Y46.171 E24.97215
G1 X124.08 Y46.16 E24.99469
G1 X141.882 Y46.161 E25.82363
G1 X142.6 Y46.172 E25.85706
G1 X143.253 Y46.218 E25.88755
G1 X144.893 Y46.428 E25.96453
G1 X147.606 Y46.728 E26.09163
G1 X150.196 Y46.941 E26.21264
G1 X152.883 Y47.085 E26.33794
G1 X156.672 Y47.16 E26.51441
G1 X157.377 Y47.161 E26.54723
G1 X158.075 Y47.171 E26.57974
G1 X158.756 Y47.22 E26.61153
G1 X159.427 Y47.349 E26.64335
G1 X160.078 Y47.556 E26.67516
G1 X160.701 Y47.837 E26.70698
G1 X161.287 Y48.189 E26.73881
G1 X161.827 Y48.607 E26.77061
G1 X162.315 Y49.085 E26.80242
G1 X162.744 Y49.617 E26.83424
G1 X163.108 Y50.195 E26.86605
G1 X163.402 Y50.812 E26.89787
G1 X163.621 Y51.459 E26.92968
G1 X163.764 Y52.127 E26.96149
G1 X163.828 Y52.837 E26.99468
G1 X163.84 Y53.314 E27.0169
G1 X163.84 Y65.964 E27.60594
G1 X163.877 Y68.603 E27.72883
G1 X163.992 Y71.31 E27.85499
G1 X164.177 Y73.913 E27.97651
G1 X164.445 Y76.619 E28.10313
G1 X164.775 Y79.186 E28.22364
G1 X164.827 Y79.823 E28.2534
G1 X164.84 Y80.33 E28.27702
G1 X164.839 Y85.605 E28.52264
G1 X164.829 Y86.325 E28.55617
G1 X164.731 Y87.312 E28.60236
G1 X164.485 Y88.634 E28.66497
G1 X164.419 Y88.966 E28.68073
G1 X163.972 Y91.576 E28.80403
G1 X163.599 Y94.212 E28.928
G1 X163.298 Y96.871 E29.05261
G1 X163.074 Y99.51 E29.17593
G1 X162.925 Y102.157 E29.29938
G1 X162.84 Y106.208 E29.48805
G1 X162.84 Y109.714 E29.65131
G1 X162.877 Y112.353 E29.7742
G1 X162.992 Y115.061 E29.90041
G1 X163.177 Y117.664 E30.02192
G1 X163.446 Y120.373 E30.14869
G1 X163.774 Y122.931 E30.26877
G1 X163.827 Y123.573 E30.29877
G1 X163.84 Y124.08 E30.32239
G1 X163.839 Y141.882 E31.15132
G1 X163.828 Y142.6 E31.18476
G1 X163.782 Y143.253 E31.21524
G1 X163.572 Y144.893 E31.29223
G1 X163.272 Y147.606 E31.41933
G1 X163.059 Y150.196 E31.54034
G1 X162.915 Y152.883 E31.66563
G1 X162.84 Y156.658 E31.84145
G1 X162.839 Y157.344 E31.87339
G1 X162.829 Y158.071 E31.90725
G1 X162.78 Y158.753 E31.93908
G1 X162.652 Y159.424 E31.97089
G1 X162.445 Y160.075 E32.0027
G1 X162.165 Y160.698 E32.03451
G1 X161.813 Y161.284 E32.06634
G1 X161.396 Y161.825 E32.09814
G1 X160.918 Y162.313 E32.12995
G1 X160.386 Y162.742 E32.16177
G1 X159.808 Y163.106 E32.19358
G1 X159.191 Y163.4 E32.22541
G1 X158.544 Y163.62 E32.25723
G1 X157.876 Y163.763 E32.28904
G1 X157.154 Y163.829 E32.3228
G1 X156.67 Y163.84 E32.34534
G1 X144.048 Y163.84 E32.93307
G1 X141.397 Y163.877 E33.05653
G1 X138.69 Y163.992 E33.18269
G1 X136.087 Y164.177 E33.3042
G1 X133.381 Y164.445 E33.43082
G1 X130.805 Y164.776 E33.55176
G1 X130.154 Y164.829 E33.58217
G1 X129.67 Y164.84 E33.60471
G1 X124.373 Y164.839 E33.85136
G1 X123.674 Y164.829 E33.88391
G1 X122.691 Y164.732 E33.92991
G1 X121.366 Y164.485 E33.99267
G1 X121.034 Y164.419 E34.00843
G1 X118.424 Y163.972 E34.13173
G1 X115.788 Y163.599 E34.2557
G1 X113.129 Y163.298 E34.3803
G1 X110.49 Y163.074 E34.50363
G1 X107.843 Y162.925 E34.62708
G1 X103.792 Y162.84 E34.81575
G1 X100.298 Y162.84 E34.97845
G1 X97.647 Y162.877 E35.1019
G1 X94.94 Y162.992 E35.22806
G1 X92.336 Y163.177 E35.34962
G1 X89.627 Y163.446 E35.47639
G1 X87.055 Y163.776 E35.59713
G1 X86.404 Y163.829 E35.62754
G1 X85.92 Y163.84 E35.65009
G1 X68.118 Y163.839 E36.47902
G1 X67.4 Y163.828 E36.51246
G1 X66.747 Y163.782 E36.54294
G1 X65.107 Y163.572 E36.61993
G1 X62.394 Y163.272 E36.74703
G1 X59.804 Y163.059 E36.86804
G1 X57.117 Y162.915 E36.99334
G1 X53.328 Y162.84 E37.1698
G1 X52.623 Y162.839 E37.20263
G1 X51.925 Y162.829 E37.23513
G1 X51.244 Y162.78 E37.26693
G1 X50.573 Y162.651 E37.29874
G1 X49.922 Y162.444 E37.33055
G1 X49.299 Y162.163 E37.36238
G1 X48.713 Y161.811 E37.39421
G1 X48.173 Y161.393 E37.426
G1 X47.685 Y160.915 E37.45781
G1 X47.256 Y160.383 E37.48964
G1 X46.892 Y159.805 E37.52144
G1 X46.598 Y159.188 E37.55327
G1 X46.379 Y158.541 E37.58507
G1 X46.236 Y157.873 E37.61688
G1 X46.171 Y157.148 E37.65078
G1 X46.16 Y156.658 E37.6736
G1 X46.16 Y144.036 E38.26133
G1 X46.123 Y141.397 E38.38423
G1 X46.008 Y138.69 E38.51039
G1 X45.823 Y136.086 E38.63195
G1 X45.555 Y133.381 E38.75852
G1 X45.224 Y130.805 E38.87946
G1 X45.171 Y130.154 E38.90987
G1 X45.16 Y129.67 E38.93241
G1 X45.161 Y124.366 E39.17939
G1 X45.172 Y123.66 E39.21227
G1 X45.269 Y122.683 E39.25799
G1 X45.515 Y121.366 E39.32037
G1 X45.587 Y121.003 E39.3376
G1 X46.028 Y118.424 E39.45944
G1 X46.401 Y115.788 E39.5834
G1 X46.702 Y113.129 E39.70801
G1 X46.926 Y110.49 E39.83133
G1 X47.075 Y107.843 E39.95478
G1 X47.16 Y103.792 E40.14346
G1 X47.16 Y100.286 E40.30671
G1 X47.123 Y97.647 E40.4296
G1 X47.008 Y94.939 E40.55581
G1 X46.823 Y92.336 E40.67733
G1 X46.555 Y89.63 E40.80395
G1 X46.224 Y87.055 E40.92483
G1 X46.171 Y86.404 E40.95525
G1 X46.16 Y85.92 E40.97779
G1 X46.161 Y68.118 E41.80673
G1 X46.172 Y67.4 E41.84016
G1 X46.218 Y66.747 E41.87065
G1 X46.428 Y65.107 E41.94763
G1 X46.728 Y62.394 E42.07473
G1 X46.941 Y59.804 E42.19574
G1 X47.085 Y57.117 E42.32104
G1 X47.16 Y53.314 E42.49816
G1 X47.161 Y52.613 E42.5308
G1 X47.171 Y51.924 E42.56288
G1 X47.22 Y51.243 E42.59468
G1 X47.35 Y50.572 E42.6265
G1 X47.556 Y49.921 E42.6583
G1 X47.837 Y49.298 E42.69012
G1 X48.189 Y48.712 E42.72195
G1 X48.607 Y48.172 E42.75375
G1 X49.086 Y47.684 E42.78559
M204 S3000
M205 X10 Y10
G0 F3000 X49.158 Y48.398
M204 S1800
M205 X8 Y8
G1 F2400 X49.631 Y47.952 E42.81586
G1 X50.155 Y47.568 E42.84611
G1 X50.722 Y47.251 E42.87636
G1 X51.323 Y47.006 E42.90658
G1 X51.95 Y46.836 E42.93683
G1 X52.862 Y46.731 E42.97958
G1 X53.33 Y46.72 E43.00138
G1 X65.96 Y46.72 E43.58948
G1 X68.635 Y46.682 E43.71405
G1 X71.301 Y46.569 E43.83831
G1 X74.008 Y46.377 E43.96467
G1 X76.647 Y46.116 E44.08815
G1 X79.258 Y45.781 E44.21073
G1 X79.862 Y45.731 E44.23895
G1 X80.33 Y45.72 E44.26075
G1 X85.543 Y45.72 E44.50349
G1 X86.319 Y45.731 E44.53962
G1 X87.21 Y45.819 E44.58132
G1 X88.524 Y46.064 E44.64356
G1 X88.871 Y46.133 E44.66003
G1 X91.472 Y46.578 E44.7829
G1 X94.139 Y46.956 E44.90833
G1 X96.834 Y47.261 E45.03462
G1 X99.463 Y47.484 E45.15748
G1 X102.142 Y47.635 E45.28242
G1 X106.197 Y47.72 E45.47128
G1 X109.71 Y47.72 E45.63486
G1 X112.385 Y47.682 E45.75943
G1 X115.054 Y47.569 E45.88382
G1 X117.757 Y47.377 E46.01
G1 X120.396 Y47.116 E46.13349
G1 X123.008 Y46.781 E46.25611
G1 X123.612 Y46.731 E46.28433
G1 X124.08 Y46.72 E46.30613
G1 X141.874 Y46.721 E47.13469
G1 X142.592 Y46.732 E47.16813
G1 X143.182 Y46.774 E47.19567
G1 X144.822 Y46.984 E47.27266
G1 X147.534 Y47.284 E47.39971
G1 X150.191 Y47.502 E47.52385
G1 X152.842 Y47.645 E47.64747
G1 X156.661 Y47.72 E47.82533
G1 X157.369 Y47.721 E47.8583
G1 X158.067 Y47.731 E47.89081
G1 X158.714 Y47.78 E47.92102
G1 X159.351 Y47.908 E47.95127
G1 X159.967 Y48.114 E47.98152
G1 X160.554 Y48.394 E48.0118
G1 X161.101 Y48.743 E48.04201
