;FLAVOR:Marlin
;TIME:15114
;Filament used: 11.2939m
;Layer height: 0.2
;MINX:44.6
;MINY:44.6
;MINZ:0.2
;MAXX:165.4
;MAXY:165.4
;MAXZ:5
;Generated with Cura_SteamEngine 4.8.0
M140 S55
M105
M190 S55
M104 S200
M105
M109 S200
M82 ;absolute extrusion mode
; Script based on an original created by tjjfvi (https://github.com/tjjfvi)
; An up-to-date version of the tjjfvi's original script can be found
; here:  https://csi.t6.fyi/
; Note - This script will only work in Cura V4.2 and above!
; --- Global Settings
; layer_height = 0.2
; smooth_spiralized_contours = True
; magic_mesh_surface_mode = normal
; machine_extruder_count = 1
; --- Single Extruder Settings
; speed_z_hop = 10
; retraction_amount = 6
; retraction_hop = 0.075
; retraction_hop_enabled = True
; retraction_enable = True
; retraction_speed = 40
; retraction_retract_speed = 40
; retraction_prime_speed = 40
; speed_travel = 100


G21 ;metric values
G90 ;absolute positioning
M82 ;set extruder to absolute mode
M107 ;start with the fan off
G28 X0 Y0 ;move X/Y to min endstops
G28 Z0 ;move Z to min endstops
G1 Z15.0 F100 ;move the platform down 15mm
G92 E0 ;zero the extruded length
G1 F200 E3 ;extrude 3mm of feed stock
G92 E0 ;zero the extruded length again
G1 F100
G0 Y20 F100
M117 Printing...
G5
G92 E0
G92 E0
G1 F2400 E-6
;LAYER_COUNT:25
;LAYER:0
M106 S255
M204 S3000
M205 X10 Y10
G1 F600 Z0.275
G0 F3000 X48.416 Y48.553 Z0.275
M204 S1800
M205 X8 Y8
;TYPE:SKIRT
G1 F600 Z0.2
G1 F2400 E0
G1 X48.942 Y48.069 E0.03328
G1 X49.519 Y47.646 E0.0666
G1 X50.139 Y47.29 E0.09989
G1 X50.795 Y47.005 E0.13319
G1 X51.479 Y46.796 E0.1665
G1 X52.455 Y46.634 E0.21256
G1 X53.041 Y46.583 E0.23995
G1 X55.742 Y46.311 E0.36636
G1 X58.351 Y45.975 E0.48885
G1 X59.514 Y45.791 E0.54368
G1 X60.356 Y45.671 E0.58328
G1 X61.079 Y45.61 E0.61707
G1 X61.578 Y45.598 E0.64031
G1 X85.633 Y45.599 E1.76041
G1 X86.574 Y45.613 E1.80423
G1 X89.042 Y45.682 E1.9192
G1 X91.72 Y45.682 E2.0439
G1 X94.326 Y45.607 E2.16529
G1 X97.005 Y45.455 E2.29024
G1 X99.634 Y45.231 E2.4131
G1 X102.305 Y44.926 E2.53828
G1 X103.656 Y44.742 E2.60177
G1 X104.144 Y44.673 E2.62472
G1 X104.846 Y44.613 E2.65753
G1 X105.37 Y44.6 E2.68193
G1 X110.638 Y44.601 E2.92723
G1 X111.356 Y44.612 E2.96067
G1 X112.071 Y44.663 E2.99405
G1 X113.415 Y44.835 E3.05714
G1 X116.083 Y45.138 E3.18217
G1 X118.724 Y45.363 E3.30559
G1 X121.396 Y45.514 E3.43021
G1 X124.012 Y45.588 E3.55207
G1 X125.388 Y45.598 E3.61615
G1 X148.14 Y45.599 E4.67558
G1 X148.85 Y45.61 E4.70864
G1 X149.742 Y45.686 E4.75033
G1 X150.35 Y45.781 E4.77898
G1 X152.956 Y46.155 E4.90157
G1 X155.598 Y46.455 E5.02538
G1 X156.796 Y46.558 E5.08137
G1 X157.621 Y46.64 E5.11998
G1 X158.328 Y46.751 E5.1533
G1 X159.018 Y46.939 E5.1866
G1 X159.682 Y47.204 E5.21989
G1 X160.313 Y47.541 E5.2532
G1 X160.903 Y47.946 E5.28652
G1 X161.443 Y48.414 E5.3198
G1 X161.928 Y48.94 E5.35311
G1 X162.351 Y49.517 E5.38643
G1 X162.707 Y50.137 E5.41972
G1 X162.992 Y50.793 E5.45302
G1 X163.202 Y51.477 E5.48634
G1 X163.364 Y52.453 E5.53241
G1 X163.42 Y53.09 E5.56218
G1 X163.687 Y55.757 E5.68699
G1 X164.023 Y58.36 E5.8092
G1 X164.205 Y59.516 E5.8637
G1 X164.323 Y60.34 E5.90246
G1 X164.385 Y61.054 E5.93583
G1 X164.398 Y61.578 E5.96023
G1 X164.397 Y85.634 E7.08038
G1 X164.382 Y86.637 E7.12709
G1 X164.316 Y88.973 E7.23591
G1 X164.316 Y91.652 E7.36065
G1 X164.39 Y94.258 E7.48205
G1 X164.541 Y96.929 E7.60662
G1 X164.765 Y99.562 E7.72967
G1 X165.068 Y102.222 E7.85433
G1 X165.25 Y103.565 E7.91744
G1 X165.325 Y104.087 E7.94199
G1 X165.387 Y104.804 E7.9755
G1 X165.4 Y105.328 E7.99991
G1 X165.399 Y110.639 E8.24721
G1 X165.388 Y111.357 E8.28065
G1 X165.337 Y112.073 E8.31407
G1 X165.169 Y113.382 E8.37553
G1 X164.885 Y115.841 E8.49079
G1 X164.655 Y118.45 E8.61275
G1 X164.496 Y121.114 E8.73701
G1 X164.412 Y123.77 E8.86075
G1 X164.398 Y125.424 E8.93777
G1 X164.397 Y148.106 E9.99394
G1 X164.386 Y148.849 E10.02854
G1 X164.31 Y149.746 E10.07046
G1 X164.222 Y150.305 E10.09681
G1 X163.841 Y152.974 E10.22235
G1 X163.542 Y155.598 E10.34532
G1 X163.439 Y156.806 E10.40178
G1 X163.358 Y157.621 E10.43991
G1 X163.247 Y158.328 E10.47324
G1 X163.059 Y159.018 E10.50654
G1 X162.794 Y159.682 E10.53983
G1 X162.457 Y160.313 E10.57314
G1 X162.052 Y160.903 E10.60646
G1 X161.584 Y161.443 E10.63973
G1 X161.058 Y161.928 E10.67305
G1 X160.481 Y162.351 E10.70636
G1 X159.861 Y162.707 E10.73965
G1 X159.205 Y162.992 E10.77296
G1 X158.521 Y163.202 E10.80628
G1 X157.544 Y163.364 E10.85239
G1 X156.919 Y163.418 E10.8816
G1 X154.205 Y163.692 E11.00862
G1 X151.59 Y164.031 E11.1314
G1 X150.489 Y164.204 E11.1833
G1 X149.642 Y164.325 E11.22314
G1 X148.917 Y164.386 E11.25702
G1 X148.418 Y164.398 E11.28026
G1 X124.367 Y164.397 E12.40018
G1 X123.344 Y164.382 E12.44782
G1 X121.08 Y164.317 E12.55328
G1 X118.439 Y164.317 E12.67626
G1 X115.766 Y164.392 E12.80077
G1 X113.117 Y164.542 E12.92432
G1 X110.493 Y164.764 E13.04694
G1 X107.831 Y165.066 E13.17169
G1 X106.426 Y165.257 E13.23771
G1 X105.91 Y165.329 E13.26197
G1 X105.218 Y165.387 E13.29431
G1 X104.692 Y165.4 E13.31881
G1 X99.359 Y165.399 E13.56713
G1 X98.642 Y165.388 E13.60053
G1 X97.927 Y165.337 E13.6339
G1 X96.607 Y165.168 E13.69587
G1 X94.157 Y164.885 E13.81071
G1 X91.548 Y164.655 E13.93267
G1 X88.884 Y164.496 E14.05694
G1 X86.228 Y164.412 E14.18067
G1 X84.574 Y164.398 E14.25769
G1 X61.955 Y164.398 E15.31093
G1 X61.141 Y164.386 E15.34883
G1 X60.245 Y164.309 E15.39071
G1 X59.73 Y164.228 E15.41499
G1 X57.013 Y163.84 E15.54278
G1 X54.39 Y163.541 E15.66571
G1 X53.168 Y163.436 E15.72282
G1 X52.375 Y163.357 E15.75993
G1 X51.668 Y163.247 E15.79325
G1 X50.978 Y163.058 E15.82656
G1 X50.313 Y162.794 E15.85988
G1 X49.683 Y162.457 E15.89315
G1 X49.093 Y162.051 E15.9265
G1 X48.553 Y161.583 E15.95977
G1 X48.068 Y161.057 E15.99308
G1 X47.645 Y160.48 E16.0264
G1 X47.289 Y159.86 E16.05969
G1 X47.004 Y159.204 E16.09299
G1 X46.795 Y158.52 E16.1263
G1 X46.633 Y157.542 E16.17246
G1 X46.583 Y156.96 E16.19966
G1 X46.308 Y154.23 E16.32742
G1 X45.972 Y151.631 E16.44945
G1 X45.785 Y150.44 E16.50559
G1 X45.671 Y149.64 E16.54321
G1 X45.61 Y148.917 E16.577
G1 X45.598 Y148.418 E16.60024
G1 X45.599 Y124.365 E17.72025
G1 X45.612 Y123.44 E17.76333
G1 X45.681 Y120.966 E17.87857
G1 X45.681 Y118.318 E18.00187
G1 X45.607 Y115.718 E18.12299
G1 X45.455 Y113.037 E18.24803
G1 X45.23 Y110.4 E18.37126
G1 X44.932 Y107.77 E18.49451
G1 X44.74 Y106.359 E18.56082
G1 X44.673 Y105.892 E18.58279
G1 X44.612 Y105.167 E18.61666
G1 X44.6 Y104.668 E18.63991
G1 X44.601 Y99.359 E18.88712
G1 X44.612 Y98.641 E18.92055
G1 X44.663 Y97.925 E18.95398
G1 X44.836 Y96.574 E19.0174
G1 X45.138 Y93.915 E19.14201
G1 X45.363 Y91.274 E19.26543
G1 X45.514 Y88.602 E19.39005
G1 X45.588 Y85.986 E19.51191
G1 X45.598 Y84.61 E19.57598
G1 X45.599 Y61.855 E20.63555
G1 X45.61 Y61.149 E20.66843
G1 X45.686 Y60.259 E20.71002
G1 X45.777 Y59.676 E20.7375
G1 X46.156 Y57.018 E20.86252
G1 X46.458 Y54.369 E20.98667
G1 X46.562 Y53.167 E21.04285
G1 X46.641 Y52.375 E21.07991
G1 X46.751 Y51.668 E21.11322
G1 X46.94 Y50.978 E21.14654
G1 X47.205 Y50.314 E21.17983
G1 X47.542 Y49.683 E21.21314
G1 X47.947 Y49.094 E21.24642
G1 X48.416 Y48.553 E21.27976
M204 S3000
M205 X10 Y10
G0 F3000 X48.948 Y48.813
M204 S1800
M205 X8 Y8
G1 F2400 X49.466 Y48.368 E21.31156
G1 X50.032 Y47.986 E21.34336
G1 X50.639 Y47.672 E21.37518
G1 X51.279 Y47.432 E21.40701
G1 X51.942 Y47.268 E21.43881
G1 X52.503 Y47.192 E21.46517
G1 X53.074 Y47.142 E21.49186
G1 X55.796 Y46.869 E21.61924
G1 X58.445 Y46.527 E21.74361
G1 X59.593 Y46.345 E21.79774
G1 X60.435 Y46.225 E21.83734
G1 X61.094 Y46.169 E21.86814
G1 X61.578 Y46.158 E21.89068
G1 X85.625 Y46.159 E23.01041
G1 X86.558 Y46.172 E23.05386
G1 X89.061 Y46.242 E23.17045
G1 X91.701 Y46.242 E23.29338
G1 X94.372 Y46.165 E23.41781
G1 X97.052 Y46.013 E23.5428
G1 X99.707 Y45.787 E23.66688
G1 X102.307 Y45.49 E23.78873
G1 X103.763 Y45.293 E23.85714
G1 X104.222 Y45.228 E23.87873
G1 X104.863 Y45.173 E23.90869
G1 X105.37 Y45.16 E23.9323
G1 X110.629 Y45.161 E24.17719
G1 X111.347 Y45.172 E24.21062
G1 X112 Y45.218 E24.2411
G1 X113.35 Y45.391 E24.30448
G1 X116.045 Y45.697 E24.43078
G1 X118.679 Y45.921 E24.55387
G1 X121.348 Y46.072 E24.67835
G1 X124.039 Y46.149 E24.8037
G1 X125.384 Y46.158 E24.86633
G1 X148.131 Y46.159 E25.92553
G1 X148.841 Y46.17 E25.95859
G1 X149.655 Y46.239 E25.99663
G1 X150.252 Y46.333 E26.02477
G1 X152.887 Y46.71 E26.14872
G1 X155.556 Y47.014 E26.2738
G1 X156.741 Y47.116 E26.32919
G1 X157.566 Y47.198 E26.36779
G1 X158.24 Y47.305 E26.39957
G1 X158.898 Y47.49 E26.4314
G1 X159.529 Y47.751 E26.46319
G1 X160.126 Y48.084 E26.49502
G1 X160.68 Y48.484 E26.52684
G1 X161.183 Y48.946 E26.55864
G1 X161.629 Y49.464 E26.59047
G1 X162.011 Y50.03 E26.62227
G1 X162.325 Y50.637 E26.65409
G1 X162.565 Y51.277 E26.68592
G1 X162.729 Y51.94 E26.71772
G1 X162.806 Y52.502 E26.74413
G1 X162.856 Y53.081 E26.7712
G1 X163.13 Y55.811 E26.89895
G1 X163.471 Y58.454 E27.02304
G1 X163.651 Y59.595 E27.07683
G1 X163.769 Y60.419 E27.11559
G1 X163.825 Y61.071 E27.14606
G1 X163.838 Y61.578 E27.16968
G1 X163.837 Y85.626 E28.28945
G1 X163.823 Y86.621 E28.33579
G1 X163.756 Y88.992 E28.44624
G1 X163.756 Y91.633 E28.56921
G1 X163.832 Y94.304 E28.69364
G1 X163.983 Y96.976 E28.81825
G1 X164.209 Y99.635 E28.94251
G1 X164.509 Y102.268 E29.06591
G1 X164.696 Y103.644 E29.13057
G1 X164.771 Y104.166 E29.15513
G1 X164.827 Y104.821 E29.18574
G1 X164.84 Y105.328 E29.20936
G1 X164.839 Y110.63 E29.45624
G1 X164.828 Y111.348 E29.48968
G1 X164.782 Y112.001 E29.52016
G1 X164.604 Y113.39 E29.58536
G1 X164.331 Y115.749 E29.69594
G1 X164.096 Y118.403 E29.82001
G1 X163.936 Y121.098 E29.94572
G1 X163.853 Y123.748 E30.06917
G1 X163.838 Y125.419 E30.14699
G1 X163.837 Y148.097 E31.20297
G1 X163.826 Y148.84 E31.23757
G1 X163.756 Y149.659 E31.27585
G1 X163.674 Y150.179 E31.30036
G1 X163.289 Y152.871 E31.42698
G1 X162.984 Y155.553 E31.55267
G1 X162.881 Y156.751 E31.60866
G1 X162.8 Y157.566 E31.6468
G1 X162.693 Y158.24 E31.67858
G1 X162.508 Y158.898 E31.7104
G1 X162.247 Y159.529 E31.7422
G1 X161.914 Y160.126 E31.77403
G1 X161.514 Y160.68 E31.80585
G1 X161.052 Y161.183 E31.83765
G1 X160.534 Y161.629 E31.86948
G1 X159.968 Y162.011 E31.90128
G1 X159.361 Y162.325 E31.9331
G1 X158.721 Y162.565 E31.96493
G1 X158.058 Y162.729 E31.99673
G1 X157.496 Y162.806 E32.02314
G1 X156.807 Y162.866 E32.05535
G1 X154.185 Y163.131 E32.17806
G1 X151.505 Y163.478 E32.30389
G1 X150.41 Y163.649 E32.3555
G1 X149.563 Y163.77 E32.39534
G1 X148.902 Y163.827 E32.42623
G1 X148.418 Y163.838 E32.44878
G1 X124.375 Y163.837 E33.56832
G1 X123.36 Y163.823 E33.61559
G1 X121.061 Y163.757 E33.72268
G1 X118.423 Y163.757 E33.84552
G1 X115.753 Y163.832 E33.96989
G1 X113.076 Y163.983 E34.09474
G1 X110.453 Y164.206 E34.21732
G1 X107.739 Y164.514 E34.34451
G1 X106.349 Y164.702 E34.40982
G1 X105.833 Y164.774 E34.43408
G1 X105.201 Y164.827 E34.46361
G1 X104.692 Y164.84 E34.48732
G1 X99.367 Y164.839 E34.73528
G1 X98.65 Y164.828 E34.76867
G1 X97.998 Y164.782 E34.7991
G1 X96.608 Y164.604 E34.86436
G1 X94.233 Y164.329 E34.97568
G1 X91.595 Y164.096 E35.099
G1 X88.9 Y163.936 E35.22471
G1 X86.25 Y163.853 E35.34817
G1 X84.579 Y163.838 E35.42598
G1 X61.955 Y163.838 E36.47945
G1 X61.149 Y163.826 E36.51698
G1 X60.332 Y163.756 E36.55516
G1 X59.758 Y163.666 E36.58222
G1 X57.12 Y163.289 E36.7063
G1 X54.428 Y162.982 E36.83247
G1 X53.223 Y162.879 E36.88878
G1 X52.43 Y162.8 E36.92589
G1 X51.755 Y162.693 E36.95771
G1 X51.098 Y162.507 E36.98951
G1 X50.466 Y162.246 E37.02135
G1 X49.87 Y161.913 E37.05314
G1 X49.316 Y161.513 E37.08495
G1 X48.813 Y161.051 E37.11676
G1 X48.367 Y160.533 E37.14859
G1 X47.985 Y159.967 E37.18038
G1 X47.672 Y159.36 E37.21218
G1 X47.431 Y158.72 E37.24403
G1 X47.267 Y158.057 E37.27583
G1 X47.191 Y157.493 E37.30233
G1 X47.14 Y156.904 E37.32986
G1 X46.866 Y154.176 E37.45752
G1 X46.52 Y151.507 E37.58284
G1 X46.339 Y150.361 E37.63687
G1 X46.225 Y149.561 E37.67449
G1 X46.169 Y148.902 E37.70529
G1 X46.158 Y148.418 E37.72783
G1 X46.159 Y124.373 E38.84747
G1 X46.172 Y123.455 E38.89022
G1 X46.241 Y120.981 E39.00546
G1 X46.241 Y118.337 E39.12858
G1 X46.165 Y115.67 E39.25282
G1 X46.013 Y112.995 E39.37758
G1 X45.789 Y110.359 E39.50076
G1 X45.484 Y107.679 E39.62636
G1 X45.295 Y106.284 E39.69191
G1 X45.228 Y105.813 E39.71406
G1 X45.171 Y105.152 E39.74496
G1 X45.16 Y104.668 E39.7675
G1 X45.161 Y99.368 E40.01429
G1 X45.172 Y98.65 E40.04773
G1 X45.218 Y97.997 E40.07821
G1 X45.391 Y96.647 E40.14158
G1 X45.697 Y93.953 E40.26784
G1 X45.921 Y91.319 E40.39093
G1 X46.072 Y88.65 E40.51541
G1 X46.149 Y85.959 E40.64076
G1 X46.158 Y84.614 E40.70339
G1 X46.159 Y61.864 E41.76273
G1 X46.17 Y61.158 E41.79561
G1 X46.239 Y60.346 E41.83355
G1 X46.329 Y59.773 E41.86056
G1 X46.716 Y57.056 E41.98835
G1 X47.014 Y54.442 E42.11086
G1 X47.119 Y53.222 E42.16788
G1 X47.198 Y52.43 E42.20494
G1 X47.305 Y51.756 E42.23672
G1 X47.491 Y51.098 E42.26856
G1 X47.752 Y50.467 E42.30035
G1 X48.085 Y49.87 E42.33218
G1 X48.485 Y49.317 E42.36396
G1 X48.948 Y48.813 E42.39583
M204 S3000
M205 X10 Y10
G0 F3000 X49.022 Y49.548
M204 S1800
M205 X8 Y8
G1 F2400 X49.477 Y49.085 E42.42606
G1 X49.986 Y48.681 E42.45632
G1 X50.54 Y48.343 E42.48654
G1 X51.132 Y48.075 E42.5168
G1 X51.753 Y47.882 E42.54708
G1 X52.552 Y47.75 E42.58479
G1 X53.175 Y47.696 E42.6139
G1 X55.819 Y47.43 E42.73764
G1 X58.53 Y47.08 E42.86493
G1 X59.672 Y46.9 E42.91876
G1 X60.514 Y46.78 E42.95836
G1 X61.11 Y46.729 E42.98621
G1 X61.578 Y46.718 E43.00801
G1 X85.617 Y46.719 E44.12737
G1 X86.543 Y46.732 E44.17049
G1 X89.046 Y46.802 E44.28709
G1 X91.717 Y46.802 E44.41146
G1 X94.42 Y46.725 E44.53737
G1 X97.059 Y46.574 E44.66046
G1 X99.747 Y46.345 E44.78608
G1 X102.404 Y46.043 E44.91059
G1 X103.839 Y45.847 E44.97803
G1 X104.301 Y45.782 E44.99976
G1 X104.88 Y45.732 E45.02682
G1 X105.37 Y45.72 E45.04964
G1 X110.621 Y45.721 E45.29415
G1 X111.339 Y45.732 E45.32759
G1 X111.929 Y45.774 E45.35513
G1 X113.286 Y45.948 E45.41884
G1 X115.969 Y46.252 E45.54457
G1 X118.635 Y46.479 E45.66916
G1 X121.337 Y46.632 E45.79517
G1 X124.019 Y46.708 E45.92011
G1 X125.38 Y46.718 E45.98349
G1 X148.123 Y46.719 E47.04249
G1 X148.833 Y46.73 E47.07556
G1 X149.569 Y46.793 E47.10996
G1 X150.106 Y46.877 E47.13526
G1 X152.848 Y47.27 E47.26425
G1 X155.483 Y47.57 E47.38774
G1 X156.685 Y47.673 E47.44391
G1 X157.51 Y47.755 E47.48252
G1 X158.151 Y47.859 E47.51276
G1 X158.775 Y48.041 E47.54302
G1 X159.372 Y48.298 E47.57329
G1 X159.932 Y48.626 E47.60351
G1 X160.448 Y49.021 E47.63377
G1 X160.912 Y49.476 E47.66403
G1 X161.316 Y49.984 E47.69425
G1 X161.655 Y50.539 E47.72453
G1 X161.923 Y51.131 E47.75479
G1 X162.116 Y51.751 E47.78503
G1 X162.248 Y52.551 E47.82278
G1 X162.299 Y53.137 E47.85017
G1 X162.573 Y55.869 E47.97802
G1 X162.918 Y58.539 E48.10338
G1 X163.097 Y59.675 E48.15693
G1 X163.215 Y60.499 E48.19569
G1 X163.266 Y61.088 E48.22322
G1 X163.278 Y61.578 E48.24605
G1 X163.277 Y85.618 E49.36545
G1 X163.263 Y86.605 E49.41141
G1 X163.196 Y88.976 E49.52186
G1 X163.196 Y91.649 E49.64633
G1 X163.272 Y94.317 E49.77061
G1 X163.425 Y97.018 E49.89658
G1 X163.651 Y99.68 E50.02098
G1 X163.956 Y102.355 E50.14635
G1 X164.141 Y103.724 E50.21067
G1 X164.216 Y104.246 E50.23523
G1 X164.268 Y104.838 E50.2629
G1 X164.28 Y105.328 E50.28572
G1 X164.279 Y110.622 E50.53224
G1 X164.268 Y111.34 E50.56567
G1 X164.226 Y111.93 E50.59322
G1 X164.048 Y113.319 E50.65842
G1 X163.775 Y115.689 E50.76951
G1 X163.536 Y118.39 E50.89577
G1 X163.376 Y121.084 E51.02143
G1 X163.293 Y123.725 E51.14447
G1 X163.278 Y125.414 E51.22312
G1 X163.277 Y148.089 E52.27896
G1 X163.266 Y148.832 E52.31357
G1 X163.203 Y149.573 E52.34819
G1 X163.12 Y150.1 E52.37304
