;FLAVOR:Marlin
;TIME:14176
;Filament used: 10.6311m
;Layer height: 0.2
;MINX:48.6
;MINY:44.6
;MINZ:0.2
;MAXX:161.4
;MAXY:165.4
;MAXZ:4.8
;Generated with Cura_SteamEngine 4.8.0
M140 S55
M105
M190 S55
M104 S200
M105
M109 S200
M82 ;absolute extrusion mode
; Script based on an original created by tjjfvi (https://github.com/tjjfvi)
; An up-to-date version of the tjjfvi's original script can be found
; here:  https://csi.t6.fyi/
; Note - This script will only work in Cura V4.2 and above!
; --- Global Settings
; layer_height = 0.2
; smooth_spiralized_contours = True
; magic_mesh_surface_mode = normal
; machine_extruder_count = 1
; --- Single Extruder Settings
; speed_z_hop = 10
; retraction_amount = 6
; retraction_hop = 0.075
; retraction_hop_enabled = True
; retraction_enable = True
; retraction_speed = 40
; retraction_retract_speed = 40
; retraction_prime_speed = 40
; speed_travel = 100


G21 ;metric values
G90 ;absolute positioning
M82 ;set extruder to absolute mode
M107 ;start with the fan off
G28 X0 Y0 ;move X/Y to min endstops
G28 Z0 ;move Z to min endstops
G1 Z15.0 F100 ;move the platform down 15mm
G92 E0 ;zero the extruded length
G1 F200 E3 ;extrude 3mm of feed stock
G92 E0 ;zero the extruded length again
G1 F100
G0 Y20 F100
M117 Printing...
G5
G92 E0
G92 E0
G1 F2400 E-6
;LAYER_COUNT:24
;LAYER:0
M106 S255
M204 S3000
M205 X10 Y10
G1 F600 Z0.275
G0 F3000 X50.531 Y47.435 Z0.275
M204 S1800
M205 X8 Y8
;TYPE:SKIRT
G1 F600 Z0.2
G1 F2400 E0
G1 X51.069 Y46.963 E0.03333
G1 X51.657 Y46.555 E0.06665
G1 X52.286 Y46.215 E0.09995
G1 X52.949 Y45.948 E0.13323
G1 X53.638 Y45.756 E0.16653
G1 X54.344 Y45.642 E0.19983
G1 X55.151 Y45.601 E0.23746
G1 X55.33 Y45.598 E0.24579
G1 X60.631 Y45.599 E0.49263
G1 X61.6 Y45.613 E0.53776
G1 X63.991 Y45.681 E0.64914
G1 X66.667 Y45.681 E0.77374
G1 X69.274 Y45.607 E0.89518
G1 X71.946 Y45.456 E1.0198
G1 X74.587 Y45.231 E1.14322
G1 X77.223 Y44.932 E1.26675
G1 X78.645 Y44.739 E1.33357
G1 X79.101 Y44.674 E1.35502
G1 X79.828 Y44.612 E1.389
G1 X80.328 Y44.6 E1.41229
G1 X85.64 Y44.601 E1.65964
G1 X86.351 Y44.612 E1.69275
G1 X87.064 Y44.663 E1.72603
G1 X90.534 Y45.259 E1.88998
G1 X93.134 Y45.628 E2.01226
G1 X95.771 Y45.928 E2.13584
G1 X98.398 Y46.15 E2.2586
G1 X101.044 Y46.3 E2.382
G1 X103.717 Y46.375 E2.50652
G1 X106.361 Y46.375 E2.62963
G1 X108.971 Y46.3 E2.75122
G1 X111.643 Y46.149 E2.87584
G1 X114.295 Y45.923 E2.99977
G1 X115.709 Y45.772 E3.06599
G1 X116.782 Y45.649 E3.11628
G1 X117.331 Y45.61 E3.14191
G1 X117.83 Y45.598 E3.16515
G1 X123.139 Y45.599 E3.41236
G1 X123.857 Y45.61 E3.44579
G1 X124.573 Y45.661 E3.47922
G1 X126.219 Y45.872 E3.55649
G1 X128.858 Y46.164 E3.68012
G1 X131.521 Y46.382 E3.80454
G1 X134.143 Y46.523 E3.92681
G1 X137.931 Y46.598 E4.10323
G1 X154.385 Y46.599 E4.86939
G1 X155.083 Y46.609 E4.9019
G1 X155.796 Y46.659 E4.93518
G1 X156.5 Y46.788 E4.96851
G1 X157.184 Y46.996 E5.0018
G1 X157.841 Y47.278 E5.03509
G1 X158.463 Y47.632 E5.06841
G1 X159.041 Y48.053 E5.10171
G1 X159.569 Y48.536 E5.13503
G1 X160.039 Y49.074 E5.1683
G1 X160.447 Y49.662 E5.20162
G1 X160.786 Y50.292 E5.23494
G1 X161.053 Y50.955 E5.26822
G1 X161.244 Y51.645 E5.30155
G1 X161.357 Y52.351 E5.33485
G1 X161.397 Y53.123 E5.37084
G1 X161.4 Y53.312 E5.37964
G1 X161.4 Y156.343 E10.1772
G1 X161.391 Y157.069 E10.21101
G1 X161.342 Y157.783 E10.24433
G1 X161.214 Y158.487 E10.27765
G1 X161.008 Y159.172 E10.31096
G1 X160.727 Y159.829 E10.34423
G1 X160.374 Y160.452 E10.37757
G1 X159.954 Y161.031 E10.41088
G1 X159.472 Y161.559 E10.44417
G1 X158.934 Y162.031 E10.4775
G1 X158.347 Y162.439 E10.51078
G1 X157.718 Y162.78 E10.5441
G1 X157.055 Y163.048 E10.5774
G1 X156.366 Y163.24 E10.6107
G1 X155.903 Y163.325 E10.63262
G1 X154.451 Y163.533 E10.70093
G1 X154.168 Y163.57 E10.71422
G1 X151.523 Y163.994 E10.83895
G1 X150.619 Y164.162 E10.88176
G1 X149.818 Y164.299 E10.9196
G1 X148.919 Y164.388 E10.96167
G1 X148.42 Y164.4 E10.98491
G1 X144.054 Y164.4 E11.18821
G1 X141.392 Y164.438 E11.31218
G1 X138.752 Y164.55 E11.43522
G1 X136.107 Y164.737 E11.55869
G1 X133.469 Y164.999 E11.68213
G1 X130.866 Y165.332 E11.80432
G1 X130.707 Y165.35 E11.81177
G1 X130.167 Y165.388 E11.83698
G1 X129.668 Y165.4 E11.86022
G1 X124.365 Y165.399 E12.10715
G1 X122.556 Y165.373 E12.1914
G1 X121.9 Y165.354 E12.22196
G1 X119.241 Y165.354 E12.34577
G1 X117.741 Y165.386 E12.41563
G1 X117.163 Y165.4 E12.44255
G1 X111.858 Y165.399 E12.68958
G1 X111.15 Y165.388 E12.72255
G1 X110.257 Y165.312 E12.76428
G1 X109.355 Y165.17 E12.8068
G1 X106.69 Y164.79 E12.93215
G1 X104.06 Y164.489 E13.05541
G1 X101.424 Y164.264 E13.1786
G1 X98.753 Y164.112 E13.30317
G1 X96.147 Y164.037 E13.42457
G1 X93.505 Y164.035 E13.54759
G1 X90.827 Y164.11 E13.67234
G1 X88.192 Y164.258 E13.79523
G1 X86.736 Y164.372 E13.86324
G1 X86.097 Y164.397 E13.89301
G1 X85.917 Y164.4 E13.9014
G1 X80.608 Y164.399 E14.14861
G1 X79.889 Y164.388 E14.18209
G1 X79.173 Y164.337 E14.21551
G1 X77.527 Y164.126 E14.29278
G1 X74.888 Y163.834 E14.41642
G1 X72.225 Y163.616 E14.54083
G1 X69.603 Y163.475 E14.6631
G1 X65.815 Y163.4 E14.83952
G1 X55.615 Y163.399 E15.31448
G1 X54.917 Y163.389 E15.34698
G1 X54.204 Y163.339 E15.38026
G1 X53.5 Y163.21 E15.41359
G1 X52.816 Y163.002 E15.44688
G1 X52.159 Y162.72 E15.48017
G1 X51.537 Y162.366 E15.5135
G1 X50.959 Y161.945 E15.54679
G1 X50.431 Y161.462 E15.58011
G1 X49.961 Y160.924 E15.61338
G1 X49.553 Y160.336 E15.6467
G1 X49.214 Y159.706 E15.68002
G1 X48.947 Y159.043 E15.7133
G1 X48.756 Y158.353 E15.74664
G1 X48.643 Y157.647 E15.77993
G1 X48.602 Y156.831 E15.81797
G1 X48.6 Y156.658 E15.82603
G1 X48.601 Y52.61 E20.67094
G1 X48.61 Y51.923 E20.70293
G1 X48.659 Y51.21 E20.73621
G1 X48.788 Y50.506 E20.76954
G1 X48.994 Y49.821 E20.80284
G1 X49.275 Y49.164 E20.83612
G1 X49.628 Y48.542 E20.86942
G1 X50.049 Y47.963 E20.90275
G1 X50.531 Y47.435 E20.93604
M204 S3000
M205 X10 Y10
G0 F3000 X51.079 Y47.688
M204 S1800
M205 X8 Y8
G1 F2400 X51.61 Y47.258 E20.96786
G1 X52.188 Y46.894 E20.99967
G1 X52.804 Y46.599 E21.03147
G1 X53.451 Y46.379 E21.06329
G1 X54.119 Y46.235 E21.09511
G1 X54.845 Y46.169 E21.12906
G1 X55.33 Y46.158 E21.15164
G1 X60.623 Y46.159 E21.39811
G1 X61.584 Y46.172 E21.44286
G1 X64.011 Y46.241 E21.55592
G1 X66.648 Y46.241 E21.67871
G1 X69.322 Y46.165 E21.80327
G1 X71.991 Y46.014 E21.92775
G1 X74.625 Y45.79 E22.05084
G1 X77.315 Y45.485 E22.1769
G1 X78.699 Y45.297 E22.24194
G1 X79.18 Y45.228 E22.26457
G1 X79.844 Y45.171 E22.2956
G1 X80.328 Y45.16 E22.31814
G1 X85.541 Y45.16 E22.56088
G1 X86.342 Y45.172 E22.59818
G1 X87.316 Y45.269 E22.64376
G1 X87.75 Y45.349 E22.66431
G1 X90.431 Y45.809 E22.79097
G1 X93.067 Y46.184 E22.91495
G1 X95.73 Y46.486 E23.03975
G1 X98.357 Y46.709 E23.16251
G1 X101.032 Y46.86 E23.28727
G1 X103.701 Y46.935 E23.4116
G1 X106.342 Y46.935 E23.53457
G1 X109.019 Y46.858 E23.65928
G1 X111.685 Y46.707 E23.78362
G1 X114.355 Y46.48 E23.90839
G1 X115.733 Y46.333 E23.97292
G1 X116.846 Y46.205 E24.02509
G1 X117.347 Y46.169 E24.04848
G1 X117.83 Y46.158 E24.07097
G1 X123.13 Y46.159 E24.31776
G1 X123.848 Y46.17 E24.3512
G1 X124.501 Y46.216 E24.38168
G1 X126.141 Y46.426 E24.45867
G1 X128.854 Y46.726 E24.58577
G1 X131.444 Y46.939 E24.70678
G1 X134.131 Y47.083 E24.83208
G1 X137.92 Y47.158 E25.00854
G1 X154.377 Y47.159 E25.77485
G1 X155.075 Y47.169 E25.80735
G1 X155.756 Y47.218 E25.83915
G1 X156.427 Y47.347 E25.87096
G1 X157.078 Y47.554 E25.90277
G1 X157.701 Y47.835 E25.9346
G1 X158.287 Y48.187 E25.96643
G1 X158.827 Y48.605 E25.99822
G1 X159.315 Y49.083 E26.03003
G1 X159.744 Y49.615 E26.06185
G1 X160.108 Y50.193 E26.09366
G1 X160.402 Y50.81 E26.12549
G1 X160.621 Y51.457 E26.15729
G1 X160.764 Y52.125 E26.1891
G1 X160.828 Y52.835 E26.2223
G1 X160.84 Y53.312 E26.24451
G1 X160.84 Y156.336 E31.04174
G1 X160.831 Y157.062 E31.07555
G1 X160.782 Y157.744 E31.10739
G1 X160.654 Y158.415 E31.1392
G1 X160.449 Y159.067 E31.17102
G1 X160.169 Y159.69 E31.20283
G1 X159.819 Y160.276 E31.23461
G1 X159.402 Y160.818 E31.26645
G1 X158.925 Y161.307 E31.29826
G1 X158.393 Y161.736 E31.33009
G1 X157.816 Y162.101 E31.36188
G1 X157.2 Y162.396 E31.39368
G1 X156.553 Y162.617 E31.42552
G1 X155.823 Y162.77 E31.46025
G1 X154.378 Y162.978 E31.52823
G1 X154.08 Y163.017 E31.54222
G1 X151.399 Y163.446 E31.66865
G1 X150.525 Y163.61 E31.71006
G1 X149.724 Y163.747 E31.74789
G1 X148.904 Y163.829 E31.78627
G1 X148.42 Y163.84 E31.80881
G1 X144.046 Y163.84 E32.01248
G1 X141.395 Y163.877 E32.13594
G1 X138.688 Y163.992 E32.2621
G1 X136.085 Y164.177 E32.38361
G1 X133.379 Y164.445 E32.51023
G1 X130.803 Y164.776 E32.63117
G1 X130.152 Y164.829 E32.66158
G1 X129.668 Y164.84 E32.68412
G1 X124.373 Y164.839 E32.93068
G1 X122.572 Y164.814 E33.01455
G1 X121.881 Y164.794 E33.04674
G1 X119.23 Y164.794 E33.17018
G1 X117.73 Y164.825 E33.24004
G1 X117.163 Y164.84 E33.26645
G1 X111.866 Y164.839 E33.5131
G1 X111.158 Y164.828 E33.54608
G1 X110.344 Y164.758 E33.58412
G1 X109.452 Y164.618 E33.62616
G1 X106.763 Y164.234 E33.75264
G1 X104.133 Y163.933 E33.87591
G1 X101.469 Y163.706 E34.0004
G1 X98.801 Y163.554 E34.12484
G1 X96.127 Y163.477 E34.2494
G1 X93.489 Y163.475 E34.37224
G1 X90.815 Y163.55 E34.4968
G1 X88.117 Y163.702 E34.62263
G1 X86.692 Y163.813 E34.68918
G1 X86.081 Y163.838 E34.71766
G1 X85.917 Y163.84 E34.7253
G1 X80.617 Y163.839 E34.97209
G1 X79.898 Y163.828 E35.00557
G1 X79.245 Y163.782 E35.03605
G1 X77.605 Y163.572 E35.11304
G1 X74.892 Y163.272 E35.24014
G1 X72.302 Y163.059 E35.36115
G1 X69.615 Y162.915 E35.48645
G1 X65.826 Y162.84 E35.66291
G1 X55.623 Y162.839 E36.13801
G1 X54.925 Y162.829 E36.17051
G1 X54.244 Y162.78 E36.2023
G1 X53.573 Y162.651 E36.23412
G1 X52.922 Y162.444 E36.26593
G1 X52.299 Y162.163 E36.29775
G1 X51.713 Y161.811 E36.32958
G1 X51.173 Y161.393 E36.36138
G1 X50.685 Y160.915 E36.39319
G1 X50.256 Y160.383 E36.42501
G1 X49.892 Y159.805 E36.45682
G1 X49.598 Y159.188 E36.48864
G1 X49.379 Y158.541 E36.52045
G1 X49.236 Y157.873 E36.55226
G1 X49.171 Y157.148 E36.58615
G1 X49.16 Y156.658 E36.60898
G1 X49.161 Y52.618 E41.45351
G1 X49.17 Y51.931 E41.48551
G1 X49.218 Y51.249 E41.51734
G1 X49.347 Y50.578 E41.54916
G1 X49.552 Y49.926 E41.58098
G1 X49.833 Y49.303 E41.61281
G1 X50.184 Y48.717 E41.64461
G1 X50.601 Y48.176 E41.67642
G1 X51.079 Y47.688 E41.70823
M204 S3000
M205 X10 Y10
G0 F3000 X51.152 Y48.401
M204 S1800
M205 X8 Y8
G1 F2400 X51.624 Y47.955 E41.73847
G1 X52.147 Y47.57 E41.76871
G1 X52.714 Y47.252 E41.79898
G1 X53.315 Y47.006 E41.82922
G1 X53.942 Y46.836 E41.85947
G1 X54.861 Y46.729 E41.90255
G1 X55.33 Y46.718 E41.92439
G1 X60.615 Y46.718 E42.17048
G1 X61.568 Y46.732 E42.21486
G1 X63.995 Y46.801 E42.32792
G1 X66.664 Y46.801 E42.4522
G1 X69.333 Y46.725 E42.57653
G1 X72.035 Y46.572 E42.70255
G1 X74.705 Y46.345 E42.82732
G1 X77.356 Y46.044 E42.95156
G1 X78.757 Y45.854 E43.01739
G1 X79.26 Y45.782 E43.04105
G1 X79.86 Y45.731 E43.06909
G1 X80.328 Y45.72 E43.09089
G1 X85.541 Y45.72 E43.33363
G1 X86.334 Y45.732 E43.37056
G1 X87.214 Y45.819 E43.41174
G1 X87.705 Y45.91 E43.43499
G1 X90.361 Y46.365 E43.56046
G1 X92.994 Y46.74 E43.68431
G1 X95.658 Y47.042 E43.80915
G1 X98.31 Y47.267 E43.93308
G1 X101.021 Y47.421 E44.05952
G1 X103.685 Y47.495 E44.18361
G1 X106.358 Y47.495 E44.30808
G1 X109.03 Y47.418 E44.43255
G1 X111.732 Y47.265 E44.55857
G1 X114.416 Y47.037 E44.684
G1 X115.786 Y46.89 E44.74816
G1 X116.91 Y46.761 E44.80084
G1 X117.681 Y46.72 E44.83679
G1 X117.83 Y46.718 E44.84373
G1 X123.122 Y46.719 E45.09014
G1 X123.84 Y46.73 E45.12358
G1 X124.43 Y46.772 E45.15112
G1 X126.07 Y46.982 E45.22811
G1 X128.782 Y47.282 E45.35517
G1 X131.439 Y47.5 E45.4793
G1 X134.09 Y47.643 E45.60292
G1 X137.909 Y47.718 E45.78079
G1 X154.369 Y47.719 E46.54723
G1 X155.067 Y47.729 E46.57974
G1 X155.714 Y47.778 E46.60995
G1 X156.351 Y47.906 E46.64021
G1 X156.967 Y48.112 E46.67045
G1 X157.554 Y48.392 E46.70073
G1 X158.101 Y48.741 E46.73095
G1 X158.602 Y49.155 E46.76121
G1 X159.047 Y49.628 E46.79145
G1 X159.432 Y50.152 E46.82173
G1 X159.749 Y50.719 E46.85198
G1 X159.994 Y51.32 E46.8822
G1 X160.163 Y51.947 E46.91243
G1 X160.269 Y52.852 E46.95486
G1 X160.28 Y53.312 E46.97629
G1 X160.28 Y156.329 E51.77319
G1 X160.271 Y157.055 E51.807
G1 X160.223 Y157.703 E51.83726
G1 X160.095 Y158.34 E51.86751
G1 X159.891 Y158.957 E51.89777
G1 X159.612 Y159.544 E51.92803
G1 X159.264 Y160.092 E51.95826
G1 X158.85 Y160.593 E51.98852
G1 X158.379 Y161.04 E52.01876
G1 X157.856 Y161.425 E52.049
G1 X157.29 Y161.743 E52.07923
G1 X156.688 Y161.99 E52.10953
G1 X155.744 Y162.216 E52.15473
G1 X154.305 Y162.423 E52.22242
G1 X153.988 Y162.465 E52.23731
G1 X151.323 Y162.891 E52.36298
G1 X150.43 Y163.058 E52.40529
G1 X149.629 Y163.195 E52.44313
G1 X148.888 Y163.269 E52.4778
G1 X148.42 Y163.28 E52.4996
G1 X144.038 Y163.28 E52.70364
G1 X141.363 Y163.318 E52.82822
G1 X138.697 Y163.431 E52.95247
G1 X135.99 Y163.623 E53.07883
G1 X133.351 Y163.884 E53.20232
G1 X130.74 Y164.219 E53.32489
G1 X130.136 Y164.269 E53.35311
G1 X129.668 Y164.28 E53.37491
G1 X124.381 Y164.279 E53.6211
G1 X122.588 Y164.254 E53.70459
G1 X121.897 Y164.234 E53.73678
G1 X119.218 Y164.234 E53.86153
G1 X117.747 Y164.265 E53.93004
G1 X117.163 Y164.28 E53.95724
G1 X111.875 Y164.279 E54.20347
G1 X111.167 Y164.268 E54.23644
G1 X110.43 Y164.205 E54.27089
G1 X109.538 Y164.065 E54.31293
G1 X106.832 Y163.678 E54.44022
G1 X104.175 Y163.375 E54.56474
G1 X101.479 Y163.144 E54.69074
G1 X98.849 Y162.994 E54.8134
G1 X96.144 Y162.917 E54.93941
G1 X93.473 Y162.915 E55.06378
G1 X90.804 Y162.99 E55.18811
G1 X88.086 Y163.143 E55.31487
G1 X86.648 Y163.255 E55.38203
G1 X86.065 Y163.278 E55.4092
G1 X85.917 Y163.28 E55.41609
G1 X80.625 Y163.279 E55.66251
G1 X79.906 Y163.268 E55.69599
G1 X79.316 Y163.226 E55.72354
G1 X77.676 Y163.016 E55.80052
G1 X74.964 Y162.716 E55.92758
G1 X72.307 Y162.498 E56.05171
G1 X69.656 Y162.355 E56.17533
G1 X65.837 Y162.28 E56.3532
G1 X55.631 Y162.279 E56.82843
G1 X54.933 Y162.269 E56.86094
G1 X54.286 Y162.22 E56.89115
G1 X53.649 Y162.092 E56.9214
G1 X53.033 Y161.886 E56.95165
G1 X52.446 Y161.606 E56.98193
G1 X51.899 Y161.257 E57.01215
G1 X51.398 Y160.843 E57.04241
G1 X50.953 Y160.37 E57.07265
G1 X50.568 Y159.846 E57.10293
G1 X50.251 Y159.279 E57.13317
G1 X50.006 Y158.678 E57.1634
G1 X49.837 Y158.051 E57.19363
G1 X49.731 Y157.133 E57.23666
G1 X49.72 Y156.658 E57.25879
G1 X49.72 Y52.625 E62.103
G1 X49.729 Y51.938 E62.13499
G1 X49.778 Y51.29 E62.16525
G1 X49.906 Y50.653 E62.19551
G1 X50.11 Y50.037 E62.22572
G1 X50.389 Y49.45 E62.25598
G1 X50.738 Y48.902 E62.28624
G1 X51.152 Y48.401 E62.3165
M204 S3000
M205 X10 Y10
G1 F2400 E56.3165
;MESH:minecraft_ore_lamp_side3.stl
G0 F3000 X54.335 Y52.852
G0 X55.854 Y52.852
G0 X72.35 Y66.1
M204 S1800
M205 X8 Y8
;TYPE:WALL-INNER
G1 F2400 E62.3165
G1 F1500 X72.35 Y84.848 E63.18949
G1 X66.1 Y84.848 E63.48051
G1 X66.1 Y100.148 E64.19294
G1 X72.35 Y100.148 E64.48397
G1 X72.35 Y106.4 E64.77509
G1 X81.398 Y106.4 E65.1964
G1 X81.398 Y87.648 E66.06957
G1 X87.648 Y87.648 E66.3606
G1 X87.648 Y72.35 E67.07294
G1 X81.398 Y72.35 E67.36397
G1 X81.398 Y66.1 E67.65499
G1 X72.35 Y66.1 E68.0763
M204 S3000
M205 X10 Y10
G0 F3000 X84.848 Y54.398
M204 S1800
M205 X8 Y8
G1 F1500 X118.9 Y54.398 E69.66191
G1 X118.9 Y53.398 E69.70847
G1 X122.348 Y53.398 E69.86903
G1 X122.348 Y54.398 E69.91559
G1 X153.6 Y54.398 E71.37081
G1 X153.6 Y155.6 E76.0832
G1 X147.35 Y155.6 E76.37423
G1 X147.35 Y156.6 E76.42079
G1 X143.9 Y156.6 E76.58144
G1 X143.9 Y155.6 E76.628
G1 X128.598 Y155.6 E77.34053
G1 X128.598 Y157.6 E77.43366
G1 X125.148 Y157.6 E77.5943
G1 X125.148 Y155.6 E77.68743
G1 X116.1 Y155.6 E78.10874
G1 X116.1 Y157.6 E78.20187
G1 X112.65 Y157.6 E78.36252
G1 X112.65 Y155.6 E78.45565
