;FLAVOR:Marlin
;TIME:13011
;Filament used: 9.81844m
;Layer height: 0.2
;MINX:48.6
;MINY:49.601
;MINZ:0.2
;MAXX:161.4
;MAXY:160.399
;MAXZ:5
;Generated with Cura_SteamEngine 4.8.0
M140 S55
M105
M190 S55
M104 S200
M105
M109 S200
M82 ;absolute extrusion mode
; Script based on an original created by tjjfvi (https://github.com/tjjfvi)
; An up-to-date version of the tjjfvi's original script can be found
; here:  https://csi.t6.fyi/
; Note - This script will only work in Cura V4.2 and above!
; --- Global Settings
; layer_height = 0.2
; smooth_spiralized_contours = True
; magic_mesh_surface_mode = normal
; machine_extruder_count = 1
; --- Single Extruder Settings
; speed_z_hop = 10
; retraction_amount = 6
; retraction_hop = 0.075
; retraction_hop_enabled = True
; retraction_enable = True
; retraction_speed = 40
; retraction_retract_speed = 40
; retraction_prime_speed = 40
; speed_travel = 100


G21 ;metric values
G90 ;absolute positioning
M82 ;set extruder to absolute mode
M107 ;start with the fan off
G28 X0 Y0 ;move X/Y to min endstops
G28 Z0 ;move Z to min endstops
G1 Z15.0 F100 ;move the platform down 15mm
G92 E0 ;zero the extruded length
G1 F200 E3 ;extrude 3mm of feed stock
G92 E0 ;zero the extruded length again
G1 F100
G0 Y20 F100
M117 Printing...
G5
G92 E0
G92 E0
G1 F2400 E-6
;LAYER_COUNT:25
;LAYER:0
M106 S255
M204 S3000
M205 X10 Y10
G1 F600 Z0.275
G0 F3000 X50.533 Y51.436 Z0.275
M204 S1800
M205 X8 Y8
;TYPE:SKIRT
G1 F600 Z0.2
G1 F2400 E0
G1 X51.071 Y50.965 E0.0333
G1 X51.659 Y50.557 E0.06662
G1 X52.288 Y50.217 E0.09991
G1 X52.952 Y49.95 E0.13324
G1 X53.641 Y49.758 E0.16654
G1 X54.347 Y49.644 E0.19984
G1 X55.151 Y49.604 E0.23733
G1 X55.33 Y49.601 E0.24566
G1 X154.293 Y49.601 E4.8538
G1 X155.083 Y49.612 E4.89059
G1 X155.796 Y49.662 E4.92387
G1 X156.5 Y49.791 E4.95719
G1 X157.184 Y49.999 E4.99048
G1 X157.841 Y50.281 E5.02378
G1 X158.463 Y50.635 E5.0571
G1 X159.041 Y51.056 E5.0904
G1 X159.569 Y51.539 E5.12372
G1 X160.039 Y52.077 E5.15698
G1 X160.447 Y52.665 E5.19031
G1 X160.786 Y53.295 E5.22362
G1 X161.053 Y53.958 E5.2569
G1 X161.244 Y54.648 E5.29024
G1 X161.357 Y55.354 E5.32353
G1 X161.397 Y56.151 E5.36069
G1 X161.4 Y56.331 E5.36907
G1 X161.399 Y85.633 E6.7335
G1 X161.382 Y86.78 E6.78691
G1 X161.324 Y88.807 E6.88134
G1 X161.324 Y91.468 E7.00525
G1 X161.356 Y92.961 E7.07478
G1 X161.397 Y94.371 E7.14046
G1 X161.4 Y94.559 E7.14922
G1 X161.399 Y153.351 E9.88682
G1 X161.389 Y154.078 E9.92068
G1 X161.34 Y154.792 E9.954
G1 X161.211 Y155.495 E9.98728
G1 X161.004 Y156.18 E10.0206
G1 X160.722 Y156.837 E10.0539
G1 X160.368 Y157.459 E10.08722
G1 X159.948 Y158.037 E10.12049
G1 X159.465 Y158.565 E10.15381
G1 X158.927 Y159.036 E10.18711
G1 X158.339 Y159.444 E10.22043
G1 X157.709 Y159.784 E10.25377
G1 X157.046 Y160.051 E10.28705
G1 X156.357 Y160.242 E10.32034
G1 X155.651 Y160.356 E10.35364
G1 X154.85 Y160.396 E10.39099
G1 X154.67 Y160.399 E10.39937
G1 X55.624 Y160.398 E15.01136
G1 X54.926 Y160.389 E15.04387
G1 X54.213 Y160.34 E15.07715
G1 X53.509 Y160.212 E15.11047
G1 X52.824 Y160.006 E15.14377
G1 X52.167 Y159.724 E15.17707
G1 X51.545 Y159.371 E15.21037
G1 X50.966 Y158.951 E15.24367
G1 X50.437 Y158.469 E15.277
G1 X49.966 Y157.931 E15.31029
G1 X49.558 Y157.344 E15.34358
G1 X49.218 Y156.714 E15.37692
G1 X48.95 Y156.051 E15.41022
G1 X48.758 Y155.362 E15.44352
G1 X48.644 Y154.656 E15.47682
G1 X48.602 Y153.83 E15.51533
G1 X48.6 Y153.657 E15.52339
G1 X48.601 Y56.588 E20.04333
G1 X48.61 Y55.923 E20.0743
G1 X48.659 Y55.21 E20.10757
G1 X48.788 Y54.506 E20.1409
G1 X48.995 Y53.822 E20.17418
G1 X49.277 Y53.164 E20.20751
G1 X49.63 Y52.542 E20.24081
G1 X50.05 Y51.964 E20.27408
G1 X50.533 Y51.436 E20.3074
M204 S3000
M205 X10 Y10
G0 F3000 X51.08 Y51.689
M204 S1800
M205 X8 Y8
G1 F2400 X51.612 Y51.26 E20.33923
G1 X52.19 Y50.895 E20.37106
G1 X52.807 Y50.601 E20.40288
G1 X53.453 Y50.381 E20.43466
G1 X54.121 Y50.238 E20.46647
G1 X54.845 Y50.172 E20.50032
G1 X55.33 Y50.161 E20.52291
G1 X154.293 Y50.161 E25.13104
G1 X155.075 Y50.172 E25.16746
G1 X155.756 Y50.221 E25.19925
G1 X156.427 Y50.35 E25.23107
G1 X157.078 Y50.557 E25.26288
G1 X157.701 Y50.838 E25.2947
G1 X158.287 Y51.19 E25.32653
G1 X158.827 Y51.608 E25.35833
G1 X159.315 Y52.086 E25.39014
G1 X159.744 Y52.618 E25.42196
G1 X160.108 Y53.196 E25.45377
G1 X160.402 Y53.813 E25.48559
G1 X160.621 Y54.46 E25.5174
G1 X160.764 Y55.128 E25.54921
G1 X160.829 Y55.847 E25.58283
G1 X160.84 Y56.331 E25.60537
G1 X160.839 Y85.625 E26.96942
G1 X160.823 Y86.764 E27.02246
G1 X160.764 Y88.826 E27.11852
G1 X160.764 Y91.48 E27.2421
G1 X160.795 Y92.973 E27.31163
G1 X160.837 Y94.387 E27.3775
G1 X160.84 Y94.559 E27.38551
G1 X160.839 Y153.343 E30.12274
G1 X160.829 Y154.07 E30.1566
G1 X160.78 Y154.752 E30.18844
G1 X160.652 Y155.423 E30.22025
G1 X160.445 Y156.074 E30.25205
G1 X160.165 Y156.697 E30.28386
G1 X159.813 Y157.283 E30.31569
G1 X159.396 Y157.824 E30.3475
G1 X158.918 Y158.312 E30.3793
G1 X158.386 Y158.741 E30.41113
G1 X157.808 Y159.105 E30.44293
G1 X157.191 Y159.399 E30.47476
G1 X156.544 Y159.619 E30.50658
G1 X155.876 Y159.762 E30.53839
G1 X155.154 Y159.828 E30.57215
G1 X154.67 Y159.839 E30.59469
G1 X55.632 Y159.839 E35.20632
G1 X54.934 Y159.83 E35.23882
G1 X54.252 Y159.781 E35.27066
G1 X53.581 Y159.653 E35.30247
G1 X52.93 Y159.447 E35.33426
G1 X52.306 Y159.167 E35.36611
G1 X51.72 Y158.816 E35.39792
G1 X51.179 Y158.399 E35.42972
G1 X50.69 Y157.921 E35.46156
G1 X50.261 Y157.39 E35.49335
G1 X49.896 Y156.812 E35.52518
G1 X49.602 Y156.196 E35.55696
G1 X49.381 Y155.549 E35.5888
G1 X49.237 Y154.881 E35.62062
G1 X49.171 Y154.148 E35.65489
G1 X49.16 Y153.657 E35.67776
G1 X49.161 Y56.596 E40.19732
G1 X49.17 Y55.931 E40.22829
G1 X49.219 Y55.25 E40.26008
G1 X49.347 Y54.578 E40.29194
G1 X49.553 Y53.927 E40.32373
G1 X49.834 Y53.304 E40.35556
G1 X50.185 Y52.718 E40.38736
G1 X50.603 Y52.177 E40.4192
G1 X51.08 Y51.689 E40.45097
M204 S3000
M205 X10 Y10
G0 F3000 X51.154 Y52.402
M204 S1800
M205 X8 Y8
G1 F2400 X51.626 Y51.956 E40.48121
G1 X52.149 Y51.572 E40.51142
G1 X52.716 Y51.254 E40.5417
G1 X53.317 Y51.008 E40.57193
G1 X53.944 Y50.838 E40.60218
G1 X54.861 Y50.732 E40.64517
G1 X55.33 Y50.721 E40.66701
G1 X154.293 Y50.721 E45.27514
G1 X155.067 Y50.732 E45.31119
G1 X155.714 Y50.781 E45.3414
G1 X156.351 Y50.909 E45.37166
G1 X156.967 Y51.115 E45.4019
G1 X157.554 Y51.395 E45.43218
G1 X158.101 Y51.744 E45.4624
G1 X158.602 Y52.158 E45.49266
G1 X159.047 Y52.631 E45.5229
G1 X159.432 Y53.155 E45.55318
G1 X159.749 Y53.722 E45.58343
G1 X159.994 Y54.323 E45.61365
G1 X160.163 Y54.95 E45.64389
G1 X160.269 Y55.863 E45.68668
G1 X160.28 Y56.331 E45.70848
G1 X160.279 Y85.617 E47.07216
G1 X160.263 Y86.748 E47.12483
G1 X160.204 Y88.81 E47.22088
G1 X160.204 Y91.492 E47.34577
G1 X160.235 Y92.943 E47.41335
G1 X160.278 Y94.404 E47.48141
G1 X160.28 Y94.559 E47.48863
G1 X160.28 Y153.336 E50.22553
G1 X160.27 Y154.063 E50.25939
G1 X160.221 Y154.71 E50.2896
G1 X160.093 Y155.347 E50.31985
G1 X159.887 Y155.964 E50.35014
G1 X159.608 Y156.55 E50.38036
G1 X159.259 Y157.098 E50.41062
G1 X158.845 Y157.598 E50.44084
G1 X158.372 Y158.044 E50.47112
G1 X157.849 Y158.429 E50.50136
G1 X157.282 Y158.747 E50.53163
G1 X156.681 Y158.992 E50.56185
G1 X156.054 Y159.162 E50.5921
G1 X155.138 Y159.268 E50.63504
G1 X154.67 Y159.279 E50.65683
G1 X55.639 Y159.279 E55.26813
G1 X54.941 Y159.27 E55.30064
G1 X54.293 Y159.221 E55.3309
G1 X53.656 Y159.094 E55.36114
G1 X53.04 Y158.889 E55.39137
G1 X52.453 Y158.61 E55.42163
G1 X51.905 Y158.261 E55.45189
G1 X51.404 Y157.848 E55.48212
G1 X50.957 Y157.376 E55.51239
G1 X50.572 Y156.853 E55.54263
G1 X50.254 Y156.286 E55.5729
G1 X50.008 Y155.685 E55.60314
G1 X49.838 Y155.058 E55.63339
G1 X49.731 Y154.133 E55.67675
G1 X49.72 Y153.657 E55.69892
G1 X49.72 Y56.604 E60.21811
G1 X49.729 Y55.939 E60.24908
G1 X49.778 Y55.291 E60.27934
G1 X49.906 Y54.654 E60.3096
G1 X50.111 Y54.037 E60.33987
G1 X50.391 Y53.451 E60.37011
G1 X50.74 Y52.903 E60.40036
G1 X51.154 Y52.402 E60.43063
M204 S3000
M205 X10 Y10
G1 F2400 E54.43063
;MESH:minecraft_ore_lamp_side2.stl
G0 F3000 X54.335 Y56.855
G0 X55.854 Y56.855
G0 X66.1 Y78.599
M204 S1800
M205 X8 Y8
;TYPE:WALL-INNER
G1 F2400 E60.43063
G1 F1500 X66.1 Y87.649 E60.85203
G1 X75.15 Y87.649 E61.27344
G1 X75.15 Y78.599 E61.69484
G1 X66.1 Y78.599 E62.11625
M204 S3000
M205 X10 Y10
G0 F3000 X66.632 Y87.117
G0 X72.35 Y97.349
M204 S1800
M205 X8 Y8
G1 F1500 X72.35 Y112.649 E62.82868
G1 X81.4 Y112.649 E63.25009
G1 X81.4 Y97.349 E63.96252
G1 X72.35 Y97.349 E64.38393
M204 S3000
M205 X10 Y10
G0 F3000 X80.868 Y97.881
G0 X84.85 Y116.099
M204 S1800
M205 X8 Y8
G1 F1500 X84.85 Y131.399 E65.09636
G1 X100.15 Y131.399 E65.80879
G1 X100.15 Y116.099 E66.52122
G1 X84.85 Y116.099 E67.23366
M204 S3000
M205 X10 Y10
G0 F3000 X66.1 Y128.599
M204 S1800
M205 X8 Y8
G1 F1500 X66.1 Y143.899 E67.94609
G1 X75.15 Y143.899 E68.36749
G1 X75.15 Y128.599 E69.07993
G1 X66.1 Y128.599 E69.50133
M204 S3000
M205 X10 Y10
G0 F3000 X99.618 Y105.867
G0 X109.85 Y97.349
M204 S1800
M205 X8 Y8
G1 F1500 X109.85 Y103.599 E69.79236
G1 X103.6 Y103.599 E70.08338
G1 X103.6 Y118.899 E70.79582
G1 X109.85 Y118.899 E71.08684
G1 X109.85 Y125.149 E71.37787
G1 X118.9 Y125.149 E71.79927
G1 X118.9 Y97.349 E73.09376
G1 X109.85 Y97.349 E73.51516
M204 S3000
M205 X10 Y10
G0 F3000 X118.368 Y97.881
G0 X128.6 Y103.599
M204 S1800
M205 X8 Y8
G1 F1500 X128.6 Y122.349 E74.38824
G1 X122.35 Y122.349 E74.67927
G1 X122.35 Y137.649 E75.3917
G1 X128.6 Y137.649 E75.68273
G1 X128.6 Y143.899 E75.97375
G1 X137.65 Y143.899 E76.39516
G1 X137.65 Y125.149 E77.26824
G1 X143.9 Y125.149 E77.55926
G1 X143.9 Y109.849 E78.2717
G1 X137.65 Y109.849 E78.56272
G1 X137.65 Y103.599 E78.85375
G1 X128.6 Y103.599 E79.27515
M204 S3000
M205 X10 Y10
G0 F3000 X147.35 Y84.849
M204 S1800
M205 X8 Y8
G1 F1500 X147.35 Y95.621 E79.77674
G1 X153.6 Y95.621 E80.06777
G1 X153.6 Y152.599 E82.7209
G1 X56.4 Y152.599 E87.24694
G1 X56.4 Y57.401 E91.67976
G1 X153.6 Y57.401 E96.2058
G1 X153.6 Y84.849 E97.48389
G1 X147.35 Y84.849 E97.77492
M204 S3000
M205 X10 Y10
G0 F3000 X143.368 Y72.881
G0 X134.85 Y72.349
M204 S1800
M205 X8 Y8
G1 F1500 X134.85 Y87.649 E98.48735
G1 X143.9 Y87.649 E98.90876
G1 X143.9 Y72.349 E99.62119
G1 X134.85 Y72.349 E100.0426
M204 S3000
M205 X10 Y10
G0 F3000 X116.1 Y78.599
M204 S1800
M205 X8 Y8
G1 F1500 X116.1 Y87.649 E100.464
G1 X125.15 Y87.649 E100.88541
G1 X125.15 Y78.599 E101.30681
G1 X116.1 Y78.599 E101.72822
M204 S3000
M205 X10 Y10
G0 F3000 X112.118 Y60.381
G0 X103.6 Y59.849
M204 S1800
M205 X8 Y8
G1 F1500 X103.6 Y75.149 E102.44065
G1 X112.65 Y75.149 E102.86206
G1 X112.65 Y59.849 E103.57449
G1 X103.6 Y59.849 E103.9959
M204 S3000
M205 X10 Y10
G0 F3000 X91.1 Y72.349
M204 S1800
M205 X8 Y8
G1 F1500 X91.1 Y84.849 E104.57795
G1 X84.85 Y84.849 E104.86897
G1 X84.85 Y100.149 E105.58141
G1 X91.1 Y100.149 E105.87243
G1 X91.1 Y106.399 E106.16346
G1 X100.15 Y106.399 E106.58487
G1 X100.15 Y72.349 E108.17038
G1 X91.1 Y72.349 E108.59178
M204 S3000
M205 X10 Y10
G0 F3000 X91.66 Y72.909
M204 S1800
M205 X8 Y8
G1 F1500 X91.66 Y85.409 E109.17383
G1 X85.41 Y85.409 E109.46486
G1 X85.41 Y99.589 E110.12514
G1 X91.66 Y99.589 E110.41617
G1 X91.66 Y105.839 E110.70719
G1 X99.59 Y105.839 E111.07645
G1 X99.59 Y72.909 E112.60981
G1 X91.66 Y72.909 E112.97906
M204 S3000
M205 X10 Y10
G0 F3000 X91.59 Y72.839
G0 X104.09 Y60.339
G0 X104.16 Y60.409
M204 S1800
M205 X8 Y8
G1 F1500 X104.16 Y74.589 E113.63934
G1 X112.09 Y74.589 E114.00859
G1 X112.09 Y60.409 E114.66887
G1 X104.16 Y60.409 E115.03813
M204 S3000
M205 X10 Y10
G0 F3000 X104.09 Y60.339
G0 X112.118 Y60.381
G0 X116.59 Y79.089
G0 X116.66 Y79.159
M204 S1800
M205 X8 Y8
G1 F1500 X116.66 Y87.089 E115.40738
G1 X124.59 Y87.089 E115.77664
G1 X124.59 Y79.159 E116.14589
G1 X116.66 Y79.159 E116.51514
M204 S3000
M205 X10 Y10
G0 F3000 X116.59 Y79.089
G0 X110.34 Y97.839
G0 X110.41 Y97.909
M204 S1800
M205 X8 Y8
G1 F1500 X110.41 Y104.159 E116.80617
G1 X104.16 Y104.159 E117.0972
G1 X104.16 Y118.339 E117.75748
G1 X110.41 Y118.339 E118.0485
G1 X110.41 Y124.589 E118.33953
G1 X118.34 Y124.589 E118.70878
G1 X118.34 Y97.909 E119.95112
G1 X110.41 Y97.909 E120.32037
M204 S3000
M205 X10 Y10
G0 F3000 X110.34 Y97.839
G0 X118.368 Y97.881
G0 X129.09 Y104.089
G0 X129.16 Y104.159
M204 S1800
M205 X8 Y8
G1 F1500 X129.16 Y122.909 E121.19345
G1 X122.91 Y122.909 E121.48447
G1 X122.91 Y137.089 E122.14475
G1 X129.16 Y137.089 E122.43578
G1 X129.16 Y143.339 E122.72681
G1 X137.09 Y143.339 E123.09606
G1 X137.09 Y124.589 E123.96914
G1 X143.34 Y124.589 E124.26017
G1 X143.34 Y110.409 E124.92045
G1 X137.09 Y110.409 E125.21147
G1 X137.09 Y104.159 E125.5025
G1 X129.16 Y104.159 E125.87175
M204 S3000
M205 X10 Y10
G0 F3000 X129.09 Y104.089
G0 X147.84 Y85.339
G0 X147.91 Y85.409
M204 S1800
M205 X8 Y8
G1 F1500 X147.91 Y95.061 E126.32119
G1 X154.16 Y95.061 E126.61222
G1 X154.16 Y153.159 E129.3175
G1 X55.84 Y153.159 E133.89569
G1 X55.84 Y56.841 E138.38066
G1 X154.16 Y56.841 E142.95885
G1 X154.16 Y85.409 E144.2891
G1 X147.91 Y85.409 E144.58013
M204 S3000
M205 X10 Y10
G0 F3000 X147.84 Y85.339
G0 X143.368 Y72.881
G0 X135.34 Y72.839
G0 X135.41 Y72.909
M204 S1800
M205 X8 Y8
G1 F1500 X135.41 Y87.089 E145.24041
G1 X143.34 Y87.089 E145.60966
G1 X143.34 Y72.909 E146.26994
G1 X135.41 Y72.909 E146.63919
M204 S3000
M205 X10 Y10
G0 F3000 X135.34 Y72.839
G0 X124.618 Y87.117
G0 X85.34 Y116.589
G0 X85.41 Y116.659
M204 S1800
M205 X8 Y8
G1 F1500 X85.41 Y130.839 E147.29947
G1 X99.59 Y130.839 E147.95975
G1 X99.59 Y116.659 E148.62003
G1 X85.41 Y116.659 E149.28032
M204 S3000
M205 X10 Y10
G0 F3000 X85.34 Y116.589
G0 X66.59 Y129.089
G0 X66.66 Y129.159
M204 S1800
M205 X8 Y8
G1 F1500 X66.66 Y143.339 E149.9406
G1 X74.59 Y143.339 E150.30985
G1 X74.59 Y129.159 E150.97013
G1 X66.66 Y129.159 E151.33938
M204 S3000
M205 X10 Y10
G0 F3000 X66.59 Y129.089
G0 X72.84 Y97.839
G0 X72.91 Y97.909
M204 S1800
M205 X8 Y8
G1 F1500 X72.91 Y112.089 E151.99966
G1 X80.84 Y112.089 E152.36892
G1 X80.84 Y97.909 E153.0292
G1 X72.91 Y97.909 E153.39845
M204 S3000
M205 X10 Y10
G0 F3000 X72.84 Y97.839
G0 X66.632 Y87.117
G0 X66.59 Y79.089
G0 X66.66 Y79.159
M204 S1800
M205 X8 Y8
G1 F1500 X66.66 Y87.089 E153.76771
G1 X74.59 Y87.089 E154.13696
G1 X74.59 Y79.159 E154.50621
G1 X66.66 Y79.159 E154.87547
M204 S3000
M205 X10 Y10
G0 F3000 X67.22 Y79.719
M204 S1800
M205 X8 Y8
;TYPE:WALL-OUTER
G1 F1500 X67.22 Y86.529 E155.19257
G1 X74.03 Y86.529 E155.50967
G1 X74.03 Y79.719 E155.82677
G1 X67.22 Y79.719 E156.14388
M204 S3000
M205 X10 Y10
G0 F3000 X67.22 Y79.919
G0 X66.56 Y79.919
G0 X66.632 Y87.117
G0 X73.47 Y97.809
G0 X73.47 Y98.469
M204 S1800
M205 X8 Y8
G1 F1500 X73.47 Y111.529 E156.752
G1 X80.28 Y111.529 E157.06911
G1 X80.28 Y98.469 E157.67724
G1 X73.47 Y98.469 E157.99434
M204 S3000
M205 X10 Y10
G0 F3000 X73.47 Y98.669
G0 X72.81 Y98.669
G0 X80.868 Y97.881
G0 X85.97 Y116.559
G0 X85.97 Y117.219
M204 S1800
M205 X8 Y8
G1 F1500 X85.97 Y130.279 E158.60247
G1 X99.03 Y130.279 E159.21059
G1 X99.03 Y117.219 E159.81872
G1 X85.97 Y117.219 E160.42685
M204 S3000
M205 X10 Y10
G0 F3000 X85.97 Y117.419
G0 X85.31 Y117.419
G0 X67.22 Y129.059
G0 X67.22 Y129.719
M204 S1800
M205 X8 Y8
G1 F1500 X67.22 Y142.779 E161.03498
G1 X74.03 Y142.779 E161.35208
G1 X74.03 Y129.719 E161.96021
G1 X67.22 Y129.719 E162.27731
M204 S3000
M205 X10 Y10
G0 F3000 X67.22 Y129.919
G0 X66.56 Y129.919
G0 X110.376 Y98.237
G0 X110.97 Y98.469
M204 S1800
M205 X8 Y8
G1 F1500 X110.97 Y104.719 E162.56834
G1 X104.72 Y104.719 E162.85936
G1 X104.72 Y117.779 E163.46749
G1 X110.97 Y117.779 E163.75852
G1 X110.97 Y124.029 E164.04954
G1 X117.78 Y124.029 E164.36665
