;FLAVOR:Marlin
;TIME:2943
;Filament used: 2.50798m
;Layer height: 0.2
;MINX:53.6
;MINY:56.6
;MINZ:0.2
;MAXX:156.4
;MAXY:153.4
;MAXZ:4.8
;Generated with Cura_SteamEngine 4.8.0
M140 S55
M105
M190 S55
M104 S200
M105
M109 S200
M82 ;absolute extrusion mode
; Script based on an original created by tjjfvi (https://github.com/tjjfvi)
; An up-to-date version of the tjjfvi's original script can be found
; here:  https://csi.t6.fyi/
; Note - This script will only work in Cura V4.2 and above!
; --- Global Settings
; layer_height = 0.2
; smooth_spiralized_contours = True
; magic_mesh_surface_mode = normal
; machine_extruder_count = 1
; --- Single Extruder Settings
; speed_z_hop = 10
; retraction_amount = 6
; retraction_hop = 0.075
; retraction_hop_enabled = True
; retraction_enable = True
; retraction_speed = 40
; retraction_retract_speed = 40
; retraction_prime_speed = 40
; speed_travel = 100


G21 ;metric values
G90 ;absolute positioning
M82 ;set extruder to absolute mode
M107 ;start with the fan off
G28 X0 Y0 ;move X/Y to min endstops
G28 Z0 ;move Z to min endstops
G1 Z15.0 F100 ;move the platform down 15mm
G92 E0 ;zero the extruded length
G1 F200 E3 ;extrude 3mm of feed stock
G92 E0 ;zero the extruded length again
G1 F100
G0 Y20 F100
M117 Printing...
G5
G92 E0
G92 E0
G1 F2400 E-6
;LAYER_COUNT:24
;LAYER:0
M106 S255
M204 S3000
M205 X10 Y10
G1 F600 Z0.275
G0 F3000 X55.533 Y58.435 Z0.275
M204 S1800
M205 X8 Y8
;TYPE:SKIRT
G1 F600 Z0.2
G1 F2400 E0
G1 X56.071 Y57.964 E0.0333
G1 X56.659 Y57.556 E0.06662
G1 X57.288 Y57.216 E0.09991
G1 X57.952 Y56.949 E0.13324
G1 X58.641 Y56.757 E0.16654
G1 X59.347 Y56.643 E0.19984
G1 X60.151 Y56.603 E0.23733
G1 X60.33 Y56.6 E0.24566
G1 X131.293 Y56.6 E3.55
G1 X132.085 Y56.611 E3.58688
G1 X132.799 Y56.661 E3.62021
G1 X133.502 Y56.79 E3.65349
G1 X134.187 Y56.997 E3.68681
G1 X134.844 Y57.28 E3.72012
G1 X135.466 Y57.633 E3.75342
G1 X136.044 Y58.054 E3.78672
G1 X136.572 Y58.537 E3.82004
G1 X137.042 Y59.076 E3.85334
G1 X137.392 Y59.571 E3.88157
G1 X137.687 Y60.036 E3.90721
G1 X138.601 Y61.52 E3.98837
G1 X140.05 Y63.73 E4.11142
G1 X141.587 Y65.934 E4.23654
G1 X143.152 Y68.051 E4.35913
G1 X144.783 Y70.131 E4.48221
G1 X146.454 Y72.14 E4.60388
G1 X148.219 Y74.145 E4.72827
G1 X150.036 Y76.098 E4.85248
G1 X151.856 Y77.945 E4.97322
G1 X153.906 Y79.907 E5.10535
G1 X154.351 Y80.322 E5.13368
G1 X154.846 Y80.837 E5.16695
G1 X155.281 Y81.405 E5.20026
G1 X155.65 Y82.018 E5.23358
G1 X155.948 Y82.668 E5.26687
G1 X156.171 Y83.348 E5.30019
G1 X156.318 Y84.048 E5.3335
G1 X156.387 Y84.809 E5.36908
G1 X156.4 Y85.33 E5.39335
G1 X156.399 Y116.384 E6.83935
G1 X156.389 Y117.089 E6.87218
G1 X156.339 Y117.802 E6.90547
G1 X156.21 Y118.506 E6.93879
G1 X156.003 Y119.19 E6.97207
G1 X155.858 Y119.552 E6.99023
G1 X155.638 Y120.057 E7.01588
G1 X154.594 Y122.552 E7.14181
G1 X153.629 Y125.05 E7.26651
G1 X152.766 Y127.499 E7.38742
G1 X151.95 Y130.039 E7.51165
G1 X151.206 Y132.595 E7.6356
G1 X150.545 Y135.132 E7.75768
G1 X149.947 Y137.723 E7.8815
G1 X149.423 Y140.324 E8.00505
G1 X148.98 Y142.921 E8.12772
G1 X148.603 Y145.56 E8.25185
G1 X148.412 Y147.234 E8.3303
G1 X148.339 Y147.804 E8.35706
G1 X148.209 Y148.507 E8.39035
G1 X148.001 Y149.192 E8.42369
G1 X147.718 Y149.848 E8.45695
G1 X147.363 Y150.47 E8.4903
G1 X146.941 Y151.047 E8.52359
G1 X146.458 Y151.574 E8.55688
G1 X145.918 Y152.044 E8.59021
G1 X145.33 Y152.451 E8.62351
G1 X144.7 Y152.789 E8.6568
G1 X144.036 Y153.055 E8.69011
G1 X143.347 Y153.246 E8.7234
G1 X142.64 Y153.358 E8.75673
G1 X141.849 Y153.397 E8.79361
G1 X141.67 Y153.4 E8.80195
G1 X60.615 Y153.399 E12.57621
G1 X59.917 Y153.389 E12.60871
G1 X59.204 Y153.339 E12.64199
G1 X58.5 Y153.21 E12.67532
G1 X57.816 Y153.002 E12.70861
G1 X57.159 Y152.72 E12.7419
G1 X56.537 Y152.366 E12.77523
G1 X55.959 Y151.945 E12.80852
G1 X55.431 Y151.462 E12.84184
G1 X54.961 Y150.924 E12.87511
G1 X54.553 Y150.336 E12.90843
G1 X54.214 Y149.706 E12.94175
G1 X53.947 Y149.043 E12.97503
G1 X53.756 Y148.353 E13.00837
G1 X53.643 Y147.647 E13.04166
G1 X53.602 Y146.831 E13.0797
G1 X53.6 Y146.658 E13.08776
G1 X53.601 Y118.107 E14.41721
G1 X53.612 Y117.401 E14.45009
G1 X53.718 Y116.336 E14.49993
G1 X53.803 Y115.877 E14.52166
G1 X54.249 Y113.267 E14.64496
G1 X54.623 Y110.64 E14.76852
G1 X54.921 Y108.019 E14.89135
G1 X55.146 Y105.379 E15.01472
G1 X55.297 Y102.706 E15.13939
G1 X55.371 Y100.1 E15.26078
G1 X55.371 Y97.422 E15.38548
G1 X55.297 Y94.814 E15.50697
G1 X55.146 Y92.142 E15.63159
G1 X54.921 Y89.501 E15.75501
G1 X54.624 Y86.885 E15.8776
G1 X54.248 Y84.249 E16.00159
G1 X53.804 Y81.654 E16.12418
G1 X53.7 Y81.061 E16.15221
G1 X53.612 Y80.169 E16.19395
G1 X53.6 Y79.67 E16.21719
G1 X53.601 Y63.587 E16.96608
G1 X53.61 Y62.922 E16.99705
G1 X53.659 Y62.209 E17.03033
G1 X53.788 Y61.505 E17.06366
G1 X53.995 Y60.821 E17.09693
G1 X54.277 Y60.163 E17.13027
G1 X54.63 Y59.541 E17.16357
G1 X55.05 Y58.963 E17.19684
G1 X55.533 Y58.435 E17.23016
M204 S3000
M205 X10 Y10
G0 F3000 X56.08 Y58.688
M204 S1800
M205 X8 Y8
G1 F2400 X56.612 Y58.259 E17.26198
G1 X57.19 Y57.894 E17.29381
G1 X57.807 Y57.6 E17.32564
G1 X58.453 Y57.38 E17.35742
G1 X59.121 Y57.237 E17.38923
G1 X59.845 Y57.171 E17.42308
G1 X60.33 Y57.16 E17.44567
G1 X131.293 Y57.16 E20.75
G1 X132.077 Y57.171 E20.78651
G1 X132.759 Y57.22 E20.81835
G1 X133.43 Y57.349 E20.85017
G1 X134.081 Y57.556 E20.88198
G1 X134.704 Y57.837 E20.9138
G1 X135.289 Y58.189 E20.94559
G1 X135.83 Y58.606 E20.9774
G1 X136.318 Y59.085 E21.00924
G1 X136.919 Y59.872 E21.05535
G1 X137.21 Y60.33 E21.08061
G1 X138.132 Y61.827 E21.16248
G1 X139.594 Y64.055 E21.28657
G1 X141.108 Y66.228 E21.40989
G1 X142.692 Y68.371 E21.53398
G1 X144.357 Y70.493 E21.65957
G1 X146.05 Y72.53 E21.78291
G1 X147.808 Y74.527 E21.90679
G1 X149.623 Y76.477 E22.03084
G1 X151.466 Y78.347 E22.1531
G1 X153.477 Y80.273 E22.28275
G1 X153.969 Y80.731 E22.31405
G1 X154.441 Y81.225 E22.34587
G1 X154.852 Y81.771 E22.37769
G1 X155.197 Y82.361 E22.40952
G1 X155.47 Y82.987 E22.44132
G1 X155.668 Y83.641 E22.47313
G1 X155.789 Y84.314 E22.50497
G1 X155.827 Y84.826 E22.52888
G1 X155.84 Y85.33 E22.55236
G1 X155.839 Y116.376 E23.99799
G1 X155.829 Y117.081 E24.03082
G1 X155.78 Y117.762 E24.06261
G1 X155.651 Y118.433 E24.09443
G1 X155.345 Y119.329 E24.13852
G1 X155.103 Y119.885 E24.16675
G1 X154.088 Y122.311 E24.28921
G1 X153.099 Y124.87 E24.41695
G1 X152.232 Y127.329 E24.53836
G1 X151.41 Y129.888 E24.66352
G1 X150.679 Y132.4 E24.78534
G1 X149.99 Y135.043 E24.91252
G1 X149.403 Y137.589 E25.03418
G1 X148.873 Y140.223 E25.15929
G1 X148.423 Y142.858 E25.28376
G1 X148.052 Y145.453 E25.40583
G1 X147.857 Y147.163 E25.48597
G1 X147.784 Y147.733 E25.51273
G1 X147.657 Y148.404 E25.54453
G1 X147.454 Y149.056 E25.57632
G1 X147.175 Y149.68 E25.60815
G1 X146.825 Y150.267 E25.63997
G1 X146.41 Y150.81 E25.6718
G1 X145.933 Y151.299 E25.70361
G1 X145.403 Y151.73 E25.73542
G1 X144.826 Y152.096 E25.76723
G1 X144.211 Y152.393 E25.79903
G1 X143.565 Y152.615 E25.83084
G1 X142.897 Y152.76 E25.86267
G1 X142.155 Y152.829 E25.89737
G1 X141.67 Y152.84 E25.91996
G1 X60.623 Y152.839 E29.69385
G1 X59.925 Y152.829 E29.72635
G1 X59.244 Y152.78 E29.75814
G1 X58.573 Y152.651 E29.78996
G1 X57.922 Y152.444 E29.82177
G1 X57.299 Y152.163 E29.85359
G1 X56.713 Y151.811 E29.88542
G1 X56.173 Y151.393 E29.91722
G1 X55.685 Y150.915 E29.94903
G1 X55.256 Y150.383 E29.98085
G1 X54.892 Y149.805 E30.01266
G1 X54.598 Y149.188 E30.04448
G1 X54.379 Y148.541 E30.07629
G1 X54.236 Y147.873 E30.1081
G1 X54.171 Y147.148 E30.142
G1 X54.16 Y146.658 E30.16482
G1 X54.161 Y118.116 E31.49385
G1 X54.172 Y117.41 E31.52673
G1 X54.269 Y116.438 E31.57222
G1 X54.345 Y116.025 E31.59177
G1 X54.8 Y113.372 E31.71711
G1 X55.178 Y110.712 E31.84221
G1 X55.48 Y108.06 E31.9665
G1 X55.704 Y105.421 E32.08982
G1 X55.855 Y102.754 E32.21421
G1 X55.931 Y100.081 E32.33873
G1 X55.931 Y97.441 E32.46166
G1 X55.855 Y94.766 E32.58627
G1 X55.704 Y92.097 E32.71074
G1 X55.48 Y89.463 E32.83384
G1 X55.179 Y86.813 E32.95803
G1 X54.799 Y84.144 E33.08356
G1 X54.355 Y81.553 E33.20596
G1 X54.252 Y80.967 E33.23367
G1 X54.171 Y80.153 E33.27176
G1 X54.16 Y79.67 E33.29426
G1 X54.161 Y63.595 E34.04278
G1 X54.17 Y62.93 E34.07374
G1 X54.219 Y62.249 E34.10554
G1 X54.347 Y61.577 E34.13739
G1 X54.553 Y60.926 E34.16918
G1 X54.834 Y60.303 E34.20101
G1 X55.185 Y59.717 E34.23282
G1 X55.603 Y59.176 E34.26465
G1 X56.08 Y58.688 E34.29643
M204 S3000
M205 X10 Y10
G0 F3000 X56.154 Y59.401
M204 S1800
M205 X8 Y8
G1 F2400 X56.626 Y58.955 E34.32666
G1 X57.149 Y58.571 E34.35688
G1 X57.716 Y58.253 E34.38715
G1 X58.317 Y58.007 E34.41739
G1 X58.944 Y57.837 E34.44764
G1 X59.861 Y57.731 E34.49062
G1 X60.33 Y57.72 E34.51246
G1 X131.293 Y57.72 E37.8168
G1 X132.069 Y57.731 E37.85294
G1 X132.717 Y57.78 E37.8832
G1 X133.354 Y57.908 E37.91345
G1 X133.97 Y58.114 E37.94369
G1 X134.556 Y58.393 E37.97392
G1 X135.104 Y58.743 E38.00419
G1 X135.604 Y59.157 E38.03442
G1 X136.05 Y59.63 E38.06469
G1 X136.447 Y60.173 E38.09601
G1 X136.733 Y60.624 E38.12088
G1 X137.648 Y62.109 E38.2021
G1 X139.127 Y64.364 E38.32767
G1 X140.659 Y66.563 E38.45247
G1 X142.262 Y68.73 E38.57798
G1 X143.915 Y70.839 E38.70275
G1 X145.612 Y72.879 E38.82631
G1 X147.393 Y74.901 E38.95178
G1 X149.21 Y76.855 E39.07603
G1 X151.076 Y78.749 E39.19983
G1 X153.123 Y80.708 E39.33176
G1 X153.588 Y81.141 E39.36135
G1 X154.035 Y81.612 E39.39159
G1 X154.421 Y82.135 E39.42185
G1 X154.74 Y82.701 E39.45211
G1 X154.987 Y83.301 E39.48232
G1 X155.159 Y83.928 E39.5126
G1 X155.267 Y84.843 E39.5555
G1 X155.28 Y85.33 E39.57818
G1 X155.279 Y116.368 E41.02344
G1 X155.269 Y117.073 E41.05627
G1 X155.22 Y117.721 E41.08653
G1 X155.092 Y118.357 E41.11674
G1 X154.831 Y119.105 E41.15363
G1 X154.619 Y119.592 E41.17836
G1 X153.551 Y122.144 E41.30718
G1 X152.583 Y124.649 E41.43223
G1 X151.702 Y127.149 E41.55566
G1 X150.881 Y129.705 E41.68066
G1 X150.131 Y132.28 E41.80555
G1 X149.453 Y134.886 E41.93094
G1 X148.85 Y137.497 E42.05571
G1 X148.323 Y140.115 E42.18007
G1 X147.871 Y142.759 E42.30497
G1 X147.492 Y145.415 E42.42989
G1 X147.301 Y147.092 E42.50849
G1 X147.228 Y147.662 E42.53525
G1 X147.106 Y148.3 E42.56549
G1 X146.907 Y148.918 E42.59572
G1 X146.633 Y149.507 E42.62597
G1 X146.289 Y150.058 E42.65622
G1 X145.88 Y150.563 E42.68648
G1 X145.412 Y151.013 E42.71671
G1 X144.892 Y151.403 E42.74698
G1 X144.328 Y151.726 E42.77724
G1 X143.729 Y151.977 E42.80748
G1 X143.104 Y152.152 E42.8377
G1 X142.139 Y152.269 E42.88297
G1 X141.67 Y152.28 E42.90481
G1 X60.631 Y152.279 E46.67833
G1 X59.933 Y152.269 E46.71083
G1 X59.286 Y152.22 E46.74105
G1 X58.649 Y152.092 E46.7713
G1 X58.033 Y151.886 E46.80155
G1 X57.446 Y151.606 E46.83183
G1 X56.899 Y151.257 E46.86204
G1 X56.398 Y150.843 E46.89231
G1 X55.953 Y150.37 E46.92255
G1 X55.568 Y149.846 E46.95282
G1 X55.251 Y149.279 E46.98307
G1 X55.006 Y148.678 E47.01329
G1 X54.837 Y148.051 E47.04353
G1 X54.731 Y147.133 E47.08656
G1 X54.72 Y146.658 E47.10868
G1 X54.721 Y118.125 E48.4373
G1 X54.732 Y117.419 E48.47018
G1 X54.819 Y116.54 E48.51131
G1 X54.904 Y116.081 E48.53304
G1 X55.357 Y113.436 E48.658
G1 X55.734 Y110.785 E48.78268
G1 X56.035 Y108.132 E48.90701
G1 X56.262 Y105.468 E49.03151
G1 X56.415 Y102.765 E49.15757
G1 X56.491 Y100.097 E49.28186
G1 X56.491 Y97.425 E49.40628
G1 X56.415 Y94.755 E49.53065
G1 X56.262 Y92.053 E49.65667
G1 X56.035 Y89.388 E49.78121
G1 X55.735 Y86.74 E49.9053
G1 X55.356 Y84.08 E50.03042
G1 X54.903 Y81.436 E50.15532
G1 X54.804 Y80.873 E50.18194
G1 X54.731 Y80.137 E50.21638
G1 X54.72 Y79.67 E50.23813
G1 X54.72 Y63.603 E50.98628
G1 X54.729 Y62.938 E51.01725
G1 X54.778 Y62.29 E51.04751
G1 X54.906 Y61.653 E51.07776
G1 X55.111 Y61.036 E51.10804
G1 X55.391 Y60.45 E51.13828
G1 X55.74 Y59.902 E51.16853
G1 X56.154 Y59.401 E51.19879
M204 S3000
M205 X10 Y10
G1 F2400 E45.19879
;MESH:minecraft_ore_back_panel_insert.stl
G0 F3000 X59.335 Y63.854
G0 X60.854 Y63.854
G0 X72.747 Y79.132
G0 X79.868 Y103.222
G0 X84.097 Y131.098
M204 S1800
M205 X8 Y8
;TYPE:WALL-INNER
G1 F2400 E51.19879
G1 F1500 X84.097 Y141.903 E51.70192
G1 X94.903 Y141.903 E52.20509
G1 X94.903 Y131.098 E52.70822
G1 X84.097 Y131.098 E53.21139
M204 S3000
M205 X10 Y10
G0 F3000 X130.6 Y86.4
M204 S1800
M205 X8 Y8
G1 F1500 X148.6 Y86.4 E54.04955
G1 X148.6 Y115.64 E55.41108
G1 X131.85 Y116.14 E56.19138
G1 X131.85 Y131.4 E56.90195
G1 X140.6 Y131.4 E57.30939
G1 X140.6 Y145.6 E57.9706
G1 X61.4 Y145.6 E61.65848
G1 X61.4 Y118.9 E62.90175
G1 X80.4 Y118.9 E63.78647
G1 X80.4 Y102.69 E64.54127
G1 X73.279 Y102.69 E64.87286
G1 X73.279 Y78.6 E65.99459
G1 X61.4 Y78.6 E66.54772
G1 X61.4 Y64.4 E67.20893
G1 X130.6 Y64.4 E70.43118
G1 X130.6 Y86.4 E71.45559
M204 S3000
M205 X10 Y10
G0 F3000 X131.16 Y85.84
M204 S1800
M205 X8 Y8
G1 F1500 X149.16 Y85.84 E72.29374
G1 X149.16 Y116.184 E73.70669
G1 X132.41 Y116.684 E74.48698
G1 X132.41 Y130.84 E75.14615
G1 X141.16 Y130.84 E75.55358
G1 X141.16 Y146.16 E76.26695
G1 X60.84 Y146.16 E80.00698
G1 X60.84 Y118.34 E81.3024
G1 X79.84 Y118.34 E82.18712
G1 X79.84 Y103.25 E82.88977
G1 X72.719 Y103.25 E83.22136
G1 X72.719 Y79.16 E84.34309
G1 X60.84 Y79.16 E84.89622
G1 X60.84 Y63.84 E85.60959
G1 X131.16 Y63.84 E88.88398
G1 X131.16 Y85.84 E89.90839
M204 S3000
M205 X10 Y10
G0 F3000 X131.09 Y85.91
G0 X84.587 Y131.588
G0 X84.657 Y131.658
M204 S1800
M205 X8 Y8
G1 F1500 X84.657 Y141.343 E90.35937
G1 X94.343 Y141.343 E90.81039
G1 X94.343 Y131.658 E91.26136
G1 X84.657 Y131.658 E91.71238
M204 S3000
M205 X10 Y10
G0 F3000 X85.217 Y132.218
M204 S1800
M205 X8 Y8
;TYPE:WALL-OUTER
G1 F1500 X85.217 Y140.783 E92.1112
G1 X93.783 Y140.783 E92.51007
G1 X93.783 Y132.218 E92.9089
G1 X85.217 Y132.218 E93.30776
M204 S3000
M205 X10 Y10
G0 F3000 X85.217 Y132.418
G0 X84.557 Y132.418
G0 X131.06 Y85.28
G0 X131.72 Y85.28
M204 S1800
M205 X8 Y8
G1 F1500 X149.72 Y85.28 E94.14592
G1 X149.72 Y116.728 E95.61027
G1 X132.97 Y117.228 E96.39057
G1 X132.97 Y130.28 E96.99832
G1 X141.72 Y130.28 E97.40576
G1 X141.72 Y146.72 E98.17128
G1 X60.28 Y146.72 E101.96346
G1 X60.28 Y117.78 E103.31103
G1 X79.28 Y117.78 E104.19575
G1 X79.28 Y103.81 E104.84625
G1 X72.159 Y103.81 E105.17784
G1 X72.159 Y79.72 E106.29957
G1 X60.28 Y79.72 E106.8527
G1 X60.28 Y63.28 E107.61822
G1 X131.72 Y63.28 E110.94476
G1 X131.72 Y85.28 E111.96918
M204 S3000
M205 X10 Y10
G0 F3000 X131.92 Y85.28
G0 X131.92 Y85.94
G0 X130.05 Y86.95
M204 S1800
M205 X8 Y8
;TYPE:SKIN
G1 F1500 X148.05 Y86.95 E112.80733
G1 X148.05 Y115.106 E114.11839
G1 X131.3 Y115.606 E114.89869
G1 X131.3 Y131.95 E115.65974
G1 X140.05 Y131.95 E116.06717
G1 X140.05 Y145.05 E116.67716
G1 X61.95 Y145.05 E120.31383
G1 X61.95 Y119.45 E121.50587
G1 X80.95 Y119.45 E122.39059
G1 X80.95 Y102.14 E123.19662
G1 X73.829 Y102.14 E123.5282
G1 X73.829 Y78.05 E124.64993
G1 X61.95 Y78.05 E125.20307
G1 X61.95 Y64.95 E125.81306
G1 X130.05 Y64.95 E128.98408
G1 X130.05 Y86.95 E130.00849
M204 S3000
M205 X10 Y10
G0 F3000 X95.453 Y130.548
M204 S1800
M205 X8 Y8
G1 F1500 X83.547 Y130.548 E130.56288
G1 X83.547 Y142.453 E131.11723
G1 X95.453 Y142.453 E131.67162
G1 X95.453 Y130.548 E132.22597
M204 S3000
M205 X10 Y10
G0 F3000 X84.629 Y131.63
G0 X62.425 Y144.789
M204 S1800
M205 X8 Y8
G1 F1500 X62.209 Y144.573 E132.24019
M204 S3000
M205 X10 Y10
G0 F3000 X62.209 Y143.781
M204 S1800
M205 X8 Y8
G1 F1500 X63.217 Y144.789 E132.30657
M204 S3000
M205 X10 Y10
G0 F3000 X64.009 Y144.789
M204 S1800
M205 X8 Y8
G1 F1500 X62.209 Y142.989 E132.42511
M204 S3000
M205 X10 Y10
G0 F3000 X62.209 Y142.197
M204 S1800
M205 X8 Y8
G1 F1500 X64.801 Y144.789 E132.59579
M204 S3000
M205 X10 Y10
G0 F3000 X65.593 Y144.789
M204 S1800
M205 X8 Y8
G1 F1500 X62.209 Y141.405 E132.81864
M204 S3000
