;FLAVOR:Marlin
;TIME:13218
;Filament used: 9.92035m
;Layer height: 0.2
;MINX:48.6
;MINY:49.601
;MINZ:0.2
;MAXX:161.4
;MAXY:160.399
;MAXZ:5
;Generated with Cura_SteamEngine 4.8.0
M140 S55
M105
M190 S55
M104 S200
M105
M109 S200
M82 ;absolute extrusion mode
; Script based on an original created by tjjfvi (https://github.com/tjjfvi)
; An up-to-date version of the tjjfvi's original script can be found
; here:  https://csi.t6.fyi/
; Note - This script will only work in Cura V4.2 and above!
; --- Global Settings
; layer_height = 0.2
; smooth_spiralized_contours = True
; magic_mesh_surface_mode = normal
; machine_extruder_count = 1
; --- Single Extruder Settings
; speed_z_hop = 10
; retraction_amount = 6
; retraction_hop = 0.075
; retraction_hop_enabled = True
; retraction_enable = True
; retraction_speed = 40
; retraction_retract_speed = 40
; retraction_prime_speed = 40
; speed_travel = 100


G21 ;metric values
G90 ;absolute positioning
M82 ;set extruder to absolute mode
M107 ;start with the fan off
G28 X0 Y0 ;move X/Y to min endstops
G28 Z0 ;move Z to min endstops
G1 Z15.0 F100 ;move the platform down 15mm
G92 E0 ;zero the extruded length
G1 F200 E3 ;extrude 3mm of feed stock
G92 E0 ;zero the extruded length again
G1 F100
G0 Y20 F100
M117 Printing...
G5
G92 E0
G92 E0
G1 F2400 E-6
;LAYER_COUNT:25
;LAYER:0
M106 S255
M204 S3000
M205 X10 Y10
G1 F600 Z0.275
G0 F3000 X50.533 Y51.436 Z0.275
M204 S1800
M205 X8 Y8
;TYPE:SKIRT
G1 F600 Z0.2
G1 F2400 E0
G1 X51.071 Y50.965 E0.0333
G1 X51.659 Y50.557 E0.06662
G1 X52.288 Y50.217 E0.09991
G1 X52.952 Y49.95 E0.13324
G1 X53.641 Y49.758 E0.16654
G1 X54.347 Y49.644 E0.19984
G1 X55.151 Y49.604 E0.23733
G1 X55.33 Y49.601 E0.24566
G1 X154.293 Y49.601 E4.8538
G1 X155.083 Y49.612 E4.89059
G1 X155.796 Y49.662 E4.92387
G1 X156.5 Y49.791 E4.95719
G1 X157.184 Y49.999 E4.99048
G1 X157.841 Y50.281 E5.02378
G1 X158.463 Y50.635 E5.0571
G1 X159.041 Y51.056 E5.0904
G1 X159.569 Y51.539 E5.12372
G1 X160.039 Y52.077 E5.15698
G1 X160.447 Y52.665 E5.19031
G1 X160.786 Y53.295 E5.22362
G1 X161.053 Y53.958 E5.2569
G1 X161.244 Y54.648 E5.29024
G1 X161.357 Y55.354 E5.32353
G1 X161.397 Y56.151 E5.36069
G1 X161.4 Y56.331 E5.36907
G1 X161.4 Y153.342 E9.88631
G1 X161.391 Y154.069 E9.92017
G1 X161.342 Y154.783 E9.95349
G1 X161.214 Y155.487 E9.98681
G1 X161.008 Y156.172 E10.02012
G1 X160.727 Y156.829 E10.05339
G1 X160.374 Y157.452 E10.08674
G1 X159.954 Y158.031 E10.12004
G1 X159.472 Y158.559 E10.15333
G1 X158.935 Y159.031 E10.18662
G1 X158.347 Y159.439 E10.21995
G1 X157.718 Y159.78 E10.25326
G1 X157.055 Y160.048 E10.28656
G1 X156.366 Y160.24 E10.31987
G1 X155.66 Y160.355 E10.35318
G1 X154.849 Y160.396 E10.39099
G1 X154.67 Y160.399 E10.39932
G1 X55.624 Y160.398 E15.01132
G1 X54.926 Y160.389 E15.04382
G1 X54.213 Y160.34 E15.0771
G1 X53.509 Y160.212 E15.11042
G1 X52.824 Y160.006 E15.14373
G1 X52.167 Y159.724 E15.17702
G1 X51.545 Y159.371 E15.21032
G1 X50.966 Y158.951 E15.24363
G1 X50.437 Y158.469 E15.27695
G1 X49.966 Y157.931 E15.31025
G1 X49.558 Y157.344 E15.34354
G1 X49.218 Y156.714 E15.37687
G1 X48.95 Y156.051 E15.41017
G1 X48.758 Y155.362 E15.44348
G1 X48.644 Y154.656 E15.47678
G1 X48.602 Y153.83 E15.51529
G1 X48.6 Y153.657 E15.52334
G1 X48.601 Y56.588 E20.04328
G1 X48.61 Y55.923 E20.07425
G1 X48.659 Y55.21 E20.10753
G1 X48.788 Y54.506 E20.14086
G1 X48.995 Y53.822 E20.17413
G1 X49.277 Y53.164 E20.20747
G1 X49.63 Y52.542 E20.24077
G1 X50.05 Y51.964 E20.27404
G1 X50.533 Y51.436 E20.30736
M204 S3000
M205 X10 Y10
G0 F3000 X51.08 Y51.689
M204 S1800
M205 X8 Y8
G1 F2400 X51.612 Y51.26 E20.33918
G1 X52.19 Y50.895 E20.37101
G1 X52.807 Y50.601 E20.40284
G1 X53.453 Y50.381 E20.43462
G1 X54.121 Y50.238 E20.46643
G1 X54.845 Y50.172 E20.50028
G1 X55.33 Y50.161 E20.52287
G1 X154.293 Y50.161 E25.131
G1 X155.075 Y50.172 E25.16742
G1 X155.756 Y50.221 E25.19921
G1 X156.427 Y50.35 E25.23103
G1 X157.078 Y50.557 E25.26283
G1 X157.701 Y50.838 E25.29466
G1 X158.287 Y51.19 E25.32649
G1 X158.827 Y51.608 E25.35829
G1 X159.315 Y52.086 E25.39009
G1 X159.744 Y52.618 E25.42192
G1 X160.108 Y53.196 E25.45372
G1 X160.402 Y53.813 E25.48555
G1 X160.621 Y54.46 E25.51736
G1 X160.764 Y55.128 E25.54916
G1 X160.829 Y55.847 E25.58278
G1 X160.84 Y56.331 E25.60532
G1 X160.84 Y153.335 E30.12224
G1 X160.831 Y154.062 E30.15609
G1 X160.782 Y154.744 E30.18793
G1 X160.654 Y155.415 E30.21974
G1 X160.449 Y156.067 E30.25156
G1 X160.169 Y156.69 E30.28337
G1 X159.819 Y157.276 E30.31515
G1 X159.402 Y157.818 E30.34699
G1 X158.925 Y158.307 E30.3788
G1 X158.394 Y158.736 E30.41059
G1 X157.816 Y159.101 E30.44242
G1 X157.2 Y159.396 E30.47422
G1 X156.553 Y159.617 E30.50606
G1 X155.885 Y159.761 E30.53788
G1 X155.155 Y159.828 E30.57201
G1 X154.67 Y159.839 E30.5946
G1 X55.632 Y159.839 E35.20623
G1 X54.934 Y159.83 E35.23873
G1 X54.252 Y159.781 E35.27057
G1 X53.581 Y159.653 E35.30238
G1 X52.93 Y159.447 E35.33417
G1 X52.306 Y159.167 E35.36602
G1 X51.72 Y158.816 E35.39783
G1 X51.179 Y158.399 E35.42963
G1 X50.69 Y157.921 E35.46147
G1 X50.261 Y157.39 E35.49326
G1 X49.896 Y156.812 E35.52509
G1 X49.602 Y156.196 E35.55688
G1 X49.381 Y155.549 E35.58871
G1 X49.237 Y154.881 E35.62053
G1 X49.171 Y154.148 E35.6548
G1 X49.16 Y153.657 E35.67767
G1 X49.161 Y56.596 E40.19724
G1 X49.17 Y55.931 E40.2282
G1 X49.219 Y55.25 E40.26
G1 X49.347 Y54.578 E40.29185
G1 X49.553 Y53.927 E40.32365
G1 X49.834 Y53.304 E40.35547
G1 X50.185 Y52.718 E40.38728
G1 X50.603 Y52.177 E40.41911
G1 X51.08 Y51.689 E40.45089
M204 S3000
M205 X10 Y10
G0 F3000 X51.154 Y52.402
M204 S1800
M205 X8 Y8
G1 F2400 X51.626 Y51.956 E40.48112
G1 X52.149 Y51.572 E40.51134
G1 X52.716 Y51.254 E40.54161
G1 X53.317 Y51.008 E40.57185
G1 X53.944 Y50.838 E40.6021
G1 X54.861 Y50.732 E40.64508
G1 X55.33 Y50.721 E40.66692
G1 X154.293 Y50.721 E45.27506
G1 X155.067 Y50.732 E45.3111
G1 X155.714 Y50.781 E45.34131
G1 X156.351 Y50.909 E45.37157
G1 X156.967 Y51.115 E45.40181
G1 X157.554 Y51.395 E45.4321
G1 X158.101 Y51.744 E45.46231
G1 X158.602 Y52.158 E45.49257
G1 X159.047 Y52.631 E45.52281
G1 X159.432 Y53.155 E45.55309
G1 X159.749 Y53.722 E45.58334
G1 X159.994 Y54.323 E45.61356
G1 X160.163 Y54.95 E45.6438
G1 X160.269 Y55.863 E45.6866
G1 X160.28 Y56.331 E45.70839
G1 X160.28 Y153.328 E50.22498
G1 X160.271 Y154.055 E50.25884
G1 X160.223 Y154.703 E50.28909
G1 X160.095 Y155.34 E50.31935
G1 X159.891 Y155.957 E50.34961
G1 X159.612 Y156.544 E50.37987
G1 X159.264 Y157.092 E50.4101
G1 X158.851 Y157.593 E50.44033
G1 X158.379 Y158.04 E50.4706
G1 X157.856 Y158.425 E50.50084
G1 X157.29 Y158.743 E50.53107
G1 X156.688 Y158.99 E50.56137
G1 X156.062 Y159.16 E50.59157
G1 X155.139 Y159.268 E50.63485
G1 X154.67 Y159.279 E50.65669
G1 X55.639 Y159.279 E55.26799
G1 X54.941 Y159.27 E55.30049
G1 X54.293 Y159.221 E55.33075
G1 X53.656 Y159.094 E55.361
G1 X53.04 Y158.889 E55.39123
G1 X52.453 Y158.61 E55.42149
G1 X51.905 Y158.261 E55.45174
G1 X51.404 Y157.848 E55.48198
G1 X50.957 Y157.376 E55.51225
G1 X50.572 Y156.853 E55.54249
G1 X50.254 Y156.286 E55.57276
G1 X50.008 Y155.685 E55.603
G1 X49.838 Y155.058 E55.63325
G1 X49.731 Y154.133 E55.67661
G1 X49.72 Y153.657 E55.69878
G1 X49.72 Y56.604 E60.21797
G1 X49.729 Y55.939 E60.24894
G1 X49.778 Y55.291 E60.2792
G1 X49.906 Y54.654 E60.30945
G1 X50.111 Y54.037 E60.33973
G1 X50.391 Y53.451 E60.36997
G1 X50.74 Y52.903 E60.40022
G1 X51.154 Y52.402 E60.43048
M204 S3000
M205 X10 Y10
G1 F2400 E54.43048
;MESH:minecraft_ore_lamp_side4.stl
G0 F3000 X54.335 Y56.855
G0 X55.854 Y56.855
G0 X72.35 Y66.099
M204 S1800
M205 X8 Y8
;TYPE:WALL-INNER
G1 F2400 E60.43048
G1 F1500 X72.35 Y84.849 E61.30356
G1 X66.1 Y84.849 E61.59459
G1 X66.1 Y100.149 E62.30702
G1 X72.35 Y100.149 E62.59805
G1 X72.35 Y106.399 E62.88907
G1 X81.4 Y106.399 E63.31048
G1 X81.4 Y87.649 E64.18356
G1 X87.65 Y87.649 E64.47458
G1 X87.65 Y72.349 E65.18702
G1 X81.4 Y72.349 E65.47804
G1 X81.4 Y66.099 E65.76907
G1 X72.35 Y66.099 E66.19048
M204 S3000
M205 X10 Y10
G0 F3000 X80.868 Y66.631
G0 X87.118 Y72.881
G0 X91.1 Y84.849
M204 S1800
M205 X8 Y8
G1 F1500 X91.1 Y112.649 E67.48496
G1 X100.15 Y112.649 E67.90637
G1 X100.15 Y106.399 E68.19739
G1 X106.4 Y106.399 E68.48842
G1 X106.4 Y91.099 E69.20085
G1 X100.15 Y91.099 E69.49188
G1 X100.15 Y84.849 E69.7829
G1 X91.1 Y84.849 E70.20431
M204 S3000
M205 X10 Y10
G0 F3000 X109.85 Y78.599
M204 S1800
M205 X8 Y8
G1 F1500 X109.85 Y93.899 E70.91674
G1 X125.15 Y93.899 E71.62917
G1 X125.15 Y78.599 E72.3416
G1 X109.85 Y78.599 E73.05404
M204 S3000
M205 X10 Y10
G0 F3000 X109.85 Y103.599
M204 S1800
M205 X8 Y8
G1 F1500 X109.85 Y137.649 E74.63955
G1 X118.9 Y137.649 E75.06095
G1 X118.9 Y125.149 E75.64301
G1 X125.15 Y125.149 E75.93403
G1 X125.15 Y109.849 E76.64646
G1 X118.9 Y109.849 E76.93749
G1 X118.9 Y103.599 E77.22852
G1 X109.85 Y103.599 E77.64992
M204 S3000
M205 X10 Y10
G0 F3000 X128.6 Y97.349
M204 S1800
M205 X8 Y8
G1 F1500 X128.6 Y112.649 E78.36235
G1 X137.65 Y112.649 E78.78376
G1 X137.65 Y97.349 E79.49619
G1 X128.6 Y97.349 E79.9176
M204 S3000
M205 X10 Y10
G0 F3000 X129.132 Y112.117
G0 X134.85 Y122.349
M204 S1800
M205 X8 Y8
G1 F1500 X134.85 Y131.399 E80.339
G1 X143.9 Y131.399 E80.76041
G1 X143.9 Y122.349 E81.18182
G1 X134.85 Y122.349 E81.60322
M204 S3000
M205 X10 Y10
G0 F3000 X135.382 Y130.867
G0 X153.6 Y152.599
M204 S1800
M205 X8 Y8
G1 F1500 X56.4 Y152.599 E86.12926
G1 X56.4 Y57.401 E90.56208
G1 X153.6 Y57.401 E95.08812
G1 X153.6 Y152.599 E99.52094
M204 S3000
M205 X10 Y10
G0 F3000 X105.87 Y135.992
G0 X97.35 Y134.849
M204 S1800
M205 X8 Y8
G1 F1500 X97.35 Y150.149 E100.23337
G1 X106.4 Y150.149 E100.65477
G1 X106.4 Y134.849 E101.36721
G1 X97.35 Y134.849 E101.78861
M204 S3000
M205 X10 Y10
G0 F3000 X85.382 Y130.867
G0 X84.85 Y122.349
M204 S1800
M205 X8 Y8
G1 F1500 X84.85 Y131.399 E102.21002
G1 X93.9 Y131.399 E102.63142
G1 X93.9 Y122.349 E103.05283
G1 X84.85 Y122.349 E103.47424
M204 S3000
M205 X10 Y10
G0 F3000 X66.1 Y122.349
M204 S1800
M205 X8 Y8
G1 F1500 X66.1 Y137.649 E104.18667
G1 X75.15 Y137.649 E104.60807
G1 X75.15 Y122.349 E105.32051
G1 X66.1 Y122.349 E105.74191
M204 S3000
M205 X10 Y10
G0 F3000 X91.631 Y94.497
G0 X91.632 Y85.381
G0 X134.85 Y66.099
M204 S1800
M205 X8 Y8
G1 F1500 X134.85 Y81.399 E106.45434
G1 X143.9 Y81.399 E106.87575
G1 X143.9 Y66.099 E107.58818
G1 X134.85 Y66.099 E108.00959
M204 S3000
M205 X10 Y10
G0 F3000 X135.41 Y66.659
M204 S1800
M205 X8 Y8
G1 F1500 X135.41 Y80.839 E108.66987
G1 X143.34 Y80.839 E109.03912
G1 X143.34 Y66.659 E109.6994
G1 X135.41 Y66.659 E110.06866
M204 S3000
M205 X10 Y10
G0 F3000 X135.34 Y66.589
G0 X110.34 Y79.089
G0 X110.41 Y79.159
M204 S1800
M205 X8 Y8
G1 F1500 X110.41 Y93.339 E110.72894
G1 X124.59 Y93.339 E111.38922
G1 X124.59 Y79.159 E112.0495
G1 X110.41 Y79.159 E112.70978
M204 S3000
M205 X10 Y10
G0 F3000 X110.34 Y79.089
G0 X91.59 Y85.339
G0 X91.66 Y85.409
M204 S1800
M205 X8 Y8
G1 F1500 X91.66 Y112.089 E113.95211
G1 X99.59 Y112.089 E114.32136
G1 X99.59 Y105.839 E114.61239
G1 X105.84 Y105.839 E114.90342
G1 X105.84 Y91.659 E115.5637
G1 X99.59 Y91.659 E115.85472
G1 X99.59 Y85.409 E116.14575
G1 X91.66 Y85.409 E116.515
M204 S3000
M205 X10 Y10
G0 F3000 X91.59 Y85.339
G0 X99.618 Y85.381
G0 X105.868 Y91.631
G0 X110.34 Y104.089
G0 X110.41 Y104.159
M204 S1800
M205 X8 Y8
G1 F1500 X110.41 Y137.089 E118.04836
G1 X118.34 Y137.089 E118.41761
G1 X118.34 Y124.589 E118.99967
G1 X124.59 Y124.589 E119.29069
G1 X124.59 Y110.409 E119.95097
G1 X118.34 Y110.409 E120.242
G1 X118.34 Y104.159 E120.53303
G1 X110.41 Y104.159 E120.90228
M204 S3000
M205 X10 Y10
G0 F3000 X110.34 Y104.089
G0 X129.09 Y97.839
G0 X129.16 Y97.909
M204 S1800
M205 X8 Y8
G1 F1500 X129.16 Y112.089 E121.56256
G1 X137.09 Y112.089 E121.93181
G1 X137.09 Y97.909 E122.59209
G1 X129.16 Y97.909 E122.96135
M204 S3000
M205 X10 Y10
G0 F3000 X129.09 Y97.839
G0 X129.132 Y112.117
G0 X135.34 Y122.839
G0 X135.41 Y122.909
M204 S1800
M205 X8 Y8
G1 F1500 X135.41 Y130.839 E123.3306
G1 X143.34 Y130.839 E123.69986
G1 X143.34 Y122.909 E124.06911
G1 X135.41 Y122.909 E124.43836
M204 S3000
M205 X10 Y10
G0 F3000 X135.34 Y122.839
G0 X135.382 Y130.867
G0 X154.09 Y153.089
G0 X154.16 Y153.159
M204 S1800
M205 X8 Y8
G1 F1500 X55.84 Y153.159 E129.01656
G1 X55.84 Y56.841 E133.50152
G1 X154.16 Y56.841 E138.07972
G1 X154.16 Y153.159 E142.56469
M204 S3000
M205 X10 Y10
G0 F3000 X154.09 Y153.089
G0 X105.87 Y136.087
G0 X97.84 Y135.339
G0 X97.91 Y135.409
M204 S1800
M205 X8 Y8
G1 F1500 X97.91 Y149.589 E143.22497
G1 X105.84 Y149.589 E143.59422
G1 X105.84 Y135.409 E144.2545
G1 X97.91 Y135.409 E144.62375
M204 S3000
M205 X10 Y10
G0 F3000 X97.84 Y135.339
G0 X85.382 Y130.867
G0 X85.34 Y122.839
G0 X85.41 Y122.909
M204 S1800
M205 X8 Y8
G1 F1500 X85.41 Y130.839 E144.99301
G1 X93.34 Y130.839 E145.36226
G1 X93.34 Y122.909 E145.73152
G1 X85.41 Y122.909 E146.10077
M204 S3000
M205 X10 Y10
G0 F3000 X85.34 Y122.839
G0 X66.59 Y122.839
G0 X66.66 Y122.909
M204 S1800
M205 X8 Y8
G1 F1500 X66.66 Y137.089 E146.76105
G1 X74.59 Y137.089 E147.1303
G1 X74.59 Y122.909 E147.79058
G1 X66.66 Y122.909 E148.15984
M204 S3000
M205 X10 Y10
G0 F3000 X66.59 Y122.839
G0 X66.632 Y85.381
G0 X72.84 Y66.589
G0 X72.91 Y66.659
M204 S1800
M205 X8 Y8
G1 F1500 X72.91 Y85.409 E149.03292
G1 X66.66 Y85.409 E149.32394
G1 X66.66 Y99.589 E149.98422
G1 X72.91 Y99.589 E150.27525
G1 X72.91 Y105.839 E150.56628
G1 X80.84 Y105.839 E150.93553
G1 X80.84 Y87.089 E151.80861
G1 X87.09 Y87.089 E152.09963
G1 X87.09 Y72.909 E152.75991
G1 X80.84 Y72.909 E153.05094
G1 X80.84 Y66.659 E153.34197
G1 X72.91 Y66.659 E153.71122
M204 S3000
M205 X10 Y10
G0 F3000 X73.47 Y67.219
M204 S1800
M205 X8 Y8
;TYPE:WALL-OUTER
G1 F1500 X73.47 Y85.969 E154.5843
G1 X67.22 Y85.969 E154.87533
G1 X67.22 Y99.029 E155.48345
G1 X73.47 Y99.029 E155.77448
G1 X73.47 Y105.279 E156.06551
G1 X80.28 Y105.279 E156.38261
G1 X80.28 Y86.529 E157.25569
G1 X86.53 Y86.529 E157.54671
G1 X86.53 Y73.469 E158.15484
G1 X80.28 Y73.469 E158.44587
G1 X80.28 Y67.219 E158.73689
G1 X73.47 Y67.219 E159.054
M204 S3000
M205 X10 Y10
G0 F3000 X73.47 Y67.419
G0 X72.81 Y67.419
G0 X80.868 Y66.631
G0 X87.118 Y72.881
G0 X92.22 Y85.309
G0 X92.22 Y85.969
M204 S1800
M205 X8 Y8
G1 F1500 X92.22 Y111.529 E160.24418
G1 X99.03 Y111.529 E160.56128
G1 X99.03 Y105.279 E160.85231
G1 X105.28 Y105.279 E161.14333
G1 X105.28 Y92.219 E161.75146
G1 X99.03 Y92.219 E162.04249
G1 X99.03 Y85.969 E162.33351
G1 X92.22 Y85.969 E162.65061
M204 S3000
M205 X10 Y10
G0 F3000 X92.22 Y86.169
G0 X91.56 Y86.169
G0 X110.382 Y79.131
G0 X110.97 Y79.719
M204 S1800
M205 X8 Y8
G1 F1500 X110.97 Y92.779 E163.25874
G1 X124.03 Y92.779 E163.86687
G1 X124.03 Y79.719 E164.475
G1 X110.97 Y79.719 E165.08313
M204 S3000
M205 X10 Y10
G0 F3000 X110.97 Y79.919
G0 X110.31 Y79.919
G0 X110.382 Y93.367
G0 X110.97 Y104.059
G0 X110.97 Y104.719
M204 S1800
M205 X8 Y8
G1 F1500 X110.97 Y136.529 E166.56433
G1 X117.78 Y136.529 E166.88144
G1 X117.78 Y124.029 E167.46349
G1 X124.03 Y124.029 E167.75451
G1 X124.03 Y110.969 E168.36264
G1 X117.78 Y110.969 E168.65367
G1 X117.78 Y104.719 E168.9447
G1 X110.97 Y104.719 E169.2618
M204 S3000
M205 X10 Y10
G0 F3000 X110.97 Y104.919
G0 X110.31 Y104.919
G0 X129.132 Y97.881
G0 X129.72 Y98.469
M204 S1800
M205 X8 Y8
G1 F1500 X129.72 Y111.529 E169.86993
G1 X136.53 Y111.529 E170.18703
G1 X136.53 Y98.469 E170.79516
G1 X129.72 Y98.469 E171.11226
M204 S3000
M205 X10 Y10
G0 F3000 X129.72 Y98.669
G0 X129.06 Y98.669
G0 X129.132 Y112.117
G0 X135.97 Y122.809
G0 X135.97 Y123.469
M204 S1800
M205 X8 Y8
G1 F1500 X135.97 Y130.279 E171.42936
G1 X142.78 Y130.279 E171.74646
G1 X142.78 Y123.469 E172.06356
G1 X135.97 Y123.469 E172.38067
M204 S3000
M205 X10 Y10
