;FLAVOR:Marlin
;TIME:2994
;Filament used: 2.54176m
;Layer height: 0.2
;MINX:53.601
;MINY:56.601
;MINZ:0.2
;MAXX:156.399
;MAXY:153.399
;MAXZ:4.6
;Generated with Cura_SteamEngine 4.8.0
M140 S55
M105
M190 S55
M104 S200
M105
M109 S200
M82 ;absolute extrusion mode
; Script based on an original created by tjjfvi (https://github.com/tjjfvi)
; An up-to-date version of the tjjfvi's original script can be found
; here:  https://csi.t6.fyi/
; Note - This script will only work in Cura V4.2 and above!
; --- Global Settings
; layer_height = 0.2
; smooth_spiralized_contours = True
; magic_mesh_surface_mode = normal
; machine_extruder_count = 1
; --- Single Extruder Settings
; speed_z_hop = 10
; retraction_amount = 6
; retraction_hop = 0.075
; retraction_hop_enabled = True
; retraction_enable = True
; retraction_speed = 40
; retraction_retract_speed = 40
; retraction_prime_speed = 40
; speed_travel = 100


G21 ;metric values
G90 ;absolute positioning
M82 ;set extruder to absolute mode
M107 ;start with the fan off
G28 X0 Y0 ;move X/Y to min endstops
G28 Z0 ;move Z to min endstops
G1 Z15.0 F100 ;move the platform down 15mm
G92 E0 ;zero the extruded length
G1 F200 E3 ;extrude 3mm of feed stock
G92 E0 ;zero the extruded length again
G1 F100
G0 Y20 F100
M117 Printing...
G5
G92 E0
G92 E0
G1 F2400 E-6
;LAYER_COUNT:23
;LAYER:0
M106 S255
M204 S3000
M205 X10 Y10
G1 F600 Z0.275
G0 F3000 X55.534 Y58.436 Z0.275
M204 S1800
M205 X8 Y8
;TYPE:SKIRT
G1 F600 Z0.2
G1 F2400 E0
G1 X56.072 Y57.965 E0.0333
G1 X56.66 Y57.557 E0.06662
G1 X57.289 Y57.217 E0.09991
G1 X57.953 Y56.95 E0.13324
G1 X58.642 Y56.758 E0.16654
G1 X59.348 Y56.644 E0.19984
G1 X60.152 Y56.604 E0.23733
G1 X60.331 Y56.601 E0.24566
G1 X131.292 Y56.601 E3.54991
G1 X132.084 Y56.612 E3.58679
G1 X132.798 Y56.662 E3.62012
G1 X133.501 Y56.791 E3.6534
G1 X134.186 Y56.998 E3.68672
G1 X134.843 Y57.281 E3.72003
G1 X135.465 Y57.634 E3.75333
G1 X136.043 Y58.055 E3.78663
G1 X136.571 Y58.538 E3.81995
G1 X137.041 Y59.077 E3.85325
G1 X137.391 Y59.572 E3.88148
G1 X137.686 Y60.037 E3.90712
G1 X138.6 Y61.521 E3.98828
G1 X140.049 Y63.731 E4.11133
G1 X141.586 Y65.935 E4.23645
G1 X143.151 Y68.052 E4.35904
G1 X144.782 Y70.132 E4.48211
G1 X146.453 Y72.141 E4.60379
G1 X148.218 Y74.146 E4.72817
G1 X150.035 Y76.099 E4.85238
G1 X151.855 Y77.946 E4.97313
G1 X153.905 Y79.908 E5.10526
G1 X154.35 Y80.323 E5.13359
G1 X154.845 Y80.838 E5.16685
G1 X155.28 Y81.406 E5.20017
G1 X155.649 Y82.019 E5.23348
G1 X155.947 Y82.669 E5.26678
G1 X156.17 Y83.349 E5.3001
G1 X156.317 Y84.049 E5.33341
G1 X156.386 Y84.81 E5.36899
G1 X156.399 Y85.331 E5.39326
G1 X156.398 Y116.383 E6.83917
G1 X156.388 Y117.088 E6.872
G1 X156.338 Y117.801 E6.90528
G1 X156.209 Y118.505 E6.93861
G1 X156.002 Y119.189 E6.97188
G1 X155.859 Y119.548 E6.98988
G1 X155.613 Y120.114 E7.01861
G1 X154.597 Y122.545 E7.1413
G1 X153.616 Y125.086 E7.26813
G1 X152.767 Y127.498 E7.3872
G1 X151.944 Y130.058 E7.51241
G1 X151.21 Y132.579 E7.63467
G1 X150.545 Y135.138 E7.75779
G1 X149.943 Y137.75 E7.8826
G1 X149.422 Y140.334 E8.00535
G1 X148.977 Y142.94 E8.12845
G1 X148.603 Y145.566 E8.25196
G1 X148.413 Y147.239 E8.33036
G1 X148.339 Y147.811 E8.35722
G1 X148.208 Y148.514 E8.39052
G1 X147.999 Y149.198 E8.42382
G1 X147.715 Y149.855 E8.45715
G1 X147.36 Y150.476 E8.49046
G1 X146.937 Y151.053 E8.52377
G1 X146.453 Y151.579 E8.55706
G1 X145.913 Y152.048 E8.59036
G1 X145.324 Y152.454 E8.62367
G1 X144.694 Y152.792 E8.65696
G1 X144.029 Y153.057 E8.69029
G1 X143.34 Y153.247 E8.72358
G1 X142.633 Y153.358 E8.7569
G1 X141.85 Y153.396 E8.7934
G1 X141.671 Y153.399 E8.80174
G1 X60.616 Y153.398 E12.576
G1 X59.918 Y153.388 E12.6085
G1 X59.205 Y153.338 E12.64179
G1 X58.501 Y153.209 E12.67511
G1 X57.817 Y153.001 E12.7084
G1 X57.16 Y152.719 E12.74169
G1 X56.538 Y152.365 E12.77502
G1 X55.96 Y151.944 E12.80832
G1 X55.432 Y151.461 E12.84164
G1 X54.962 Y150.923 E12.8749
G1 X54.554 Y150.335 E12.90823
G1 X54.215 Y149.705 E12.94154
G1 X53.948 Y149.042 E12.97482
G1 X53.757 Y148.352 E13.00816
G1 X53.644 Y147.646 E13.04145
G1 X53.603 Y146.83 E13.0795
G1 X53.601 Y146.657 E13.08755
G1 X53.602 Y118.108 E14.41691
G1 X53.613 Y117.402 E14.44979
G1 X53.664 Y116.689 E14.48308
G1 X54.253 Y113.254 E14.64536
G1 X54.624 Y110.642 E14.7682
G1 X54.923 Y108.009 E14.8916
G1 X55.148 Y105.366 E15.01511
G1 X55.298 Y102.701 E15.1394
G1 X55.372 Y100.09 E15.26103
G1 X55.372 Y97.412 E15.38573
G1 X55.298 Y94.81 E15.50694
G1 X55.146 Y92.13 E15.63193
G1 X54.921 Y89.492 E15.75521
G1 X54.624 Y86.875 E15.87785
G1 X54.25 Y84.252 E16.00123
G1 X53.786 Y81.552 E16.12879
G1 X53.701 Y81.062 E16.15195
G1 X53.613 Y80.168 E16.19378
G1 X53.601 Y79.669 E16.21702
G1 X53.602 Y63.588 E16.96582
G1 X53.611 Y62.923 E16.99679
G1 X53.66 Y62.21 E17.03007
G1 X53.789 Y61.506 E17.06339
G1 X53.996 Y60.822 E17.09667
G1 X54.278 Y60.164 E17.13
G1 X54.631 Y59.542 E17.16331
G1 X55.051 Y58.964 E17.19658
G1 X55.534 Y58.436 E17.2299
M204 S3000
M205 X10 Y10
G0 F3000 X56.081 Y58.689
M204 S1800
M205 X8 Y8
G1 F2400 X56.613 Y58.26 E17.26172
G1 X57.191 Y57.895 E17.29355
G1 X57.808 Y57.601 E17.32538
G1 X58.454 Y57.381 E17.35715
G1 X59.122 Y57.238 E17.38896
G1 X59.846 Y57.172 E17.42281
G1 X60.331 Y57.161 E17.4454
G1 X131.292 Y57.161 E20.74965
G1 X132.076 Y57.172 E20.78616
G1 X132.758 Y57.221 E20.81799
G1 X133.429 Y57.35 E20.84981
G1 X134.08 Y57.557 E20.88162
G1 X134.703 Y57.838 E20.91344
G1 X135.288 Y58.19 E20.94523
G1 X135.829 Y58.607 E20.97704
G1 X136.317 Y59.086 E21.00888
G1 X136.918 Y59.873 E21.05499
G1 X137.209 Y60.331 E21.08026
G1 X138.131 Y61.828 E21.16212
G1 X139.593 Y64.056 E21.28621
G1 X141.107 Y66.229 E21.40953
G1 X142.691 Y68.372 E21.53362
G1 X144.356 Y70.494 E21.65921
G1 X146.049 Y72.531 E21.78255
G1 X147.807 Y74.528 E21.90644
G1 X149.622 Y76.478 E22.03048
G1 X151.465 Y78.348 E22.15274
G1 X153.476 Y80.274 E22.2824
G1 X153.968 Y80.732 E22.3137
G1 X154.44 Y81.226 E22.34551
G1 X154.851 Y81.772 E22.37733
G1 X155.196 Y82.362 E22.40916
G1 X155.469 Y82.988 E22.44096
G1 X155.667 Y83.642 E22.47278
G1 X155.788 Y84.315 E22.50462
G1 X155.826 Y84.827 E22.52852
G1 X155.839 Y85.331 E22.552
G1 X155.838 Y116.375 E23.99754
G1 X155.828 Y117.08 E24.03037
G1 X155.779 Y117.761 E24.06216
G1 X155.65 Y118.432 E24.09398
G1 X155.345 Y119.325 E24.13792
G1 X155.099 Y119.891 E24.16666
G1 X154.072 Y122.347 E24.29061
G1 X153.101 Y124.865 E24.41628
G1 X152.237 Y127.317 E24.53733
G1 X151.404 Y129.907 E24.66402
G1 X150.671 Y132.426 E24.78618
G1 X149.998 Y135.015 E24.91074
G1 X149.398 Y137.617 E25.03508
G1 X148.872 Y140.233 E25.15933
G1 X148.426 Y142.841 E25.28253
G1 X148.048 Y145.494 E25.40732
G1 X147.858 Y147.167 E25.48572
G1 X147.784 Y147.739 E25.51257
G1 X147.657 Y148.411 E25.54442
G1 X147.452 Y149.062 E25.5762
G1 X147.173 Y149.686 E25.60803
G1 X146.822 Y150.272 E25.63984
G1 X146.406 Y150.814 E25.67165
G1 X145.929 Y151.303 E25.70346
G1 X145.398 Y151.734 E25.7353
G1 X144.821 Y152.099 E25.7671
G1 X144.205 Y152.395 E25.79892
G1 X143.558 Y152.616 E25.83076
G1 X142.891 Y152.76 E25.86253
G1 X142.156 Y152.828 E25.8969
G1 X141.671 Y152.839 E25.91949
G1 X60.624 Y152.838 E29.69338
G1 X59.926 Y152.828 E29.72588
G1 X59.245 Y152.779 E29.75767
G1 X58.574 Y152.65 E29.78949
G1 X57.923 Y152.443 E29.8213
G1 X57.3 Y152.162 E29.85312
G1 X56.714 Y151.81 E29.88496
G1 X56.174 Y151.392 E29.91675
G1 X55.686 Y150.914 E29.94856
G1 X55.257 Y150.382 E29.98038
G1 X54.893 Y149.804 E30.01219
G1 X54.599 Y149.187 E30.04402
G1 X54.38 Y148.54 E30.07582
G1 X54.237 Y147.872 E30.10763
G1 X54.172 Y147.147 E30.14153
G1 X54.161 Y146.657 E30.16435
G1 X54.162 Y118.117 E31.49329
G1 X54.173 Y117.411 E31.52617
G1 X54.27 Y116.437 E31.57175
G1 X54.357 Y115.968 E31.59396
G1 X54.803 Y113.358 E31.71725
G1 X55.18 Y110.709 E31.84184
G1 X55.482 Y108.05 E31.96645
G1 X55.707 Y105.408 E32.08992
G1 X55.856 Y102.749 E32.21393
G1 X55.932 Y100.071 E32.33868
G1 X55.932 Y97.431 E32.46161
G1 X55.857 Y94.764 E32.58584
G1 X55.704 Y92.083 E32.71089
G1 X55.48 Y89.454 E32.83375
G1 X55.179 Y86.803 E32.95798
G1 X54.801 Y84.153 E33.08263
G1 X54.336 Y81.446 E33.21052
G1 X54.253 Y80.968 E33.23311
G1 X54.172 Y80.152 E33.27129
G1 X54.161 Y79.669 E33.29379
G1 X54.162 Y63.596 E34.04222
G1 X54.171 Y62.931 E34.07318
G1 X54.22 Y62.25 E34.10498
G1 X54.348 Y61.578 E34.13683
G1 X54.554 Y60.927 E34.16863
G1 X54.835 Y60.304 E34.20045
G1 X55.186 Y59.718 E34.23226
G1 X55.604 Y59.177 E34.26409
G1 X56.081 Y58.689 E34.29587
M204 S3000
M205 X10 Y10
G0 F3000 X56.155 Y59.402
M204 S1800
M205 X8 Y8
G1 F2400 X56.627 Y58.956 E34.3261
G1 X57.15 Y58.572 E34.35632
G1 X57.717 Y58.254 E34.38659
G1 X58.318 Y58.008 E34.41683
G1 X58.945 Y57.838 E34.44708
G1 X59.862 Y57.732 E34.49006
G1 X60.331 Y57.721 E34.5119
G1 X131.292 Y57.721 E37.81615
G1 X132.068 Y57.732 E37.85228
G1 X132.716 Y57.781 E37.88254
G1 X133.353 Y57.909 E37.9128
G1 X133.969 Y58.115 E37.94304
G1 X134.555 Y58.394 E37.97326
G1 X135.103 Y58.744 E38.00354
G1 X135.603 Y59.158 E38.03377
G1 X136.049 Y59.631 E38.06404
G1 X136.446 Y60.174 E38.09536
G1 X136.732 Y60.625 E38.12023
G1 X137.647 Y62.11 E38.20145
G1 X139.126 Y64.365 E38.32702
G1 X140.658 Y66.564 E38.45182
G1 X142.261 Y68.731 E38.57733
G1 X143.914 Y70.84 E38.7021
G1 X145.611 Y72.88 E38.82566
G1 X147.392 Y74.902 E38.95113
G1 X149.209 Y76.856 E39.07538
G1 X151.075 Y78.75 E39.19918
G1 X153.122 Y80.709 E39.33111
G1 X153.587 Y81.142 E39.3607
G1 X154.034 Y81.613 E39.39094
G1 X154.42 Y82.136 E39.4212
G1 X154.739 Y82.702 E39.45146
G1 X154.986 Y83.302 E39.48167
G1 X155.158 Y83.929 E39.51194
G1 X155.266 Y84.844 E39.55485
G1 X155.279 Y85.331 E39.57753
G1 X155.278 Y116.367 E41.0227
G1 X155.268 Y117.072 E41.05553
G1 X155.219 Y117.72 E41.08579
G1 X155.091 Y118.356 E41.116
G1 X154.831 Y119.102 E41.15278
G1 X154.615 Y119.599 E41.17802
G1 X153.549 Y122.15 E41.30675
G1 X152.574 Y124.674 E41.43275
G1 X151.692 Y127.18 E41.55645
G1 X150.884 Y129.691 E41.67928
G1 X150.126 Y132.296 E41.80561
G1 X149.451 Y134.893 E41.93056
G1 X148.852 Y137.49 E42.05466
G1 X148.322 Y140.125 E42.17981
G1 X147.869 Y142.778 E42.30513
G1 X147.492 Y145.421 E42.42945
G1 X147.302 Y147.095 E42.5079
G1 X147.228 Y147.667 E42.53476
G1 X147.106 Y148.305 E42.565
G1 X146.905 Y148.923 E42.59526
G1 X146.631 Y149.512 E42.62551
G1 X146.286 Y150.063 E42.65578
G1 X145.876 Y150.567 E42.68603
G1 X145.407 Y151.017 E42.7163
G1 X144.887 Y151.405 E42.74651
G1 X144.323 Y151.728 E42.77678
G1 X143.724 Y151.978 E42.807
G1 X143.098 Y152.153 E42.83727
G1 X142.14 Y152.268 E42.88219
G1 X141.671 Y152.279 E42.90404
G1 X60.632 Y152.278 E46.67755
G1 X59.934 Y152.268 E46.71006
G1 X59.287 Y152.219 E46.74027
G1 X58.65 Y152.091 E46.77053
G1 X58.034 Y151.885 E46.80077
G1 X57.447 Y151.605 E46.83106
G1 X56.9 Y151.256 E46.86127
G1 X56.399 Y150.842 E46.89153
G1 X55.954 Y150.369 E46.92177
G1 X55.569 Y149.845 E46.95205
G1 X55.252 Y149.278 E46.9823
G1 X55.007 Y148.677 E47.01252
G1 X54.838 Y148.05 E47.04276
G1 X54.732 Y147.132 E47.08579
G1 X54.721 Y146.657 E47.10791
G1 X54.722 Y118.126 E48.43643
G1 X54.733 Y117.42 E48.46931
G1 X54.821 Y116.539 E48.51054
G1 X54.901 Y116.105 E48.53109
G1 X55.36 Y113.428 E48.65756
G1 X55.736 Y110.782 E48.78201
G1 X56.037 Y108.122 E48.90666
G1 X56.265 Y105.455 E49.0313
G1 X56.416 Y102.76 E49.15698
G1 X56.492 Y100.087 E49.2815
G1 X56.492 Y97.415 E49.40592
G1 X56.416 Y94.716 E49.53165
G1 X56.265 Y92.076 E49.65478
G1 X56.035 Y89.378 E49.78086
G1 X55.735 Y86.73 E49.90495
G1 X55.358 Y84.083 E50.02945
G1 X54.898 Y81.401 E50.15616
G1 X54.805 Y80.874 E50.18108
G1 X54.732 Y80.136 E50.21561
G1 X54.721 Y79.669 E50.23736
G1 X54.721 Y63.604 E50.98542
G1 X54.73 Y62.939 E51.01638
G1 X54.779 Y62.291 E51.04664
G1 X54.907 Y61.654 E51.0769
G1 X55.112 Y61.037 E51.10717
G1 X55.392 Y60.451 E51.13741
G1 X55.741 Y59.903 E51.16767
G1 X56.155 Y59.402 E51.19793
M204 S3000
M205 X10 Y10
G1 F2400 E45.19793
;MESH:minecraft_ore_back_panel_insert_without_button.stl
G0 F3000 X59.336 Y63.855
G0 X60.855 Y63.855
G0 X72.747 Y79.131
G0 X79.869 Y103.221
G0 X84.097 Y131.097
M204 S1800
M205 X8 Y8
;TYPE:WALL-INNER
G1 F2400 E51.19793
G1 F1500 X84.097 Y141.903 E51.7011
G1 X94.903 Y141.903 E52.20428
G1 X94.903 Y138.27 E52.37344
G1 X86.961 Y138.27 E52.74326
G1 X86.961 Y131.097 E53.07726
G1 X84.097 Y131.097 E53.21062
M204 S3000
M205 X10 Y10
G0 F3000 X130.599 Y86.401
M204 S1800
M205 X8 Y8
G1 F1500 X148.599 Y86.401 E54.04878
G1 X148.599 Y115.639 E55.41022
G1 X131.851 Y116.143 E56.19043
G1 X131.851 Y131.401 E56.90091
G1 X140.601 Y131.401 E57.30834
G1 X140.601 Y145.599 E57.96946
G1 X61.401 Y145.599 E61.65735
G1 X61.401 Y118.901 E62.90052
G1 X80.401 Y118.901 E63.78524
G1 X80.401 Y102.689 E64.54013
G1 X73.279 Y102.689 E64.87176
G1 X73.279 Y78.599 E65.9935
G1 X61.401 Y78.599 E66.54659
G1 X61.401 Y64.401 E67.2077
G1 X130.599 Y64.401 E70.42985
G1 X130.599 Y86.401 E71.45426
M204 S3000
M205 X10 Y10
G0 F3000 X131.159 Y85.841
M204 S1800
M205 X8 Y8
G1 F1500 X149.159 Y85.841 E72.29242
G1 X149.159 Y116.183 E73.70527
G1 X132.411 Y116.686 E74.48548
G1 X132.411 Y130.841 E75.1446
G1 X141.161 Y130.841 E75.55203
G1 X141.161 Y146.159 E76.2653
G1 X60.841 Y146.159 E80.00534
G1 X60.841 Y118.341 E81.30066
G1 X79.841 Y118.341 E82.18538
G1 X79.841 Y103.249 E82.88813
G1 X72.719 Y103.249 E83.21976
G1 X72.719 Y79.159 E84.34149
G1 X60.841 Y79.159 E84.89458
G1 X60.841 Y63.841 E85.60785
G1 X131.159 Y63.841 E88.88215
G1 X131.159 Y85.841 E89.90656
M204 S3000
M205 X10 Y10
G0 F3000 X131.089 Y85.911
G0 X84.587 Y131.587
G0 X84.657 Y131.657
M204 S1800
M205 X8 Y8
G1 F1500 X84.657 Y141.343 E90.35758
G1 X94.343 Y141.343 E90.8086
G1 X94.343 Y138.83 E90.92562
G1 X86.401 Y138.83 E91.29543
G1 X86.401 Y131.657 E91.62944
G1 X84.657 Y131.657 E91.71064
M204 S3000
M205 X10 Y10
G0 F3000 X85.217 Y132.217
M204 S1800
M205 X8 Y8
;TYPE:WALL-OUTER
G1 F1500 X85.217 Y140.783 E92.10951
G1 X93.783 Y140.783 E92.50838
G1 X93.783 Y139.39 E92.57325
G1 X85.841 Y139.39 E92.94306
G1 X85.841 Y132.217 E93.27706
G1 X85.217 Y132.217 E93.30612
M204 S3000
M205 X10 Y10
G0 F3000 X85.217 Y132.417
G0 X84.557 Y132.417
G0 X131.059 Y85.281
G0 X131.719 Y85.281
M204 S1800
M205 X8 Y8
G1 F1500 X149.719 Y85.281 E94.14427
G1 X149.719 Y116.727 E95.60853
G1 X132.971 Y117.229 E96.38874
G1 X132.971 Y130.281 E96.9965
G1 X141.721 Y130.281 E97.40393
G1 X141.721 Y146.719 E98.16935
G1 X60.281 Y146.719 E101.96154
G1 X60.281 Y117.781 E103.30902
G1 X79.281 Y117.781 E104.19374
G1 X79.281 Y103.809 E104.84433
G1 X72.159 Y103.809 E105.17596
G1 X72.159 Y79.719 E106.29769
G1 X60.281 Y79.719 E106.85078
G1 X60.281 Y63.281 E107.6162
G1 X131.719 Y63.281 E110.94266
G1 X131.719 Y85.281 E111.96707
M204 S3000
M205 X10 Y10
G0 F3000 X131.919 Y85.281
G0 X131.919 Y85.941
G0 X130.049 Y86.951
M204 S1800
M205 X8 Y8
;TYPE:SKIN
G1 F1500 X148.049 Y86.951 E112.80522
G1 X148.049 Y115.105 E114.11619
G1 X131.301 Y115.609 E114.8964
G1 X131.301 Y131.951 E115.65735
G1 X140.051 Y131.951 E116.06479
G1 X140.051 Y145.049 E116.67469
G1 X61.951 Y145.049 E120.31135
G1 X61.951 Y119.451 E121.5033
G1 X80.951 Y119.451 E122.38802
G1 X80.951 Y102.139 E123.19414
G1 X73.829 Y102.139 E123.52577
G1 X73.829 Y78.049 E124.6475
G1 X61.951 Y78.049 E125.20059
G1 X61.951 Y64.951 E125.81049
G1 X130.049 Y64.951 E128.98142
G1 X130.049 Y86.951 E130.00583
M204 S3000
M205 X10 Y10
G0 F3000 X87.511 Y130.547
M204 S1800
M205 X8 Y8
G1 F1500 X83.547 Y130.547 E130.19041
G1 X83.547 Y142.453 E130.7448
G1 X95.453 Y142.453 E131.2992
G1 X95.453 Y137.72 E131.51958
G1 X87.511 Y137.72 E131.8894
G1 X87.511 Y130.547 E132.2234
M204 S3000
M205 X10 Y10
G0 F3000 X84.629 Y131.629
G0 X62.424 Y144.788
M204 S1800
M205 X8 Y8
G1 F1500 X62.211 Y144.575 E132.23743
M204 S3000
M205 X10 Y10
