;FLAVOR:Marlin
;TIME:14195
;Filament used: 10.6308m
;Layer height: 0.2
;MINX:44.6
;MINY:48.6
;MINZ:0.2
;MAXX:165.4
;MAXY:161.4
;MAXZ:4.8
;Generated with Cura_SteamEngine 4.8.0
M140 S55
M105
M190 S55
M104 S200
M105
M109 S200
M82 ;absolute extrusion mode
; Script based on an original created by tjjfvi (https://github.com/tjjfvi)
; An up-to-date version of the tjjfvi's original script can be found
; here:  https://csi.t6.fyi/
; Note - This script will only work in Cura V4.2 and above!
; --- Global Settings
; layer_height = 0.2
; smooth_spiralized_contours = True
; magic_mesh_surface_mode = normal
; machine_extruder_count = 1
; --- Single Extruder Settings
; speed_z_hop = 10
; retraction_amount = 6
; retraction_hop = 0.075
; retraction_hop_enabled = True
; retraction_enable = True
; retraction_speed = 40
; retraction_retract_speed = 40
; retraction_prime_speed = 40
; speed_travel = 100


G21 ;metric values
G90 ;absolute positioning
M82 ;set extruder to absolute mode
M107 ;start with the fan off
G28 X0 Y0 ;move X/Y to min endstops
G28 Z0 ;move Z to min endstops
G1 Z15.0 F100 ;move the platform down 15mm
G92 E0 ;zero the extruded length
G1 F200 E3 ;extrude 3mm of feed stock
G92 E0 ;zero the extruded length again
G1 F100
G0 Y20 F100
M117 Printing...
G5
G92 E0
G92 E0
G1 F2400 E-6
;LAYER_COUNT:24
;LAYER:0
M106 S255
M204 S3000
M205 X10 Y10
G1 F600 Z0.275
G0 F3000 X48.539 Y50.428 Z0.275
M204 S1800
M205 X8 Y8
;TYPE:SKIRT
G1 F600 Z0.2
G1 F2400 E0
G1 X49.078 Y49.958 E0.0333
G1 X49.666 Y49.551 E0.0666
G1 X50.296 Y49.212 E0.09991
G1 X50.96 Y48.946 E0.13322
G1 X51.649 Y48.755 E0.16651
G1 X52.356 Y48.642 E0.19985
G1 X53.148 Y48.603 E0.23677
G1 X53.328 Y48.6 E0.24516
G1 X156.293 Y48.6 E5.03964
G1 X157.082 Y48.611 E5.07638
G1 X157.795 Y48.661 E5.10966
G1 X158.499 Y48.79 E5.14299
G1 X159.183 Y48.998 E5.17628
G1 X159.841 Y49.28 E5.20961
G1 X160.462 Y49.634 E5.2429
G1 X161.04 Y50.055 E5.2762
G1 X161.568 Y50.538 E5.30952
G1 X162.038 Y51.076 E5.34278
G1 X162.446 Y51.664 E5.37611
G1 X162.785 Y52.294 E5.40942
G1 X163.052 Y52.958 E5.44274
G1 X163.243 Y53.647 E5.47604
G1 X163.325 Y54.097 E5.49734
G1 X163.533 Y55.549 E5.56564
G1 X163.57 Y55.832 E5.57893
G1 X163.994 Y58.477 E5.70366
G1 X164.161 Y59.373 E5.7461
G1 X164.297 Y60.162 E5.78338
G1 X164.387 Y61.056 E5.82522
G1 X164.4 Y61.58 E5.84963
G1 X164.4 Y65.962 E6.05367
G1 X164.438 Y68.604 E6.17671
G1 X164.55 Y71.244 E6.29975
G1 X164.737 Y73.889 E6.42322
G1 X164.999 Y76.527 E6.54666
G1 X165.331 Y79.12 E6.66838
G1 X165.348 Y79.268 E6.67532
G1 X165.387 Y79.804 E6.70035
G1 X165.4 Y80.328 E6.72475
G1 X165.399 Y85.63 E6.97164
G1 X165.373 Y87.446 E7.05621
G1 X165.354 Y88.108 E7.08704
G1 X165.354 Y90.765 E7.21076
G1 X165.385 Y92.252 E7.28002
G1 X165.4 Y92.832 E7.30704
G1 X165.399 Y98.141 E7.55425
G1 X165.388 Y98.857 E7.58759
G1 X165.311 Y99.752 E7.62942
G1 X165.174 Y100.625 E7.67057
G1 X164.785 Y103.349 E7.7987
G1 X164.49 Y105.948 E7.92049
G1 X164.263 Y108.605 E8.04466
G1 X164.112 Y111.268 E8.16886
G1 X164.037 Y113.877 E8.2904
G1 X164.037 Y116.521 E8.41352
G1 X164.112 Y119.193 E8.53798
G1 X164.262 Y121.852 E8.662
G1 X164.371 Y123.253 E8.72743
G1 X164.397 Y123.883 E8.75679
G1 X164.4 Y124.077 E8.76582
G1 X164.399 Y129.368 E9.01219
G1 X164.388 Y130.104 E9.04647
G1 X164.337 Y130.821 E9.07994
G1 X164.126 Y132.469 E9.15731
G1 X163.834 Y135.108 E9.28094
G1 X163.616 Y137.771 E9.40535
G1 X163.475 Y140.393 E9.52762
G1 X163.4 Y144.181 E9.70404
G1 X163.399 Y154.352 E10.17764
G1 X163.389 Y155.079 E10.2115
G1 X163.34 Y155.793 E10.24483
G1 X163.211 Y156.496 E10.27811
G1 X163.004 Y157.181 E10.31143
G1 X162.722 Y157.838 E10.34472
G1 X162.368 Y158.46 E10.37804
G1 X161.948 Y159.038 E10.41131
G1 X161.465 Y159.566 E10.44463
G1 X160.927 Y160.037 E10.47793
G1 X160.339 Y160.445 E10.51126
G1 X159.709 Y160.785 E10.54459
G1 X159.046 Y161.052 E10.57787
G1 X158.357 Y161.243 E10.61116
G1 X157.651 Y161.357 E10.64446
G1 X156.85 Y161.397 E10.68181
G1 X156.67 Y161.4 E10.69019
G1 X52.622 Y161.399 E15.5351
G1 X51.924 Y161.39 E15.56761
G1 X51.211 Y161.341 E15.60089
G1 X50.507 Y161.213 E15.6342
G1 X49.822 Y161.007 E15.66751
G1 X49.165 Y160.725 E15.7008
G1 X48.543 Y160.372 E15.73411
G1 X47.964 Y159.952 E15.76741
G1 X47.435 Y159.47 E15.80074
G1 X46.964 Y158.932 E15.83403
G1 X46.556 Y158.345 E15.86732
G1 X46.216 Y157.715 E15.90065
G1 X45.948 Y157.052 E15.93395
G1 X45.756 Y156.363 E15.96726
G1 X45.642 Y155.657 E16.00056
G1 X45.6 Y154.831 E16.03907
G1 X45.598 Y154.658 E16.04713
G1 X45.599 Y149.365 E16.29359
G1 X45.612 Y148.44 E16.33667
G1 X45.681 Y145.966 E16.45191
G1 X45.681 Y143.318 E16.57521
G1 X45.607 Y140.718 E16.69633
G1 X45.455 Y138.037 E16.82137
G1 X45.23 Y135.4 E16.9446
G1 X44.932 Y132.77 E17.06785
G1 X44.74 Y131.359 E17.13416
G1 X44.673 Y130.892 E17.15613
G1 X44.612 Y130.167 E17.19
G1 X44.6 Y129.668 E17.21325
G1 X44.601 Y124.355 E17.46064
G1 X44.612 Y123.649 E17.49352
G1 X44.663 Y122.936 E17.52681
G1 X45.253 Y119.499 E17.68919
G1 X45.629 Y116.857 E17.81345
G1 X45.927 Y114.235 E17.93633
G1 X46.149 Y111.608 E18.05909
G1 X46.301 Y108.927 E18.18413
G1 X46.375 Y106.321 E18.30552
G1 X46.375 Y103.643 E18.43022
G1 X46.301 Y101.036 E18.55166
G1 X46.15 Y98.364 E18.67628
G1 X45.925 Y95.727 E18.79952
G1 X45.772 Y94.286 E18.86699
G1 X45.649 Y93.216 E18.91714
G1 X45.61 Y92.667 E18.94277
G1 X45.598 Y92.168 E18.96602
G1 X45.599 Y86.857 E19.21332
G1 X45.61 Y86.139 E19.24675
G1 X45.661 Y85.423 E19.28018
G1 X45.872 Y83.777 E19.35745
G1 X46.164 Y81.138 E19.48108
G1 X46.382 Y78.475 E19.6055
G1 X46.523 Y75.853 E19.72777
G1 X46.598 Y72.065 E19.90419
G1 X46.599 Y55.578 E20.67189
G1 X46.609 Y54.913 E20.70286
G1 X46.659 Y54.199 E20.73619
G1 X46.789 Y53.496 E20.76948
G1 X46.997 Y52.812 E20.80277
G1 X47.28 Y52.155 E20.83608
G1 X47.634 Y51.533 E20.8694
G1 X48.056 Y50.955 E20.90273
G1 X48.539 Y50.428 E20.93601
M204 S3000
M205 X10 Y10
G0 F3000 X49.086 Y50.682
M204 S1800
M205 X8 Y8
G1 F2400 X49.618 Y50.254 E20.96781
G1 X50.197 Y49.89 E20.99965
G1 X50.814 Y49.597 E21.03146
G1 X51.461 Y49.378 E21.06326
G1 X52.129 Y49.236 E21.09506
G1 X52.844 Y49.171 E21.12849
G1 X53.328 Y49.16 E21.15104
G1 X156.293 Y49.16 E25.94552
G1 X157.074 Y49.171 E25.98189
G1 X157.755 Y49.22 E26.01368
G1 X158.426 Y49.349 E26.0455
G1 X159.077 Y49.556 E26.07731
G1 X159.7 Y49.837 E26.10913
G1 X160.286 Y50.189 E26.14096
G1 X160.826 Y50.607 E26.17276
G1 X161.314 Y51.085 E26.20457
G1 X161.743 Y51.617 E26.23639
G1 X162.107 Y52.195 E26.2682
G1 X162.401 Y52.812 E26.30002
G1 X162.62 Y53.459 E26.33183
G1 X162.77 Y54.177 E26.36598
G1 X162.978 Y55.622 E26.43396
G1 X163.017 Y55.92 E26.44796
G1 X163.446 Y58.601 E26.57438
G1 X163.609 Y59.468 E26.61546
G1 X163.745 Y60.257 E26.65274
G1 X163.827 Y61.073 E26.69093
G1 X163.84 Y61.58 E26.71455
G1 X163.84 Y65.962 E26.91859
G1 X163.877 Y68.601 E27.04148
G1 X163.992 Y71.308 E27.16765
G1 X164.177 Y73.911 E27.28916
G1 X164.445 Y76.617 E27.41578
G1 X164.775 Y79.184 E27.53629
G1 X164.827 Y79.821 E27.56605
G1 X164.84 Y80.328 E27.58967
G1 X164.839 Y85.622 E27.83618
G1 X164.814 Y87.43 E27.92038
G1 X164.794 Y88.126 E27.9528
G1 X164.794 Y90.777 E28.07624
G1 X164.825 Y92.264 E28.1455
G1 X164.84 Y92.832 E28.17195
G1 X164.839 Y98.133 E28.41879
G1 X164.828 Y98.849 E28.45213
G1 X164.758 Y99.666 E28.49032
G1 X164.607 Y100.627 E28.53561
G1 X164.234 Y103.242 E28.65861
G1 X163.931 Y105.91 E28.78364
G1 X163.704 Y108.56 E28.90749
G1 X163.554 Y111.22 E29.03155
G1 X163.477 Y113.896 E29.1562
G1 X163.477 Y116.537 E29.27918
G1 X163.552 Y119.204 E29.40342
G1 X163.703 Y121.884 E29.52841
G1 X163.813 Y123.297 E29.5944
G1 X163.837 Y123.9 E29.6225
G1 X163.84 Y124.077 E29.63074
G1 X163.839 Y129.359 E29.8767
G1 X163.828 Y130.095 E29.91097
G1 X163.782 Y130.75 E29.94155
G1 X163.571 Y132.398 E30.01891
G1 X163.272 Y135.104 E30.14568
G1 X163.059 Y137.694 E30.26669
G1 X162.915 Y140.381 E30.39199
G1 X162.84 Y144.17 E30.56845
G1 X162.839 Y154.344 E31.0422
G1 X162.829 Y155.071 E31.07605
G1 X162.78 Y155.753 E31.10789
G1 X162.652 Y156.424 E31.1397
G1 X162.445 Y157.075 E31.17151
G1 X162.165 Y157.698 E31.20331
G1 X161.813 Y158.284 E31.23514
G1 X161.396 Y158.825 E31.26695
G1 X160.918 Y159.313 E31.29876
G1 X160.386 Y159.742 E31.33058
G1 X159.808 Y160.106 E31.36239
G1 X159.191 Y160.4 E31.39421
G1 X158.544 Y160.62 E31.42603
G1 X157.876 Y160.763 E31.45784
G1 X157.154 Y160.829 E31.4916
G1 X156.67 Y160.84 E31.51414
G1 X52.63 Y160.84 E36.35868
G1 X51.932 Y160.831 E36.39119
G1 X51.25 Y160.782 E36.42303
G1 X50.579 Y160.654 E36.45483
G1 X49.928 Y160.448 E36.48663
G1 X49.304 Y160.168 E36.51848
G1 X48.718 Y159.817 E36.55028
G1 X48.177 Y159.4 E36.58209
G1 X47.688 Y158.922 E36.61393
G1 X47.259 Y158.391 E36.64572
G1 X46.894 Y157.813 E36.67755
G1 X46.6 Y157.197 E36.70933
G1 X46.379 Y156.55 E36.74117
G1 X46.235 Y155.882 E36.77299
G1 X46.169 Y155.149 E36.80726
G1 X46.158 Y154.658 E36.83012
G1 X46.159 Y149.373 E37.07622
G1 X46.172 Y148.455 E37.11897
G1 X46.241 Y145.981 E37.23421
G1 X46.241 Y143.337 E37.35733
G1 X46.165 Y140.67 E37.48156
G1 X46.013 Y137.995 E37.60632
G1 X45.789 Y135.359 E37.72951
G1 X45.484 Y132.679 E37.85511
G1 X45.295 Y131.284 E37.92066
G1 X45.228 Y130.813 E37.94281
G1 X45.171 Y130.152 E37.9737
G1 X45.16 Y129.668 E37.99625
G1 X45.161 Y124.364 E38.24322
G1 X45.172 Y123.658 E38.2761
G1 X45.269 Y122.683 E38.32173
G1 X45.359 Y122.198 E38.34469
G1 X45.804 Y119.598 E38.46752
G1 X46.184 Y116.929 E38.59306
G1 X46.485 Y114.276 E38.71738
G1 X46.708 Y111.649 E38.84015
G1 X46.859 Y108.975 E38.96486
G1 X46.935 Y106.302 E39.08937
G1 X46.935 Y103.662 E39.2123
G1 X46.859 Y100.988 E39.33687
G1 X46.708 Y98.319 E39.46134
G1 X46.482 Y95.666 E39.58533
G1 X46.328 Y94.226 E39.65276
G1 X46.205 Y93.152 E39.7031
G1 X46.169 Y92.652 E39.72644
G1 X46.158 Y92.168 E39.74898
G1 X46.159 Y86.866 E39.99587
G1 X46.17 Y86.148 E40.0293
G1 X46.216 Y85.495 E40.05979
G1 X46.426 Y83.855 E40.13677
G1 X46.726 Y81.142 E40.26387
G1 X46.939 Y78.552 E40.38488
G1 X47.083 Y75.865 E40.51018
G1 X47.158 Y72.076 E40.68665
G1 X47.159 Y55.586 E41.45449
G1 X47.169 Y54.921 E41.48546
G1 X47.219 Y54.24 E41.51725
G1 X47.348 Y53.569 E41.54907
G1 X47.555 Y52.918 E41.58088
G1 X47.837 Y52.295 E41.61272
G1 X48.189 Y51.71 E41.64451
G1 X48.607 Y51.17 E41.67631
G1 X49.086 Y50.682 E41.70815
M204 S3000
M205 X10 Y10
G0 F3000 X49.158 Y51.396
M204 S1800
M205 X8 Y8
G1 F2400 X49.631 Y50.95 E41.73842
G1 X50.155 Y50.566 E41.76867
G1 X50.722 Y50.25 E41.7989
G1 X51.324 Y50.005 E41.82916
G1 X51.951 Y49.836 E41.8594
G1 X52.86 Y49.731 E41.90201
G1 X53.328 Y49.72 E41.92381
G1 X156.293 Y49.72 E46.71829
G1 X157.066 Y49.731 E46.75429
G1 X157.713 Y49.78 E46.7845
G1 X158.35 Y49.908 E46.81475
G1 X158.966 Y50.114 E46.845
G1 X159.553 Y50.394 E46.87528
G1 X160.1 Y50.743 E46.9055
G1 X160.601 Y51.158 E46.93579
G1 X161.046 Y51.63 E46.96599
G1 X161.431 Y52.154 E46.99627
G1 X161.748 Y52.721 E47.02652
G1 X161.993 Y53.322 E47.05674
G1 X162.216 Y54.257 E47.1015
G1 X162.423 Y55.695 E47.16915
G1 X162.465 Y56.012 E47.18404
G1 X162.891 Y58.677 E47.30971
G1 X163.057 Y59.563 E47.35168
G1 X163.193 Y60.352 E47.38896
G1 X163.268 Y61.09 E47.4235
G1 X163.28 Y61.58 E47.44633
G1 X163.28 Y65.962 E47.65037
G1 X163.318 Y68.633 E47.77476
G1 X163.431 Y71.299 E47.89901
G1 X163.623 Y74.006 E48.02537
G1 X163.884 Y76.645 E48.14886
G1 X164.219 Y79.247 E48.27102
G1 X164.268 Y79.838 E48.29863
G1 X164.28 Y80.328 E48.32145
G1 X164.279 Y85.615 E48.56764
G1 X164.254 Y87.414 E48.65142
G1 X164.234 Y88.11 E48.68384
G1 X164.234 Y90.789 E48.80858
G1 X164.265 Y92.235 E48.87593
G1 X164.28 Y92.832 E48.90374
G1 X164.279 Y98.124 E49.15016
G1 X164.268 Y98.84 E49.1835
G1 X164.205 Y99.579 E49.21804
G1 X164.065 Y100.467 E49.2599
G1 X163.674 Y103.207 E49.38877
G1 X163.376 Y105.833 E49.51184
G1 X163.146 Y108.513 E49.63709
G1 X162.994 Y111.209 E49.76282
G1 X162.917 Y113.88 E49.88725
G1 X162.917 Y116.553 E50.01171
G1 X162.991 Y119.217 E50.13581
G1 X163.147 Y121.956 E50.26356
G1 X163.254 Y123.34 E50.32819
G1 X163.278 Y123.917 E50.35508
G1 X163.28 Y124.077 E50.36253
G1 X163.279 Y129.351 E50.60811
G1 X163.268 Y130.087 E50.64239
G1 X163.226 Y130.679 E50.67002
G1 X163.015 Y132.327 E50.74739
G1 X162.716 Y135.032 E50.87411
G1 X162.498 Y137.689 E50.99825
G1 X162.355 Y140.34 E51.12187
G1 X162.28 Y144.159 E51.29973
G1 X162.28 Y154.337 E51.77366
G1 X162.27 Y155.064 E51.80752
G1 X162.221 Y155.711 E51.83773
G1 X162.093 Y156.348 E51.86799
G1 X161.887 Y156.965 E51.89827
G1 X161.608 Y157.551 E51.9285
G1 X161.259 Y158.099 E51.95875
G1 X160.845 Y158.599 E51.98898
G1 X160.372 Y159.045 E52.01925
G1 X159.849 Y159.43 E52.04949
G1 X159.282 Y159.748 E52.07976
G1 X158.681 Y159.993 E52.10998
G1 X158.054 Y160.163 E52.14023
G1 X157.138 Y160.269 E52.18317
G1 X156.67 Y160.28 E52.20496
G1 X52.637 Y160.28 E57.04918
G1 X51.939 Y160.271 E57.08168
G1 X51.291 Y160.222 E57.11194
G1 X50.654 Y160.095 E57.14219
G1 X50.038 Y159.89 E57.17242
G1 X49.451 Y159.611 E57.20268
G1 X48.903 Y159.262 E57.23293
G1 X48.402 Y158.849 E57.26317
G1 X47.955 Y158.377 E57.29344
G1 X47.57 Y157.854 E57.32368
G1 X47.252 Y157.287 E57.35395
G1 X47.006 Y156.686 E57.38419
G1 X46.836 Y156.059 E57.41444
G1 X46.729 Y155.134 E57.45779
G1 X46.718 Y154.658 E57.47997
G1 X46.719 Y149.381 E57.72568
G1 X46.732 Y148.471 E57.76806
G1 X46.801 Y145.997 E57.88331
G1 X46.801 Y143.321 E58.00791
G1 X46.725 Y140.624 E58.13355
G1 X46.574 Y137.983 E58.25672
G1 X46.344 Y135.282 E58.38295
G1 X46.043 Y132.631 E58.50718
G1 X45.85 Y131.208 E58.57405
G1 X45.782 Y130.734 E58.59635
G1 X45.731 Y130.136 E58.62429
G1 X45.72 Y129.668 E58.64609
G1 X45.721 Y124.373 E58.89265
G1 X45.732 Y123.667 E58.92553
G1 X45.82 Y122.786 E58.96675
G1 X45.903 Y122.336 E58.98806
G1 X46.36 Y119.668 E59.1141
G1 X46.74 Y117.002 E59.2395
G1 X47.041 Y114.348 E59.36387
G1 X47.266 Y111.696 E59.48781
G1 X47.419 Y108.986 E59.6142
G1 X47.495 Y106.318 E59.73848
G1 X47.495 Y103.646 E59.8629
G1 X47.419 Y100.977 E59.98723
G1 X47.266 Y98.275 E60.11325
G1 X47.039 Y95.601 E60.23821
G1 X46.885 Y94.166 E60.30541
G1 X46.761 Y93.088 E60.35594
G1 X46.72 Y92.317 E60.39189
G1 X46.718 Y92.168 E60.39883
G1 X46.719 Y86.874 E60.64534
G1 X46.73 Y86.156 E60.67878
G1 X46.772 Y85.566 E60.70632
G1 X46.982 Y83.926 E60.78331
G1 X47.282 Y81.214 E60.91036
G1 X47.5 Y78.557 E61.0345
G1 X47.643 Y75.906 E61.15812
G1 X47.718 Y72.087 E61.33598
G1 X47.719 Y55.595 E62.10392
G1 X47.729 Y54.93 E62.13489
G1 X47.778 Y54.282 E62.16515
G1 X47.907 Y53.645 E62.19541
G1 X48.113 Y53.029 E62.22565
G1 X48.393 Y52.443 E62.2559
G1 X48.743 Y51.896 E62.28613
G1 X49.158 Y51.396 E62.31639
M204 S3000
M205 X10 Y10
G1 F2400 E56.31639
;MESH:minecraft_ore_lamp_side1.stl
G0 F3000 X52.333 Y55.854
G0 X53.852 Y55.854
G0 X66.1 Y66.1
M204 S1800
M205 X8 Y8
;TYPE:WALL-INNER
G1 F2400 E62.31639
G1 F1500 X66.1 Y75.15 E62.7378
G1 X81.398 Y75.15 E63.45014
G1 X81.398 Y66.1 E63.87154
G1 X66.1 Y66.1 E64.58388
M204 S3000
M205 X10 Y10
G0 F3000 X66.632 Y74.618
G0 X78.598 Y84.848
M204 S1800
M205 X8 Y8
G1 F1500 X78.598 Y100.15 E65.29641
G1 X93.898 Y100.15 E66.00884
G1 X93.898 Y84.848 E66.72136
G1 X78.598 Y84.848 E67.43379
M204 S3000
M205 X10 Y10
G0 F3000 X97.348 Y72.35
M204 S1800
M205 X8 Y8
G1 F1500 X97.348 Y81.398 E67.85511
G1 X112.65 Y81.398 E68.56763
G1 X112.65 Y72.35 E68.98895
G1 X97.348 Y72.35 E69.70147
M204 S3000
M205 X10 Y10
G0 F3000 X97.88 Y80.866
G0 X109.85 Y84.848
M204 S1800
M205 X8 Y8
G1 F1500 X109.85 Y91.098 E69.9925
G1 X103.6 Y91.098 E70.28352
G1 X103.6 Y100.15 E70.70502
G1 X137.648 Y100.15 E72.29044
G1 X137.648 Y91.098 E72.71194
G1 X125.148 Y91.098 E73.29399
G1 X125.148 Y84.848 E73.58502
G1 X109.85 Y84.848 E74.29736
M204 S3000
M205 X10 Y10
G0 F3000 X122.348 Y66.1
M204 S1800
